luts/blade-runner-2049.cube
# CineLUT — Blade Runner 2049 (2017)
# Gerado por generate_luts.py
LUT_3D_SIZE 33
0.035114 0.007088 0.003273
0.056749 0.008356 0.004492
0.079989 0.009604 0.005693
0.104717 0.010842 0.006885
0.130800 0.012075 0.008071
0.158103 0.013305 0.009257
0.186493 0.014534 0.010442
0.215842 0.015765 0.011629
0.246025 0.016997 0.012819
0.276922 0.018233 0.014012
0.308416 0.019472 0.015209
0.340392 0.020715 0.016410
0.372740 0.021962 0.017617
0.405351 0.023214 0.018828
0.438119 0.024471 0.020045
0.470940 0.025733 0.021267
0.503712 0.027001 0.022495
0.536336 0.028274 0.023729
0.568712 0.029553 0.024969
0.600745 0.030837 0.026215
0.632338 0.032128 0.027467
0.663399 0.033424 0.028725
0.693834 0.034726 0.029990
0.723553 0.036035 0.031261
0.752465 0.037349 0.032538
0.780480 0.038670 0.033822
0.807512 0.039997 0.035112
0.829599 0.041126 0.036211
0.829599 0.041126 0.036211
0.829599 0.041126 0.036211
0.829599 0.041126 0.036211
0.829599 0.041126 0.036211
0.829599 0.041126 0.036211
0.038941 0.022103 0.006258
0.061013 0.023543 0.007515
0.084648 0.024958 0.008753
0.109734 0.026358 0.009982
0.136142 0.027749 0.011204
0.163737 0.029135 0.012425
0.192390 0.030518 0.013645
0.221974 0.031900 0.014866
0.252363 0.033282 0.016090
0.283440 0.034665 0.017316
0.315087 0.036050 0.018546
0.347192 0.037438 0.019780
0.379642 0.038828 0.021019
0.412331 0.040222 0.022262
0.445153 0.041619 0.023511
0.478004 0.043020 0.024764
0.510783 0.044425 0.026023
0.543390 0.045835 0.027288
0.575727 0.047249 0.028559
0.607697 0.048668 0.029835
0.639205 0.050091 0.031117
0.670159 0.051519 0.032406
0.700465 0.052953 0.033700
0.730033 0.054391 0.035000
0.758772 0.055835 0.036307
0.786594 0.057283 0.037620
0.813410 0.058737 0.038939
0.835298 0.059974 0.040062
0.835298 0.059974 0.040062
0.835298 0.059974 0.040062
0.835298 0.059974 0.040062
0.835298 0.059974 0.040062
0.835298 0.059974 0.040062
0.043271 0.040883 0.009668
0.065819 0.042502 0.010968
0.089885 0.044090 0.012247
0.115361 0.045659 0.013515
0.142121 0.047216 0.014777
0.170035 0.048764 0.016036
0.198972 0.050307 0.017294
0.228809 0.051847 0.018553
0.259421 0.053385 0.019813
0.290690 0.054921 0.021076
0.322501 0.056458 0.022342
0.354741 0.057995 0.023612
0.387299 0.059534 0.024885
0.420069 0.061075 0.026164
0.452944 0.062617 0.027447
0.485823 0.064162 0.028735
0.518603 0.065710 0.030028
0.551185 0.067262 0.031326
0.583472 0.068816 0.032630
0.615368 0.070374 0.033940
0.646777 0.071935 0.035255
0.677606 0.073500 0.036576
0.707764 0.075069 0.037903
0.737159 0.076642 0.039235
0.765702 0.078219 0.040574
0.793303 0.079800 0.041918
0.819876 0.081385 0.043268
0.841538 0.082733 0.044418
0.841538 0.082733 0.044418
0.841538 0.082733 0.044418
0.841538 0.082733 0.044418
0.841538 0.082733 0.044418
0.841538 0.082733 0.044418
0.047701 0.061805 0.013191
0.070720 0.063592 0.014533
0.095209 0.065341 0.015853
0.121068 0.067068 0.017160
0.148174 0.068780 0.018461
0.176398 0.070480 0.019758
0.205614 0.072172 0.021053
0.235697 0.073859 0.022349
0.266525 0.075541 0.023645
0.297981 0.077221 0.024944
0.329949 0.078900 0.026246
0.362318 0.080577 0.027551
0.394978 0.082254 0.028859
0.427821 0.083931 0.030172
0.460744 0.085609 0.031489
0.493644 0.087289 0.032811
0.526419 0.088970 0.034138
0.558971 0.090652 0.035469
0.591202 0.092337 0.036806
0.623017 0.094024 0.038149
0.654320 0.095714 0.039496
0.685020 0.097406 0.040849
0.715023 0.099101 0.042208
0.744239 0.100798 0.043572
0.772579 0.102499 0.044942
0.799954 0.104203 0.046317
0.826277 0.105910 0.047699
0.847710 0.107360 0.048875
0.847710 0.107360 0.048875
0.847710 0.107360 0.048875
0.847710 0.107360 0.048875
0.847710 0.107360 0.048875
0.847710 0.107360 0.048875
0.052231 0.084726 0.016826
0.075712 0.086669 0.018209
0.100618 0.088569 0.019569
0.126853 0.090443 0.020915
0.154298 0.092298 0.022254
0.182827 0.094139 0.023588
0.212314 0.095970 0.024921
0.242636 0.097793 0.026253
0.273674 0.099611 0.027585
0.305310 0.101423 0.028920
0.337429 0.103233 0.030256
0.369921 0.105040 0.031596
0.402676 0.106845 0.032939
0.435588 0.108649 0.034286
0.468552 0.110453 0.035636
0.501466 0.112256 0.036992
0.534231 0.114060 0.038351
0.566746 0.115864 0.039716
0.598915 0.117670 0.041085
0.630643 0.119476 0.042460
0.661835 0.121284 0.043839
0.692398 0.123093 0.045224
0.722240 0.124904 0.046614
0.751272 0.126717 0.048009
0.779403 0.128532 0.049410
0.806546 0.130349 0.050816
0.832613 0.132169 0.052228
0.853810 0.133713 0.053430
0.853810 0.133713 0.053430
0.853810 0.133713 0.053430
0.853810 0.133713 0.053430
0.853810 0.133713 0.053430
0.853810 0.133713 0.053430
0.056858 0.109504 0.020571
0.080795 0.111590 0.021995
0.106110 0.113630 0.023394
0.132714 0.115640 0.024779
0.160492 0.117628 0.026155
0.189318 0.119599 0.027527
0.219070 0.121558 0.028896
0.249626 0.123508 0.030263
0.280867 0.125449 0.031631
0.312676 0.127384 0.033001
0.344940 0.129315 0.034372
0.377548 0.131241 0.035746
0.410392 0.133164 0.037122
0.443366 0.135085 0.038503
0.476365 0.137004 0.039887
0.509288 0.138922 0.041275
0.542036 0.140839 0.042667
0.574508 0.142755 0.044064
0.606609 0.144671 0.045465
0.638244 0.146587 0.046871
0.669318 0.148503 0.048282
0.699738 0.150420 0.049698
0.729414 0.152338 0.051119
0.758255 0.154256 0.052546
0.786172 0.156176 0.053977
0.813077 0.158096 0.055414
0.838882 0.160018 0.056855
0.859839 0.161649 0.058082
0.859839 0.161649 0.058082
0.859839 0.161649 0.058082
0.859839 0.161649 0.058082
0.859839 0.161649 0.058082
0.859839 0.161649 0.058082
0.061581 0.135995 0.024425
0.085967 0.138214 0.025889
0.111684 0.140382 0.027327
0.138651 0.142517 0.028750
0.166754 0.144626 0.030164
0.195872 0.146718 0.031571
0.225882 0.148794 0.032976
0.256665 0.150859 0.034379
0.288103 0.152914 0.035782
0.320079 0.154962 0.037186
0.352481 0.157003 0.038591
0.385199 0.159039 0.039999
0.418126 0.161070 0.041409
0.451155 0.163097 0.042822
0.484183 0.165122 0.044239
0.517109 0.167144 0.045659
0.549833 0.169163 0.047084
0.582256 0.171181 0.048512
0.614283 0.173198 0.049945
0.645819 0.175214 0.051383
0.676769 0.177229 0.052825
0.707041 0.179244 0.054271
0.736544 0.181258 0.055723
0.765189 0.183272 0.057180
0.792885 0.185287 0.058641
0.819545 0.187301 0.060107
0.845083 0.189316 0.061579
0.865795 0.191026 0.062831
0.865795 0.191026 0.062831
0.865795 0.191026 0.062831
0.865795 0.191026 0.062831
0.865795 0.191026 0.062831
0.865795 0.191026 0.062831
0.066399 0.164057 0.028387
0.091226 0.166397 0.029890
0.117339 0.168682 0.031367
0.144661 0.170930 0.032827
0.173083 0.173151 0.034277
0.202485 0.175351 0.035721
0.232748 0.177535 0.037161
0.263751 0.179705 0.038599
0.295379 0.181864 0.040036
0.327515 0.184013 0.041474
0.360050 0.186155 0.042913
0.392872 0.188289 0.044353
0.425875 0.190418 0.045796
0.458953 0.192542 0.047242
0.492004 0.194662 0.048691
0.524926 0.196778 0.050144
0.557620 0.198891 0.051600
0.589989 0.201001 0.053060
0.621936 0.203109 0.054524
0.653366 0.205215 0.055992
0.684186 0.207319 0.057465
0.714304 0.209421 0.058942
0.743628 0.211523 0.060423
0.772070 0.213623 0.061910
0.799540 0.215723 0.063401
0.825950 0.217822 0.064896
0.851214 0.219920 0.066397
0.871675 0.221699 0.067673
0.871675 0.221699 0.067673
0.871675 0.221699 0.067673
0.871675 0.221699 0.067673
0.871675 0.221699 0.067673
0.871675 0.221699 0.067673
0.071311 0.193547 0.032454
0.096572 0.195997 0.033996
0.123073 0.198388 0.035511
0.150744 0.200739 0.037008
0.179478 0.203060 0.038494
0.209158 0.205358 0.039973
0.239666 0.207638 0.041448
0.270883 0.209902 0.042920
0.302694 0.212154 0.044392
0.334985 0.214395 0.045863
0.367645 0.216627 0.047335
0.400565 0.218850 0.048808
0.433637 0.221067 0.050284
0.466759 0.223278 0.051762
0.499826 0.225483 0.053243
0.532738 0.227683 0.054726
0.565397 0.229879 0.056214
0.597705 0.232071 0.057704
0.629565 0.234260 0.059199
0.660884 0.236446 0.060698
0.691568 0.238629 0.062200
0.721525 0.240810 0.063707
0.750665 0.242989 0.065218
0.778898 0.245166 0.066734
0.806135 0.247341 0.068254
0.832289 0.249514 0.069779
0.857274 0.251687 0.071308
0.877480 0.253528 0.072609
0.877480 0.253528 0.072609
0.877480 0.253528 0.072609
0.877480 0.253528 0.072609
0.877480 0.253528 0.072609
0.877480 0.253528 0.072609
0.076314 0.224323 0.036625
0.102002 0.226871 0.038206
0.128885 0.229356 0.039758
0.156898 0.231799 0.041291
0.185937 0.234209 0.042813
0.215888 0.236595 0.044327
0.246634 0.238960 0.045836
0.278059 0.241309 0.047343
0.310048 0.243643 0.048848
0.342486 0.245965 0.050352
0.375265 0.248277 0.051856
0.408276 0.250579 0.053362
0.441413 0.252874 0.054870
0.474571 0.255161 0.056379
0.507648 0.257441 0.057891
0.540545 0.259715 0.059406
0.573162 0.261985 0.060924
0.605402 0.264249 0.062445
0.637170 0.266509 0.063970
0.668371 0.268766 0.065498
0.698913 0.271018 0.067031
0.728704 0.273267 0.068567
0.757653 0.275514 0.070107
0.785671 0.277757 0.071652
0.812670 0.279998 0.073201
0.838562 0.282237 0.074754
0.863261 0.284473 0.076312
0.883206 0.286368 0.077636
0.883206 0.286368 0.077636
0.883206 0.286368 0.077636
0.883206 0.286368 0.077636
0.883206 0.286368 0.077636
0.883206 0.286368 0.077636
0.081408 0.256242 0.040900
0.107515 0.258876 0.042519
0.134773 0.261445 0.044107
0.163121 0.263968 0.045676
0.192458 0.266457 0.047233
0.222674 0.268919 0.048782
0.253653 0.271360 0.050325
0.285278 0.273782 0.051864
0.317437 0.276188 0.053402
0.350018 0.278581 0.054939
0.382910 0.280963 0.056476
0.416005 0.283334 0.058013
0.449199 0.285695 0.059552
0.482388 0.288048 0.061093
0.515469 0.290394 0.062636
0.548343 0.292733 0.064181
0.580912 0.295065 0.065729
0.613079 0.297392 0.067280
0.644748 0.299714 0.068835
0.675826 0.302030 0.070393
0.706220 0.304343 0.071954
0.735838 0.306651 0.073519
0.764591 0.308955 0.075088
0.792388 0.311255 0.076661
0.819143 0.313553 0.078239
0.844766 0.315847 0.079820
0.869173 0.318138 0.081405
0.888853 0.320078 0.082753
0.888853 0.320078 0.082753
0.888853 0.320078 0.082753
0.888853 0.320078 0.082753
0.888853 0.320078 0.082753
0.888853 0.320078 0.082753
0.086590 0.289161 0.045276
0.113110 0.291870 0.046932
0.140735 0.294510 0.048556
0.169411 0.297103 0.050161
0.199041 0.299660 0.051752
0.229515 0.302188 0.053335
0.260719 0.304693 0.054911
0.292539 0.307178 0.056484
0.324862 0.309647 0.058054
0.357577 0.312100 0.059623
0.390576 0.314541 0.061191
0.423750 0.316970 0.062760
0.456995 0.319389 0.064330
0.490208 0.321798 0.065901
0.523287 0.324199 0.067474
0.556133 0.326592 0.069050
0.588648 0.328978 0.070628
0.620735 0.331357 0.072208
0.652299 0.333731 0.073792
0.683248 0.336098 0.075379
0.713487 0.338460 0.076969
0.742927 0.340817 0.078563
0.771477 0.343169 0.080160
0.799048 0.345517 0.081761
0.825551 0.347861 0.083366
0.850901 0.350201 0.084975
0.875010 0.352537 0.086587
0.894420 0.354515 0.087958
0.894420 0.354515 0.087958
0.894420 0.354515 0.087958
0.894420 0.354515 0.087958
0.894420 0.354515 0.087958
0.894420 0.354515 0.087958
0.091860 0.322937 0.049751
0.118785 0.325710 0.051445
0.146771 0.328411 0.053105
0.175768 0.331062 0.054744
0.205683 0.333675 0.056369
0.236408 0.336259 0.057985
0.267831 0.338818 0.059595
0.299839 0.341356 0.061200
0.332320 0.343875 0.062802
0.365164 0.346379 0.064402
0.398263 0.348869 0.066002
0.431509 0.351347 0.067602
0.464799 0.353812 0.069202
0.498030 0.356268 0.070803
0.531100 0.358714 0.072406
0.563912 0.361151 0.074011
0.596366 0.363581 0.075618
0.628368 0.366002 0.077228
0.659822 0.368417 0.078840
0.690634 0.370825 0.080456
0.720714 0.373227 0.082074
0.749969 0.375624 0.083696
0.778310 0.378015 0.085321
0.805647 0.380400 0.086950
0.831895 0.382781 0.088582
0.856964 0.385157 0.090218
0.880770 0.387528 0.091857
0.899904 0.389536 0.093251
0.899904 0.389536 0.093251
0.899904 0.389536 0.093251
0.899904 0.389536 0.093251
0.899904 0.389536 0.093251
0.899904 0.389536 0.093251
0.097216 0.357428 0.054326
0.124539 0.360252 0.056055
0.152879 0.363003 0.057750
0.182190 0.365701 0.059424
0.212384 0.368361 0.061083
0.243353 0.370989 0.062732
0.274988 0.373591 0.064374
0.307178 0.376171 0.066010
0.339810 0.378732 0.067644
0.372777 0.381276 0.069275
0.405969 0.383805 0.070906
0.439281 0.386320 0.072536
0.472610 0.388823 0.074166
0.505852 0.391314 0.075797
0.538908 0.393796 0.077430
0.571679 0.396267 0.079064
0.604067 0.398730 0.080700
0.635977 0.401184 0.082338
0.667313 0.403631 0.083978
0.697984 0.406070 0.085622
0.727897 0.408503 0.087268
0.756961 0.410928 0.088917
0.785088 0.413348 0.090570
0.812187 0.415761 0.092225
0.838171 0.418169 0.093884
0.862955 0.420572 0.095547
0.886452 0.422969 0.097213
0.905305 0.424998 0.098628
0.905305 0.424998 0.098628
0.905305 0.424998 0.098628
0.905305 0.424998 0.098628
0.905305 0.424998 0.098628
0.905305 0.424998 0.098628
0.102656 0.392491 0.058997
0.130370 0.395356 0.060762
0.159057 0.398144 0.062492
0.188676 0.400879 0.064199
0.219141 0.403574 0.065891
0.250348 0.406236 0.067572
0.282189 0.408871 0.069246
0.314554 0.411482 0.070914
0.347331 0.414074 0.072579
0.380413 0.416647 0.074241
0.413693 0.419205 0.075902
0.447065 0.421748 0.077561
0.480426 0.424277 0.079221
0.513674 0.426795 0.080882
0.546709 0.429301 0.082543
0.579432 0.431797 0.084205
0.611748 0.434283 0.085870
0.643559 0.436761 0.087536
0.674773 0.439229 0.089205
0.705296 0.441690 0.090876
0.735037 0.444142 0.092549
0.763904 0.446588 0.094225
0.791809 0.449026 0.095905
0.818664 0.451458 0.097587
0.844380 0.453884 0.099272
0.868872 0.456303 0.100961
0.892053 0.458716 0.102653
0.910621 0.460758 0.104090
0.910621 0.460758 0.104090
0.910621 0.460758 0.104090
0.910621 0.460758 0.104090
0.910621 0.460758 0.104090
0.910621 0.460758 0.104090
0.108179 0.427984 0.063764
0.136277 0.430877 0.065564
0.165303 0.433692 0.067328
0.195223 0.436453 0.069068
0.225953 0.439172 0.070793
0.257392 0.441857 0.072506
0.289432 0.444514 0.074211
0.321965 0.447146 0.075910
0.354881 0.449758 0.077605
0.388072 0.452351 0.079298
0.421433 0.454926 0.080988
0.454858 0.457487 0.082677
0.488245 0.460033 0.084366
0.521492 0.462567 0.086055
0.554500 0.465088 0.087745
0.587171 0.467599 0.089435
0.619407 0.470098 0.091128
0.651115 0.472588 0.092822
0.682200 0.475069 0.094517
0.712569 0.477541 0.096215
0.742131 0.480004 0.097916
0.770795 0.482460 0.099619
0.798474 0.484907 0.101324
0.825077 0.487348 0.103033
0.850519 0.489781 0.104744
0.874713 0.492208 0.106459
0.897573 0.494628 0.108176
0.915850 0.496675 0.109635
0.915850 0.496675 0.109635
0.915850 0.496675 0.109635
0.915850 0.496675 0.109635
0.915850 0.496675 0.109635
0.915850 0.496675 0.109635
0.113783 0.463763 0.068624
0.142259 0.466673 0.070460
0.171617 0.469504 0.072257
0.201831 0.472279 0.074030
0.232819 0.475011 0.075787
0.264483 0.477709 0.077531
0.296716 0.480377 0.079267
0.329410 0.483021 0.080997
0.362458 0.485642 0.082722
0.395753 0.488243 0.084443
0.429188 0.490827 0.086163
0.462660 0.493395 0.087881
0.496067 0.495948 0.089598
0.529307 0.498487 0.091316
0.562281 0.501014 0.093033
0.594893 0.503529 0.094752
0.627044 0.506032 0.096472
0.658642 0.508525 0.098193
0.689591 0.511008 0.099915
0.719800 0.513481 0.101640
0.749177 0.515946 0.103367
0.777633 0.518401 0.105096
0.805079 0.520849 0.106827
0.831426 0.523288 0.108562
0.856587 0.525719 0.110298
0.880477 0.528144 0.112038
0.903009 0.530560 0.113781
0.920991 0.532604 0.115261
0.920991 0.532604 0.115261
0.920991 0.532604 0.115261
0.920991 0.532604 0.115261
0.920991 0.532604 0.115261
0.920991 0.532604 0.115261
0.119468 0.499686 0.073578
0.148313 0.502601 0.075447
0.177997 0.505437 0.077278
0.208498 0.508215 0.079083
0.239738 0.510950 0.080871
0.271619 0.513649 0.082646
0.304038 0.516319 0.084413
0.336888 0.518962 0.086172
0.370062 0.521583 0.087927
0.403453 0.524183 0.089677
0.436956 0.526764 0.091426
0.470469 0.529329 0.093172
0.503889 0.531879 0.094918
0.537116 0.534414 0.096663
0.570051 0.536936 0.098408
0.602597 0.539445 0.100154
0.634657 0.541942 0.101900
0.666138 0.544428 0.103648
0.696946 0.546903 0.105397
0.726989 0.549368 0.107148
0.756176 0.551824 0.108901
0.784417 0.554270 0.110655
0.811623 0.556707 0.112412
0.837707 0.559135 0.114172
0.862582 0.561556 0.115934
0.886162 0.563968 0.117698
0.908361 0.566372 0.119465
0.926042 0.568405 0.120966
0.926042 0.568405 0.120966
0.926042 0.568405 0.120966
0.926042 0.568405 0.120966
0.926042 0.568405 0.120966
0.926042 0.568405 0.120966
0.125231 0.535610 0.078622
0.154438 0.538520 0.080525
0.184441 0.541348 0.082388
0.215222 0.544119 0.084225
0.246707 0.546846 0.086044
0.278800 0.549536 0.087850
0.311398 0.552195 0.089646
0.344397 0.554828 0.091435
0.377690 0.557438 0.093218
0.411171 0.560026 0.094998
0.444737 0.562595 0.096774
0.478284 0.565147 0.098549
0.511711 0.567683 0.100322
0.544918 0.570204 0.102094
0.577807 0.572710 0.103866
0.610282 0.575204 0.105639
0.642245 0.577685 0.107412
0.673603 0.580154 0.109186
0.704264 0.582612 0.110961
0.734134 0.585059 0.112737
0.763124 0.587496 0.114516
0.791144 0.589922 0.116296
0.818106 0.592340 0.118078
0.843921 0.594748 0.119862
0.868504 0.597147 0.121648
0.891767 0.599537 0.123437
0.913627 0.601919 0.125228
0.931003 0.603933 0.126749
0.931003 0.603933 0.126749
0.931003 0.603933 0.126749
0.931003 0.603933 0.126749
0.931003 0.603933 0.126749
0.931003 0.603933 0.126749
0.131071 0.571393 0.083757
0.160634 0.574285 0.085693
0.190948 0.577095 0.087587
0.222003 0.579847 0.089455
0.253726 0.582555 0.091305
0.286023 0.585225 0.093140
0.318795 0.587864 0.094966
0.351936 0.590476 0.096784
0.385341 0.593064 0.098596
0.418906 0.595631 0.100403
0.452527 0.598177 0.102208
0.486102 0.600706 0.104010
0.519530 0.603218 0.105810
0.552712 0.605714 0.107609
0.585549 0.608196 0.109408
0.617945 0.610664 0.111206
0.649805 0.613119 0.113005
0.681035 0.615561 0.114805
0.711542 0.617992 0.116605
0.741234 0.620411 0.118407
0.770021 0.622819 0.120210
0.797815 0.625217 0.122015
0.824525 0.627604 0.123822
0.850065 0.629982 0.125630
0.874349 0.632351 0.127441
0.897291 0.634710 0.129254
0.918806 0.637060 0.131068
0.935870 0.639046 0.132609
0.935870 0.639046 0.132609
0.935870 0.639046 0.132609
0.935870 0.639046 0.132609
0.935870 0.639046 0.132609
0.935870 0.639046 0.132609
0.136987 0.606892 0.088979
0.166897 0.609754 0.090948
0.197517 0.612535 0.092874
0.228838 0.615258 0.094772
0.260792 0.617935 0.096651
0.293288 0.620575 0.098517
0.326226 0.623183 0.100371
0.359502 0.625764 0.102217
0.393014 0.628320 0.104057
0.426656 0.630854 0.105892
0.460327 0.633368 0.107724
0.493924 0.635863 0.109553
0.527346 0.638341 0.111380
0.560496 0.640803 0.113205
0.593275 0.643249 0.115030
0.625587 0.645682 0.116854
0.657337 0.648100 0.118679
0.688432 0.650506 0.120504
0.718779 0.652899 0.122329
0.748287 0.655281 0.124156
0.776866 0.657651 0.125984
0.804426 0.660010 0.127813
0.830879 0.662358 0.129643
0.856139 0.664696 0.131476
0.880118 0.667024 0.133310
0.902732 0.669342 0.135146
0.923896 0.671651 0.136984
0.940644 0.673601 0.138545
0.940644 0.673601 0.138545
0.940644 0.673601 0.138545
0.940644 0.673601 0.138545
0.940644 0.673601 0.138545
0.940644 0.673601 0.138545
0.142977 0.641964 0.094288
0.173228 0.644785 0.096289
0.204146 0.647525 0.098246
0.235726 0.650207 0.100174
0.267905 0.652844 0.102083
0.300592 0.655443 0.103977
0.333690 0.658009 0.105860
0.367096 0.660548 0.107734
0.400707 0.663062 0.109601
0.434421 0.665553 0.111464
0.468134 0.668024 0.113322
0.501746 0.670475 0.115177
0.535157 0.672909 0.117030
0.568268 0.675326 0.118882
0.600983 0.677728 0.120732
0.633205 0.680115 0.122582
0.664839 0.682487 0.124431
0.695793 0.684846 0.126281
0.725974 0.687193 0.128131
0.755292 0.689527 0.129982
0.783655 0.691849 0.131834
0.810976 0.694159 0.133687
0.837167 0.696458 0.135541
0.862139 0.698747 0.137397
0.885809 0.701025 0.139254
0.908089 0.703292 0.141113
0.928895 0.705550 0.142974
0.945323 0.707456 0.144554
0.945323 0.707456 0.144554
0.945323 0.707456 0.144554
0.945323 0.707456 0.144554
0.945323 0.707456 0.144554
0.945323 0.707456 0.144554
0.149040 0.676466 0.099682
0.179625 0.679235 0.101714
0.210833 0.681923 0.103702
0.242666 0.684554 0.105660
0.275063 0.687138 0.107597
0.307935 0.689685 0.109520
0.341186 0.692200 0.111430
0.374715 0.694686 0.113332
0.408419 0.697147 0.115226
0.442197 0.699585 0.117115
0.475947 0.702003 0.119000
0.509568 0.704400 0.120881
0.542961 0.706780 0.122760
0.576028 0.709142 0.124637
0.608672 0.711489 0.126512
0.640797 0.713820 0.128387
0.672310 0.716137 0.130261
0.703116 0.718439 0.132135
0.733126 0.720729 0.134009
0.762247 0.723005 0.135884
0.790389 0.725270 0.137759
0.817465 0.727522 0.139636
0.843386 0.729762 0.141513
0.868066 0.731991 0.143392
0.891419 0.734210 0.145272
0.913359 0.736417 0.147154
0.933803 0.738614 0.149037
0.949905 0.740469 0.150635
0.949905 0.740469 0.150635
0.949905 0.740469 0.150635
0.949905 0.740469 0.150635
0.949905 0.740469 0.150635
0.949905 0.740469 0.150635
0.155174 0.710256 0.105160
0.186085 0.712961 0.107223
0.217577 0.715586 0.109240
0.249657 0.718154 0.111227
0.282264 0.720676 0.113193
0.315314 0.723160 0.115144
0.348712 0.725612 0.117082
0.382357 0.728035 0.119010
0.416148 0.730433 0.120931
0.449985 0.732808 0.122846
0.483764 0.735162 0.124757
0.517388 0.737495 0.126664
0.550757 0.739810 0.128568
0.583773 0.742108 0.130469
0.616340 0.744390 0.132369
0.648363 0.746655 0.134268
0.679747 0.748906 0.136167
0.710401 0.751142 0.138064
0.740232 0.753365 0.139962
0.769150 0.755575 0.141860
0.797066 0.757771 0.143759
0.823890 0.759955 0.145658
0.849537 0.762127 0.147558
0.873918 0.764287 0.149460
0.896948 0.766436 0.151362
0.918543 0.768574 0.153266
0.938617 0.770700 0.155171
0.954388 0.772495 0.156788
0.954388 0.772495 0.156788
0.954388 0.772495 0.156788
0.954388 0.772495 0.156788
0.954388 0.772495 0.156788
0.954388 0.772495 0.156788
0.161378 0.743191 0.110721
0.192608 0.745821 0.112814
0.224377 0.748371 0.114860
0.256696 0.750865 0.116876
0.289507 0.753314 0.118870
0.322729 0.755725 0.120847
0.356267 0.758103 0.122812
0.390022 0.760453 0.124767
0.423893 0.762778 0.126714
0.457781 0.765079 0.128655
0.491585 0.767358 0.130591
0.525205 0.769618 0.132523
0.558543 0.771858 0.134451
0.591502 0.774081 0.136378
0.623986 0.776287 0.138302
0.655900 0.778478 0.140225
0.687150 0.780653 0.142147
0.717645 0.782813 0.144068
0.747292 0.784959 0.145989
0.776001 0.787091 0.147910
0.803684 0.789210 0.149831
0.830251 0.791317 0.151753
0.855616 0.793410 0.153675
0.879692 0.795492 0.155598
0.902394 0.797562 0.157523
0.923637 0.799620 0.159448
0.943337 0.801666 0.161374
0.958771 0.803393 0.163009
0.958771 0.803393 0.163009
0.958771 0.803393 0.163009
0.958771 0.803393 0.163009
0.958771 0.803393 0.163009
0.958771 0.803393 0.163009
0.167650 0.775129 0.116362
0.199192 0.777671 0.118485
0.231231 0.780136 0.120560
0.263782 0.782545 0.122604
0.296791 0.784909 0.124625
0.330178 0.787236 0.126629
0.363849 0.789531 0.128620
0.397707 0.791797 0.130601
0.431653 0.794037 0.132574
0.465586 0.796254 0.134540
0.499407 0.798450 0.136501
0.533017 0.800625 0.138457
0.566319 0.802781 0.140410
0.599215 0.804919 0.142360
0.631609 0.807040 0.144308
0.663408 0.809144 0.146254
0.694518 0.811233 0.148199
0.724847 0.813308 0.150143
0.754303 0.815367 0.152087
0.782798 0.817413 0.154031
0.810241 0.819445 0.155974
0.836545 0.821463 0.157918
0.861623 0.823469 0.159862
0.885389 0.825462 0.161807
0.907756 0.827443 0.163752
0.928641 0.829412 0.165699
0.947960 0.831370 0.167646
0.963054 0.833020 0.169299
0.963054 0.833020 0.169299
0.963054 0.833020 0.169299
0.963054 0.833020 0.169299
0.963054 0.833020 0.169299
0.963054 0.833020 0.169299
0.173988 0.805926 0.122083
0.205835 0.808369 0.124235
0.238137 0.810737 0.126338
0.270914 0.813050 0.128409
0.304114 0.815319 0.130457
0.337659 0.817551 0.132488
0.371457 0.819752 0.134505
0.405412 0.821923 0.136511
0.439425 0.824070 0.138509
0.473397 0.826192 0.140500
0.507230 0.828293 0.142485
0.540824 0.830373 0.144465
0.574082 0.832435 0.146442
0.606908 0.834478 0.148415
0.639207 0.836504 0.150387
0.670885 0.838513 0.152356
0.701848 0.840506 0.154323
0.732005 0.842484 0.156290
0.761265 0.844447 0.158256
0.789539 0.846396 0.160221
0.816737 0.848331 0.162187
0.842772 0.850253 0.164152
0.867556 0.852161 0.166117
0.891005 0.854056 0.168083
0.913032 0.855939 0.170050
0.933553 0.857809 0.172017
0.952486 0.859667 0.173985
