luts/blade-runner.cube
# CineLUT — Blade Runner (1982)
# Gerado por generate_luts.py
LUT_3D_SIZE 5
0.031501 0.001271 0.001271
0.272531 0.006915 0.006915
0.571294 0.012589 0.012589
0.838142 0.018475 0.018475
0.897055 0.020170 0.020170
0.051671 0.147843 0.015549
0.309424 0.160857 0.022557
0.610650 0.173053 0.029446
0.868372 0.184993 0.036466
0.922803 0.188321 0.038468
0.077070 0.407396 0.034922
0.351215 0.424091 0.043331
0.653306 0.439416 0.051464
0.899210 0.454140 0.059643
0.948217 0.458197 0.061959
0.106389 0.700198 0.058550
0.395180 0.715831 0.068287
0.696140 0.729941 0.077598
0.927956 0.743283 0.086873
0.970854 0.746923 0.089484
0.139266 0.936542 0.086160
0.440667 0.946045 0.097134
0.738372 0.954302 0.107538
0.953828 0.961816 0.117825
0.989952 0.963814 0.120710
0.032397 0.001878 0.046782
0.274265 0.007589 0.055897
0.573182 0.013323 0.064657
0.839629 0.019264 0.073419
0.898338 0.020974 0.075893
0.052704 0.149292 0.069099
0.311211 0.162345 0.079341
0.612515 0.174576 0.089099
0.869764 0.186548 0.098788
0.923969 0.189884 0.101511
0.078242 0.409274 0.096676
0.353050 0.425978 0.108058
0.655134 0.441309 0.118821
0.900484 0.456038 0.129440
0.949244 0.460096 0.132414
0.107691 0.701970 0.128032
0.397050 0.717580 0.140473
0.697918 0.731668 0.152168
0.929097 0.744988 0.163647
0.971726 0.748621 0.166852
0.140687 0.937637 0.162771
0.442561 0.947085 0.176175
0.740085 0.955291 0.188713
0.954821 0.962754 0.200966
0.990652 0.964738 0.204377
0.033946 0.002932 0.169560
0.277237 0.008757 0.183131
0.576408 0.014593 0.195814
0.842162 0.020630 0.208200
0.900519 0.022366 0.211648
0.054485 0.151781 0.202128
0.314273 0.164901 0.216421
0.615701 0.177191 0.229731
0.872132 0.189216 0.242688
0.925951 0.192567 0.246287
0.080260 0.412488 0.239885
0.356191 0.429206 0.254870
0.658256 0.444548 0.268777
0.902650 0.459285 0.282273
0.950987 0.463345 0.286016
0.109930 0.704994 0.280495
0.400251 0.720566 0.296080
0.700952 0.734615 0.310499
0.931034 0.747896 0.324453
0.973200 0.751518 0.328315
0.143130 0.939496 0.323395
0.445801 0.948850 0.339475
0.743008 0.956968 0.354309
0.956503 0.964344 0.368626
0.991831 0.966303 0.372583
0.035654 0.004105 0.347063
0.280480 0.010054 0.363362
0.579916 0.016000 0.378375
0.844905 0.022139 0.392846
0.902876 0.023903 0.396842
0.056444 0.154505 0.385774
0.317612 0.167697 0.402352
0.619163 0.180049 0.417588
0.874692 0.192132 0.432244
0.928089 0.195498 0.436285
0.082474 0.415989 0.429088
0.359614 0.432722 0.445872
0.661647 0.448075 0.461260
0.904990 0.462820 0.476029
0.952862 0.466882 0.480097
0.112384 0.708278 0.474092
0.403738 0.723806 0.490977
0.704246 0.737813 0.506420
0.933123 0.751050 0.521208
0.974782 0.754660 0.525275
0.145803 0.941499 0.520092
0.449328 0.950750 0.536962
0.746179 0.958771 0.552354
0.958311 0.966051 0.567061
0.993090 0.967984 0.571099
0.037476 0.005368 0.555355
0.283904 0.011446 0.572135
0.583606 0.017508 0.587416
0.847775 0.023755 0.601989
0.905336 0.025548 0.605987
0.058530 0.157388 0.594886
0.321136 0.170656 0.611481
0.622803 0.183074 0.626560
0.877370 0.195217 0.640910
0.930317 0.198599 0.644842
0.084827 0.419678 0.637833
0.363225 0.436427 0.654121
0.665209 0.451790 0.668884
0.907432 0.466543 0.682900
0.954812 0.470607 0.686734
0.114986 0.711725 0.681070
0.407414 0.727206 0.696933
0.707704 0.741168 0.711269
0.935299 0.754359 0.724843
0.976422 0.757956 0.728550
0.148634 0.943584 0.723824
0.453044 0.952726 0.739136
0.749505 0.960644 0.752932
0.960191 0.967824 0.765954
0.994387 0.969729 0.769503
