luts/blade-runner-2049.cube
# CineLUT — Blade Runner 2049 (2017)
# Gerado por generate_luts.py
LUT_3D_SIZE 9
0.035114 0.007088 0.003273
0.130800 0.012075 0.008071
0.246025 0.016997 0.012819
0.372740 0.021962 0.017617
0.503712 0.027001 0.022495
0.632338 0.032128 0.027467
0.752465 0.037349 0.032538
0.829599 0.041126 0.036211
0.829599 0.041126 0.036211
0.052231 0.084726 0.016826
0.154298 0.092298 0.022254
0.273674 0.099611 0.027585
0.402676 0.106845 0.032939
0.534231 0.114060 0.038351
0.661835 0.121284 0.043839
0.779403 0.128532 0.049410
0.853810 0.133713 0.053430
0.853810 0.133713 0.053430
0.071311 0.193547 0.032454
0.179478 0.203060 0.038494
0.302694 0.212154 0.044392
0.433637 0.221067 0.050284
0.565397 0.229879 0.056214
0.691568 0.238629 0.062200
0.806135 0.247341 0.068254
0.877480 0.253528 0.072609
0.877480 0.253528 0.072609
0.091860 0.322937 0.049751
0.205683 0.333675 0.056369
0.332320 0.343875 0.062802
0.464799 0.353812 0.069202
0.596366 0.363581 0.075618
0.720714 0.373227 0.082074
0.831895 0.382781 0.088582
0.899904 0.389536 0.093251
0.899904 0.389536 0.093251
0.113783 0.463763 0.068624
0.232819 0.475011 0.075787
0.362458 0.485642 0.082722
0.496067 0.495948 0.089598
0.627044 0.506032 0.096472
0.749177 0.515946 0.103367
0.856587 0.525719 0.110298
0.920991 0.532604 0.115261
0.920991 0.532604 0.115261
0.136987 0.606892 0.088979
0.260792 0.617935 0.096651
0.393014 0.628320 0.104057
0.527346 0.638341 0.111380
0.657337 0.648100 0.118679
0.776866 0.657651 0.125984
0.880118 0.667024 0.133310
0.940644 0.673601 0.138545
0.940644 0.673601 0.138545
0.161378 0.743191 0.110721
0.289507 0.753314 0.118870
0.423893 0.762778 0.126714
0.558543 0.771858 0.134451
0.687150 0.780653 0.142147
0.803684 0.789210 0.149831
0.902394 0.797562 0.157523
0.958771 0.803393 0.163009
0.958771 0.803393 0.163009
0.186860 0.863528 0.133756
0.318871 0.872014 0.142347
0.455002 0.879881 0.150599
0.589564 0.887367 0.158720
0.716390 0.894556 0.166780
0.829537 0.901491 0.174814
0.923321 0.908199 0.182842
0.975277 0.912847 0.188560
0.975277 0.912847 0.188560
0.211833 0.954256 0.156603
0.347101 0.960540 0.165581
0.484495 0.966281 0.174187
0.618601 0.971660 0.182642
0.743381 0.976745 0.191019
0.852974 0.981571 0.199357
0.941753 0.986158 0.207674
0.989287 0.989287 0.213591
0.989287 0.989287 0.213591
0.035632 0.007506 0.019125
0.131526 0.012513 0.024650
0.246888 0.017454 0.030071
0.373682 0.022437 0.035509
0.504678 0.027493 0.041004
0.633277 0.032636 0.046570
0.753329 0.037874 0.052218
0.830381 0.041662 0.056291
0.830381 0.041662 0.056291
0.052797 0.085368 0.034616
0.155059 0.092955 0.040733
0.274560 0.100282 0.046702
0.403628 0.107530 0.052663
0.535195 0.114758 0.058657
0.662760 0.121994 0.064707
0.780242 0.129255 0.070822
0.854559 0.134444 0.075218
0.854559 0.134444 0.075218
0.071924 0.194358 0.052124
0.180272 0.203881 0.058815
0.303600 0.212985 0.065315
0.434597 0.221907 0.071779
0.566357 0.230728 0.078256
0.692477 0.239486 0.084771
0.806946 0.248205 0.091336
0.878191 0.254398 0.096044
0.878191 0.254398 0.096044
0.092517 0.323855 0.071195
0.206507 0.334599 0.078426
0.333243 0.344805 0.085424
0.465763 0.354746 0.092361
0.597318 0.364519 0.099291
0.721603 0.374169 0.106242
0.832673 0.383726 0.113226
0.900576 0.390483 0.118225
0.900576 0.390483 0.118225
0.114481 0.464727 0.091736
0.233671 0.475976 0.099473
0.363396 0.486607 0.106938
0.497033 0.496914 0.114316
0.627986 0.506998 0.121668
0.750044 0.516911 0.129024
0.857331 0.526684 0.136400
0.921619 0.533569 0.141669
0.921619 0.533569 0.141669
0.137723 0.607841 0.113652
0.261668 0.618880 0.121860
0.393963 0.629261 0.129760
0.528311 0.639278 0.137549
0.658265 0.649033 0.145293
0.777707 0.658579 0.153025
0.880825 0.667947 0.160762
0.941227 0.674521 0.166280
0.941227 0.674521 0.166280
0.162148 0.744063 0.136849
0.290405 0.754177 0.145495
0.424851 0.763632 0.153797
0.559504 0.772705 0.161966
0.688062 0.781490 0.170072
0.804497 0.790039 0.178150
0.903061 0.798381 0.186219
0.959306 0.804207 0.191965
0.959306 0.804207 0.191965
0.187663 0.864262 0.161232
0.319787 0.872734 0.170283
0.455965 0.880589 0.178956
0.590518 0.888062 0.187473
0.717283 0.895237 0.195910
0.830319 0.902159 0.204304
0.923944 0.908855 0.212676
0.975760 0.913493 0.218630
0.975760 0.913493 0.218630
0.212664 0.954803 0.185255
0.348032 0.961069 0.194656
0.485461 0.966793 0.203649
0.619546 0.972155 0.212467
0.744253 0.977223 0.221189
0.853724 0.982032 0.229854
0.942333 0.986602 0.238484
0.989719 0.989719 0.244616
0.989719 0.989719 0.244616
0.036833 0.008478 0.064009
0.133206 0.013532 0.071045
0.248884 0.018516 0.077864
0.375856 0.023539 0.084630
0.506907 0.028634 0.091398
0.635443 0.033816 0.098191
0.755319 0.039090 0.105025
0.832181 0.042904 0.109919
0.832181 0.042904 0.109919
0.054109 0.086855 0.083523
0.156819 0.094478 0.091066
0.276607 0.101838 0.098351
0.405825 0.109116 0.105560
0.537419 0.116374 0.112751
0.664895 0.123638 0.119952
0.782175 0.130926 0.127178
0.856281 0.136134 0.132344
0.856281 0.136134 0.132344
0.073343 0.196233 0.104912
0.182108 0.205780 0.112939
0.305693 0.214906 0.120672
0.436812 0.223849 0.128304
0.568570 0.232689 0.135899
0.694572 0.241466 0.143487
0.808812 0.250203 0.151086
0.879828 0.256408 0.156509
0.879828 0.256408 0.156509
0.094037 0.325976 0.127618
0.208413 0.336733 0.136097
0.335376 0.346950 0.144245
0.467988 0.356902 0.152269
0.599514 0.366685 0.160237
0.723653 0.376344 0.168183
0.834466 0.385909 0.176125
0.902120 0.392672 0.181785
0.902120 0.392672 0.181785
0.116096 0.466952 0.151548
0.235639 0.478204 0.160445
0.365561 0.488836 0.168976
0.499262 0.499143 0.177360
0.630157 0.509227 0.185671
0.752042 0.519139 0.193945
0.859045 0.528911 0.202202
0.923065 0.535794 0.208077
0.923065 0.535794 0.208077
0.139425 0.610028 0.176608
0.263692 0.621059 0.185888
0.396154 0.631431 0.194770
0.530537 0.641438 0.203484
0.660405 0.651183 0.212108
0.779645 0.660718 0.220680
0.882452 0.670075 0.229221
0.942567 0.676641 0.235292
0.942567 0.676641 0.235292
0.163931 0.746072 0.202703
0.292478 0.756166 0.212333
0.427061 0.765602 0.221534
0.561721 0.774654 0.230547
0.690164 0.783420 0.239454
0.806369 0.791948 0.248293
0.904594 0.800270 0.257090
0.960533 0.806080 0.263335
0.960533 0.806080 0.263335
0.189520 0.865951 0.229739
0.321903 0.874392 0.239685
0.458188 0.882217 0.249174
0.592718 0.889659 0.258454
0.719340 0.896805 0.267613
0.832119 0.903697 0.276691
0.925378 0.910362 0.285714
0.976868 0.914979 0.292112
0.976868 0.914979 0.292112
0.214584 0.956059 0.256041
0.350181 0.962285 0.266254
0.487689 0.967968 0.275984
0.621724 0.973291 0.285489
0.746262 0.978319 0.294858
0.855449 0.983089 0.304134
0.943666 0.987619 0.313342
0.990708 0.990708 0.319867
0.990708 0.990708 0.319867
0.038142 0.009541 0.124080
0.135031 0.014644 0.132493
0.251048 0.019675 0.140580
0.378212 0.024742 0.148546
0.509320 0.029880 0.156459
0.637786 0.035102 0.164352
0.757470 0.040416 0.172244
0.834123 0.044257 0.177869
0.834123 0.044257 0.177869
0.055538 0.088473 0.147246
0.158731 0.096134 0.156072
0.278827 0.103529 0.164538
0.408206 0.110841 0.172861
0.539827 0.118130 0.181114
0.667203 0.125425 0.189332
0.784262 0.132743 0.197535
0.858140 0.137971 0.203374
0.858140 0.137971 0.203374
0.074889 0.198267 0.172114
0.184102 0.207841 0.181329
0.307962 0.216991 0.190152
0.439210 0.225957 0.198810
0.570965 0.234818 0.207381
0.696838 0.243615 0.215902
0.810826 0.252371 0.224395
0.881593 0.258588 0.230433
0.881593 0.258588 0.230433
0.095691 0.328274 0.198033
0.210481 0.339046 0.207604
0.337687 0.349276 0.216751
0.470398 0.359239 0.225714
0.601889 0.369032 0.234573
0.725868 0.378701 0.243368
0.836401 0.388274 0.252121
0.903785 0.395043 0.258337
0.903785 0.395043 0.258337
0.117851 0.469361 0.224911
0.237774 0.480615 0.234804
0.367907 0.491249 0.244244
0.501675 0.501556 0.253479
0.632505 0.511639 0.262596
0.754200 0.521551 0.271634
0.860893 0.531320 0.280619
0.924621 0.538202 0.286992
0.924621 0.538202 0.286992
0.141274 0.612395 0.252652
0.265887 0.623416 0.262833
0.398527 0.633777 0.272534
0.532946 0.643774 0.282012
0.662719 0.653508 0.291355
0.781739 0.663031 0.300607
0.884206 0.672376 0.309794
0.944008 0.678933 0.316304
0.944008 0.678933 0.316304
0.165867 0.748243 0.281163
0.294725 0.758315 0.291598
0.429455 0.767729 0.301528
0.564119 0.776760 0.311217
0.692436 0.785504 0.320757
0.808391 0.794010 0.330193
0.906247 0.802309 0.339552
0.961852 0.808103 0.346178
0.961852 0.808103 0.346178
0.191535 0.867772 0.310350
0.324196 0.876180 0.321005
0.460595 0.883971 0.331131
0.595098 0.891382 0.341001
0.721563 0.898495 0.350708
0.834062 0.905354 0.360298
0.926922 0.911985 0.369800
0.978057 0.916578 0.376520
0.978057 0.916578 0.376520
0.216668 0.957410 0.338438
0.352510 0.963591 0.349269
0.490102 0.969230 0.359552
0.624081 0.974510 0.369563
0.748432 0.979496 0.379399
0.857311 0.984222 0.389108
0.945100 0.988710 0.398717
0.991768 0.991768 0.405509
0.991768 0.991768 0.405509
0.039522 0.010665 0.197470
0.136949 0.015820 0.207034
0.253318 0.020899 0.216175
0.380680 0.026012 0.225131
0.511844 0.031194 0.233984
0.640234 0.036458 0.242774
0.759716 0.041814 0.251522
0.836149 0.045683 0.257734
0.836149 0.045683 0.257734
0.057043 0.090175 0.223673
0.160739 0.097875 0.233552
0.281154 0.105307 0.242980
0.410699 0.112653 0.252204
0.542345 0.119976 0.261309
0.669614 0.127303 0.270337
0.786440 0.134651 0.279312
0.860077 0.139900 0.285679
0.860077 0.139900 0.285679
0.076515 0.200403 0.251378
0.186194 0.210004 0.261546
0.310340 0.219179 0.271236
0.441722 0.228167 0.280704
0.573470 0.237050 0.290037
0.699204 0.245868 0.299280
0.812928 0.254644 0.308458
0.883432 0.260874 0.314962
0.883432 0.260874 0.314962
0.097430 0.330683 0.279856
0.212651 0.341469 0.290280
0.340108 0.351712 0.300200
0.472920 0.361687 0.309880
0.604372 0.371490 0.319412
0.728181 0.381169 0.328841
0.838419 0.390751 0.338192
0.905518 0.397525 0.344813
0.905518 0.397525 0.344813
0.119695 0.471883 0.309014
0.240013 0.483139 0.319660
0.370364 0.493773 0.329778
0.504200 0.504081 0.339640
0.634959 0.514164 0.349340
0.756453 0.524074 0.358924
0.862819 0.533841 0.368420
0.926241 0.540721 0.375136
0.926241 0.540721 0.375136
0.143217 0.614869 0.338758
0.268188 0.625879 0.349592
0.401013 0.636230 0.359876
0.535467 0.646215 0.369889
0.665136 0.655937 0.379726
0.783924 0.665449 0.389436
0.886033 0.674781 0.399046
0.945507 0.681327 0.405838
0.945507 0.681327 0.405838
0.167900 0.750509 0.368994
0.297081 0.760558 0.379982
0.431961 0.769950 0.390400
0.566627 0.778958 0.400532
0.694809 0.787679 0.410477
0.810500 0.796161 0.420282
0.907967 0.804436 0.429978
0.963221 0.810213 0.436825
0.963221 0.810213 0.436825
0.193651 0.869670 0.399627
0.326598 0.878042 0.410735
0.463114 0.885799 0.421255
0.597587 0.893176 0.431477
0.723885 0.900254 0.441498
0.836088 0.907079 0.451370
0.928528 0.913676 0.461121
0.979291 0.918244 0.468002
0.979291 0.918244 0.468002
0.218855 0.958814 0.428825
0.354951 0.964947 0.440015
0.492627 0.970541 0.450603
0.626544 0.975775 0.460879
0.750698 0.980716 0.470945
0.859251 0.985398 0.480852
0.946592 0.989840 0.490629
0.992866 0.992866 0.497523
0.992866 0.992866 0.497523
0.040959 0.011837 0.282014
0.138937 0.017046 0.292456
0.255667 0.022174 0.302392
0.383231 0.027335 0.312087
0.514451 0.032562 0.321633
0.642760 0.037870 0.331074
0.762028 0.043268 0.340437
0.838233 0.047167 0.347066
0.838233 0.047167 0.347066
0.058608 0.091941 0.310512
0.162819 0.099682 0.321168
0.283561 0.107151 0.331295
0.413275 0.114534 0.341165
0.544945 0.121890 0.350873
0.672101 0.129250 0.360464
0.788683 0.136629 0.369966
0.862069 0.141901 0.376687
0.862069 0.141901 0.376687
0.078203 0.202614 0.340283
0.188362 0.212243 0.351125
0.312800 0.221443 0.361417
0.444316 0.230455 0.371437
0.576054 0.239361 0.381280
0.701643 0.248200 0.390995
0.815092 0.256995 0.400611
0.885322 0.263240 0.407406
0.885322 0.263240 0.407406
0.099235 0.333174 0.370541
0.214897 0.343975 0.381535
0.342612 0.354230 0.391960
0.475524 0.364217 0.402098
0.606934 0.374031 0.412047
0.730565 0.383720 0.421856
0.840495 0.393311 0.431556
0.907298 0.400091 0.438405
0.907298 0.400091 0.438405
0.121608 0.474487 0.401192
0.242331 0.485745 0.412305
0.372904 0.496380 0.422830
0.506807 0.506688 0.433055
0.637490 0.516770 0.443079
0.758773 0.526678 0.452953
0.864800 0.536443 0.462707
0.927903 0.543321 0.469589
0.927903 0.543321 0.469589
0.145230 0.617422 0.432142
0.270569 0.628421 0.443339
0.403581 0.638760 0.453932
0.538068 0.648733 0.464213
0.667629 0.658443 0.474283
0.786173 0.667941 0.484192
0.887911 0.677259 0.493970
0.947043 0.683796 0.500864
0.947043 0.683796 0.500864
0.170006 0.752844 0.463296
0.299518 0.762869 0.474544
0.434550 0.772237 0.485174
0.569216 0.781221 0.495480
0.697256 0.789918 0.505564
0.812671 0.798376 0.515478
0.909734 0.806626 0.525252
0.964624 0.812385 0.532137
0.964624 0.812385 0.532137
0.195842 0.871622 0.494561
0.329083 0.879957 0.505825
0.465716 0.887678 0.516460
0.600154 0.895019 0.526760
0.726277 0.902062 0.536829
0.838172 0.908850 0.546717
0.930176 0.915411 0.556458
0.980552 0.919953 0.563314
0.980552 0.919953 0.563314
0.221118 0.960252 0.524091
0.357473 0.966336 0.535340
0.495234 0.971882 0.545950
0.629084 0.977070 0.556216
0.753033 0.981964 0.566242
0.861247 0.986599 0.576080
0.948120 0.990995 0.585761
0.993987 0.993987 0.592570
0.993987 0.993987 0.592570
0.042443 0.013052 0.375158
0.140983 0.018316 0.386172
0.258081 0.023494 0.396614
0.385848 0.028703 0.406767
0.517122 0.033976 0.416729
0.645345 0.039329 0.426551
0.764393 0.044770 0.436260
0.840362 0.048700 0.443115
0.840362 0.048700 0.443115
0.060224 0.093762 0.405119
0.164960 0.101545 0.416245
0.286033 0.109052 0.426780
0.415917 0.116471 0.437014
0.547608 0.123862 0.447046
0.674646 0.131255 0.456926
0.790975 0.138666 0.466685
0.864103 0.143959 0.473569
0.864103 0.143959 0.473569
0.079945 0.204887 0.436100
0.190591 0.214545 0.447306
0.315325 0.223771 0.457906
0.446976 0.232807 0.468192
0.578702 0.241735 0.478265
0.704139 0.250596 0.488176
0.817302 0.259412 0.497956
0.887250 0.265670 0.504850
0.887250 0.265670 0.504850
0.101095 0.335730 0.467274
0.217207 0.346546 0.478526
0.345182 0.356815 0.489158
0.478195 0.366814 0.499465
0.609558 0.376639 0.509549
0.733004 0.386337 0.519461
0.842615 0.395938 0.529233
0.909113 0.402723 0.536116
0.909113 0.402723 0.536116
0.123579 0.477157 0.498546
0.244713 0.488417 0.509810
0.375510 0.499053 0.520443
0.509479 0.509360 0.530741
0.640082 0.519441 0.540805
0.761147 0.529347 0.550688
0.866821 0.539110 0.560422
0.929596 0.545985 0.567273
0.929596 0.545985 0.567273
0.147303 0.620035 0.529822
0.273016 0.631023 0.541065
0.406216 0.641351 0.551667
0.540735 0.651311 0.561923
0.670181 0.661008 0.571937
0.788473 0.670492 0.581762
0.889826 0.679797 0.591429
0.948607 0.686323 0.598227
0.948607 0.686323 0.598227
0.172173 0.755232 0.561009
0.302021 0.765232 0.572197
0.437206 0.774576 0.582735
0.571868 0.783535 0.592919
0.699760 0.792207 0.602853
0.814890 0.800640 0.612590
0.911535 0.808864 0.622160
0.966051 0.814604 0.628885
0.966051 0.814604 0.628885
0.198094 0.873614 0.592012
0.331634 0.881911 0.603110
0.468384 0.889595 0.613553
0.602784 0.896899 0.623634
0.728725 0.903905 0.633458
0.840301 0.910657 0.643076
0.931855 0.917180 0.652521
0.981833 0.921695 0.659151
0.981833 0.921695 0.659151
0.223445 0.961715 0.621025
0.360062 0.967747 0.632008
0.497906 0.973245 0.642331
0.631686 0.978385 0.652287
0.755420 0.983231 0.661979
0.863284 0.987818 0.671458
0.949676 0.992165 0.680757
0.995123 0.995123 0.687279
0.995123 0.995123 0.687279
0.043969 0.014305 0.474003
0.143080 0.019624 0.485260
0.260549 0.024854 0.495895
0.388521 0.030112 0.506203
0.519848 0.035432 0.516285
0.647980 0.040831 0.526194
0.766801 0.046315 0.535960
0.842526 0.050275 0.542837
0.842526 0.050275 0.542837
0.061883 0.095630 0.504533
0.167152 0.103455 0.515796
0.288562 0.111001 0.526425
0.418615 0.118457 0.536717
0.550326 0.125883 0.546774
0.677239 0.133309 0.556648
0.793308 0.140753 0.566372
0.866169 0.146069 0.573214
0.866169 0.146069 0.573214
0.081733 0.207215 0.535799
0.192873 0.216900 0.547034
0.317906 0.226152 0.557626
0.449692 0.235213 0.567871
0.581402 0.244164 0.577872
0.706681 0.253046 0.587683
0.819550 0.261883 0.597333
0.889208 0.268156 0.604119
0.889208 0.268156 0.604119
0.103003 0.338343 0.566958
0.219570 0.349174 0.578131
0.347808 0.359456 0.588653
0.480920 0.369467 0.598821
0.612233 0.379303 0.608736
0.735487 0.389011 0.618452
0.844770 0.398620 0.628001
0.910954 0.405411 0.634709
0.910954 0.405411 0.634709
0.125598 0.479882 0.597915
0.247149 0.491144 0.608992
0.378173 0.501780 0.619413
0.512206 0.512087 0.629471
0.642724 0.522166 0.639270
0.763562 0.532071 0.648863
0.868876 0.541830 0.658280
0.931313 0.548703 0.664890
0.931313 0.548703 0.664890
0.149426 0.622700 0.628576
0.275517 0.633675 0.639524
0.408907 0.643991 0.649811
0.543454 0.653939 0.659729
0.672781 0.663622 0.669382
0.790813 0.673092 0.678820
0.891771 0.682381 0.688076
0.950191 0.688897 0.694567
0.950191 0.688897 0.694567
0.174391 0.757663 0.658847
0.304579 0.767637 0.669631
0.439917 0.776955 0.679753
0.574572 0.785890 0.689500
0.702310 0.794536 0.698976
0.817146 0.802943 0.708231
0.913363 0.811140 0.717297
0.967494 0.816861 0.723648
0.967494 0.816861 0.723648
0.200400 0.875637 0.688633
0.334240 0.883895 0.699220
0.471108 0.891541 0.709144
0.605465 0.898807 0.718690
0.731217 0.905776 0.727958
0.842466 0.912489 0.737000
0.933557 0.918974 0.745846
0.983127 0.923462 0.752037
0.983127 0.923462 0.752037
0.225826 0.963195 0.716223
0.362707 0.969175 0.726593
0.500633 0.974623 0.736301
0.634337 0.979713 0.745628
0.757850 0.984510 0.754672
0.865354 0.989048 0.763485
0.951252 0.993346 0.772097
0.996268 0.996268 0.778117
0.996268 0.996268 0.778117
0.045535 0.015594 0.575353
0.145223 0.020969 0.586504
0.263066 0.026251 0.597002
0.391243 0.031558 0.607142
0.522620 0.036926 0.617029
0.650657 0.042370 0.626715
0.769243 0.047900 0.636231
0.844719 0.051890 0.642914
0.844719 0.051890 0.642914
0.063583 0.097541 0.605501
0.169391 0.105408 0.616550
0.291138 0.112994 0.626941
0.421362 0.120487 0.636968
0.553088 0.127948 0.646733
0.679873 0.135409 0.656291
0.795673 0.142885 0.665671
0.868261 0.148224 0.672253
0.868261 0.148224 0.672253
0.083563 0.209589 0.636075
0.195202 0.219304 0.646986
0.320536 0.228582 0.657235
0.452456 0.237667 0.667114
0.584147 0.246641 0.676726
0.709262 0.255546 0.686122
0.821829 0.264403 0.695334
0.891190 0.270690 0.701792
0.891190 0.270690 0.701792
0.104954 0.341005 0.666235
0.221981 0.351851 0.676974
0.350483 0.362146 0.687050
0.483693 0.372169 0.696751
0.614951 0.382016 0.706178
0.738007 0.391734 0.715383
0.846954 0.401351 0.724398
0.912817 0.408148 0.730711
0.912817 0.408148 0.730711
0.127663 0.482655 0.695888
0.249634 0.493918 0.706421
0.380884 0.504554 0.716292
0.514979 0.514860 0.725783
0.645408 0.524938 0.734996
0.766013 0.534840 0.743980
0.870956 0.544597 0.752768
0.933048 0.551466 0.758916
0.933048 0.551466 0.758916
0.151595 0.625407 0.724940
0.278067 0.636370 0.735233
0.411647 0.646673 0.744866
0.546220 0.656607 0.754117
0.675422 0.666276 0.763084
0.793186 0.675732 0.771818
0.893740 0.685007 0.780349
0.951790 0.691511 0.786311
0.951790 0.691511 0.786311
0.176657 0.760129 0.753295
0.307186 0.770077 0.763316
0.442677 0.779369 0.772679
0.577322 0.788278 0.781659
0.704900 0.796897 0.790350
0.819433 0.805278 0.798804
0.915211 0.813448 0.807049
0.968949 0.819149 0.812804
0.968949 0.819149 0.812804
0.202754 0.877686 0.780862
0.336896 0.885904 0.790574
0.473879 0.893511 0.799637
0.608190 0.900738 0.808314
0.733747 0.907668 0.816700
0.844658 0.914343 0.824843
0.935277 0.920789 0.832773
0.984429 0.925248 0.838300
0.984429 0.925248 0.838300
0.228255 0.964688 0.806075
0.365401 0.970615 0.815466
0.503407 0.976011 0.824215
0.637032 0.981051 0.832578
0.760316 0.985798 0.840647
0.867450 0.990285 0.848470
0.952843 0.994533 0.856076
0.997419 0.997419 0.861369
0.997419 0.997419 0.861369
