luts/blade-runner-2049.cube
# CineLUT — Blade Runner 2049 (2017)
# Gerado por generate_luts.py
LUT_3D_SIZE 5
0.035114 0.007088 0.003273
0.246025 0.016997 0.012819
0.503712 0.027001 0.022495
0.752465 0.037349 0.032538
0.829599 0.041126 0.036211
0.071311 0.193547 0.032454
0.302694 0.212154 0.044392
0.565397 0.229879 0.056214
0.806135 0.247341 0.068254
0.877480 0.253528 0.072609
0.113783 0.463763 0.068624
0.362458 0.485642 0.082722
0.627044 0.506032 0.096472
0.856587 0.525719 0.110298
0.920991 0.532604 0.115261
0.161378 0.743191 0.110721
0.423893 0.762778 0.126714
0.687150 0.780653 0.142147
0.902394 0.797562 0.157523
0.958771 0.803393 0.163009
0.211833 0.954256 0.156603
0.484495 0.966281 0.174187
0.743381 0.976745 0.191019
0.941753 0.986158 0.207674
0.989287 0.989287 0.213591
0.036833 0.008478 0.064009
0.248884 0.018516 0.077864
0.506907 0.028634 0.091398
0.755319 0.039090 0.105025
0.832181 0.042904 0.109919
0.073343 0.196233 0.104912
0.305693 0.214906 0.120672
0.568570 0.232689 0.135899
0.808812 0.250203 0.151086
0.879828 0.256408 0.156509
0.116096 0.466952 0.151548
0.365561 0.488836 0.168976
0.630157 0.509227 0.185671
0.859045 0.528911 0.202202
0.923065 0.535794 0.208077
0.163931 0.746072 0.202703
0.427061 0.765602 0.221534
0.690164 0.783420 0.239454
0.904594 0.800270 0.257090
0.960533 0.806080 0.263335
0.214584 0.956059 0.256041
0.487689 0.967968 0.275984
0.746262 0.978319 0.294858
0.943666 0.987619 0.313342
0.990708 0.990708 0.319867
0.039522 0.010665 0.197470
0.253318 0.020899 0.216175
0.511844 0.031194 0.233984
0.759716 0.041814 0.251522
0.836149 0.045683 0.257734
0.076515 0.200403 0.251378
0.310340 0.219179 0.271236
0.573470 0.237050 0.290037
0.812928 0.254644 0.308458
0.883432 0.260874 0.314962
0.119695 0.471883 0.309014
0.370364 0.493773 0.329778
0.634959 0.514164 0.349340
0.862819 0.533841 0.368420
0.926241 0.540721 0.375136
0.167900 0.750509 0.368994
0.431961 0.769950 0.390400
0.694809 0.787679 0.410477
0.907967 0.804436 0.429978
0.963221 0.810213 0.436825
0.218855 0.958814 0.428825
0.492627 0.970541 0.450603
0.750698 0.980716 0.470945
0.946592 0.989840 0.490629
0.992866 0.992866 0.497523
0.042443 0.013052 0.375158
0.258081 0.023494 0.396614
0.517122 0.033976 0.416729
0.764393 0.044770 0.436260
0.840362 0.048700 0.443115
0.079945 0.204887 0.436100
0.315325 0.223771 0.457906
0.578702 0.241735 0.478265
0.817302 0.259412 0.497956
0.887250 0.265670 0.504850
0.123579 0.477157 0.498546
0.375510 0.499053 0.520443
0.640082 0.519441 0.540805
0.866821 0.539110 0.560422
0.929596 0.545985 0.567273
0.172173 0.755232 0.561009
0.437206 0.774576 0.582735
0.699760 0.792207 0.602853
0.911535 0.808864 0.622160
0.966051 0.814604 0.628885
0.223445 0.961715 0.621025
0.497906 0.973245 0.642331
0.755420 0.983231 0.661979
0.949676 0.992165 0.680757
0.995123 0.995123 0.687279
0.045535 0.015594 0.575353
0.263066 0.026251 0.597002
0.522620 0.036926 0.617029
0.769243 0.047900 0.636231
0.844719 0.051890 0.642914
0.083563 0.209589 0.636075
0.320536 0.228582 0.657235
0.584147 0.246641 0.676726
0.821829 0.264403 0.695334
0.891190 0.270690 0.701792
0.127663 0.482655 0.695888
0.380884 0.504554 0.716292
0.645408 0.524938 0.734996
0.870956 0.544597 0.752768
0.933048 0.551466 0.758916
0.176657 0.760129 0.753295
0.442677 0.779369 0.772679
0.704900 0.796897 0.790350
0.915211 0.813448 0.807049
0.968949 0.819149 0.812804
0.228255 0.964688 0.806075
0.503407 0.976011 0.824215
0.760316 0.985798 0.840647
0.952843 0.994533 0.856076
0.997419 0.997419 0.861369
