luts/blade-runner.cube
# CineLUT — Blade Runner (1982)
# Gerado por generate_luts.py
LUT_3D_SIZE 33
0.031501 0.001271 0.001271
0.054633 0.002001 0.002001
0.080289 0.002715 0.002715
0.108191 0.003420 0.003420
0.138069 0.004122 0.004122
0.169672 0.004820 0.004820
0.202762 0.005518 0.005518
0.237119 0.006216 0.006216
0.272531 0.006915 0.006915
0.308799 0.007616 0.007616
0.345729 0.008318 0.008318
0.383137 0.009023 0.009023
0.420844 0.009730 0.009730
0.458679 0.010440 0.010440
0.496474 0.011154 0.011154
0.534065 0.011870 0.011870
0.571294 0.012589 0.012589
0.608006 0.013312 0.013312
0.644049 0.014039 0.014039
0.679275 0.014769 0.014769
0.713538 0.015503 0.015503
0.746695 0.016240 0.016240
0.778607 0.016981 0.016981
0.809134 0.017726 0.017726
0.838142 0.018475 0.018475
0.865496 0.019227 0.019227
0.891064 0.019984 0.019984
0.897055 0.020170 0.020170
0.897055 0.020170 0.020170
0.897055 0.020170 0.020170
0.897055 0.020170 0.020170
0.897055 0.020170 0.020170
0.897055 0.020170 0.020170
0.033233 0.009526 0.002445
0.056661 0.010371 0.003192
0.082580 0.011195 0.003923
0.110716 0.012007 0.004645
0.140803 0.012813 0.005363
0.172589 0.013614 0.006077
0.205842 0.014413 0.006790
0.240339 0.015210 0.007504
0.275872 0.016007 0.008218
0.312239 0.016804 0.008933
0.349251 0.017602 0.009650
0.386721 0.018401 0.010370
0.424473 0.019202 0.011092
0.462335 0.020005 0.011816
0.500139 0.020809 0.012543
0.537722 0.021617 0.013274
0.574927 0.022426 0.014007
0.611598 0.023239 0.014744
0.647583 0.024054 0.015484
0.682736 0.024872 0.016228
0.716910 0.025693 0.016975
0.749962 0.026517 0.017726
0.781753 0.027344 0.018480
0.812144 0.028174 0.019238
0.841001 0.029008 0.020000
0.868188 0.029844 0.020765
0.893575 0.030685 0.021535
0.899519 0.030891 0.021724
0.899519 0.030891 0.021724
0.899519 0.030891 0.021724
0.899519 0.030891 0.021724
0.899519 0.030891 0.021724
0.899519 0.030891 0.021724
0.035582 0.022388 0.004056
0.059404 0.023379 0.004826
0.085671 0.024343 0.005580
0.114116 0.025292 0.006324
0.144477 0.026231 0.007062
0.176507 0.027163 0.007798
0.209973 0.028090 0.008532
0.244655 0.029014 0.009265
0.280345 0.029935 0.009999
0.316844 0.030855 0.010734
0.353961 0.031775 0.011471
0.391513 0.032694 0.012210
0.429322 0.033614 0.012951
0.467217 0.034534 0.013694
0.505030 0.035456 0.014440
0.542601 0.036379 0.015189
0.579770 0.037303 0.015941
0.616384 0.038229 0.016696
0.652290 0.039157 0.017454
0.687342 0.040086 0.018216
0.721394 0.041018 0.018981
0.754303 0.041952 0.019749
0.785931 0.042889 0.020521
0.816138 0.043828 0.021297
0.844791 0.044769 0.022076
0.871754 0.045713 0.022859
0.896897 0.046659 0.023645
0.902778 0.046892 0.023839
0.902778 0.046892 0.023839
0.902778 0.046892 0.023839
0.902778 0.046892 0.023839
0.902778 0.046892 0.023839
0.902778 0.046892 0.023839
0.038051 0.037755 0.005769
0.062274 0.038888 0.006563
0.088896 0.039990 0.007340
0.117657 0.041072 0.008106
0.148298 0.042140 0.008866
0.180575 0.043200 0.009623
0.214258 0.044252 0.010378
0.249127 0.045298 0.011133
0.284977 0.046341 0.011887
0.321608 0.047381 0.012643
0.358831 0.048419 0.013399
0.396463 0.049455 0.014158
0.434328 0.050491 0.014918
0.472253 0.051526 0.015681
0.510074 0.052561 0.016446
0.547628 0.053596 0.017214
0.584758 0.054632 0.017985
0.621309 0.055668 0.018758
0.657131 0.056706 0.019535
0.692076 0.057744 0.020315
0.726000 0.058784 0.021098
0.758759 0.059825 0.021885
0.790215 0.060867 0.022675
0.820230 0.061912 0.023468
0.848668 0.062958 0.024265
0.875397 0.064005 0.025066
0.900285 0.065055 0.025869
0.906101 0.065313 0.026067
0.906101 0.065313 0.026067
0.906101 0.065313 0.026067
0.906101 0.065313 0.026067
0.906101 0.065313 0.026067
0.906101 0.065313 0.026067
0.040616 0.055494 0.007569
0.065244 0.056763 0.008388
0.092224 0.057996 0.009188
0.121302 0.059206 0.009977
0.152225 0.060399 0.010759
0.184751 0.061580 0.011538
0.218651 0.062752 0.012314
0.253708 0.063917 0.013089
0.289717 0.065076 0.013864
0.326479 0.066231 0.014640
0.363807 0.067382 0.015417
0.401518 0.068530 0.016195
0.439436 0.069676 0.016976
0.477390 0.070821 0.017758
0.515215 0.071965 0.018542
0.552749 0.073107 0.019330
0.589835 0.074249 0.020119
0.626320 0.075391 0.020912
0.662052 0.076533 0.021707
0.696885 0.077676 0.022506
0.730674 0.078818 0.023308
0.763277 0.079962 0.024113
0.794555 0.081106 0.024921
0.824371 0.082250 0.025732
0.852588 0.083396 0.026547
0.879076 0.084543 0.027365
0.903701 0.085691 0.028187
0.909449 0.085973 0.028389
0.909449 0.085973 0.028389
0.909449 0.085973 0.028389
0.909449 0.085973 0.028389
0.909449 0.085973 0.028389
0.909449 0.085973 0.028389
0.043265 0.075490 0.009450
0.068300 0.076890 0.010293
0.095639 0.078247 0.011117
0.125036 0.079578 0.011928
0.156242 0.080889 0.012733
0.189016 0.082186 0.013533
0.223133 0.083472 0.014331
0.258377 0.084748 0.015128
0.294543 0.086018 0.015924
0.331435 0.087281 0.016720
0.368866 0.088540 0.017517
0.406653 0.089794 0.018315
0.444621 0.091045 0.019115
0.482601 0.092294 0.019917
0.520426 0.093540 0.020721
0.557937 0.094784 0.021528
0.594976 0.096027 0.022337
0.631389 0.097269 0.023148
0.667028 0.098510 0.023963
0.701744 0.099750 0.024780
0.735394 0.100990 0.025600
0.767835 0.102230 0.026423
0.798929 0.103470 0.027250
0.828539 0.104710 0.028079
0.856530 0.105950 0.028912
0.882769 0.107190 0.029748
0.907124 0.108431 0.030588
0.912802 0.108736 0.030794
0.912802 0.108736 0.030794
0.912802 0.108736 0.030794
0.912802 0.108736 0.030794
0.912802 0.108736 0.030794
0.912802 0.108736 0.030794
0.045993 0.097629 0.011409
0.071436 0.099151 0.012276
0.099134 0.100626 0.013123
0.128849 0.102071 0.013958
0.160336 0.103493 0.014785
0.193358 0.104899 0.015607
0.227690 0.106291 0.016426
0.263119 0.107673 0.017244
0.299441 0.109046 0.018060
0.336462 0.110411 0.018877
0.373992 0.111771 0.019695
0.411853 0.113125 0.020513
0.449869 0.114475 0.021333
0.487871 0.115820 0.022155
0.525694 0.117163 0.022978
0.563177 0.118503 0.023804
0.600165 0.119840 0.024632
0.636503 0.121176 0.025463
0.672043 0.122509 0.026296
0.706638 0.123841 0.027132
0.740143 0.125173 0.027971
0.772418 0.126503 0.028813
0.803323 0.127832 0.029657
0.832722 0.129161 0.030505
0.860480 0.130489 0.031356
0.886464 0.131817 0.032210
0.910544 0.133144 0.033067
0.916151 0.133470 0.033278
0.916151 0.133470 0.033278
0.916151 0.133470 0.033278
0.916151 0.133470 0.033278
0.916151 0.133470 0.033278
0.916151 0.133470 0.033278
0.048796 0.121789 0.013442
0.074645 0.123425 0.014334
0.102702 0.125010 0.015204
0.132735 0.126561 0.016062
0.164502 0.128087 0.016911
0.197770 0.129595 0.017755
0.232316 0.131087 0.018596
0.267928 0.132566 0.019434
0.304404 0.134036 0.020272
0.341549 0.135496 0.021110
0.379178 0.136950 0.021947
0.417109 0.138396 0.022786
0.455170 0.139838 0.023626
0.493190 0.141274 0.024467
0.531007 0.142706 0.025310
0.568460 0.144135 0.026155
0.605392 0.145560 0.027003
0.641651 0.146982 0.027852
0.677089 0.148402 0.028704
0.711557 0.149819 0.029559
0.744914 0.151235 0.030416
0.777017 0.152649 0.031277
0.807728 0.154061 0.032140
0.836910 0.155472 0.033006
0.864429 0.156882 0.033874
0.890153 0.158290 0.034746
0.913952 0.159698 0.035621
0.919486 0.160044 0.035837
0.919486 0.160044 0.035837
0.919486 0.160044 0.035837
0.919486 0.160044 0.035837
0.919486 0.160044 0.035837
0.919486 0.160044 0.035837
0.051671 0.147843 0.015549
0.077926 0.149585 0.016465
0.106340 0.151271 0.017359
0.136688 0.152921 0.018239
0.168734 0.154543 0.019110
0.202246 0.156144 0.019976
0.237004 0.157728 0.020838
0.272797 0.159298 0.021698
0.309424 0.160857 0.022557
0.346691 0.162405 0.023415
0.384415 0.163945 0.024273
0.422414 0.165477 0.025132
0.460516 0.167003 0.025991
0.498552 0.168523 0.026852
0.536359 0.170037 0.027715
0.573777 0.171547 0.028579
0.610650 0.173053 0.029446
0.646826 0.174555 0.030314
0.682156 0.176054 0.031185
0.716494 0.177550 0.032059
0.749697 0.179043 0.032935
0.781624 0.180534 0.033813
0.812136 0.182022 0.034695
0.841097 0.183509 0.035579
0.868372 0.184993 0.036466
0.893831 0.186476 0.037355
0.917342 0.187958 0.038248
0.922803 0.188321 0.038468
0.922803 0.188321 0.038468
0.922803 0.188321 0.038468
0.922803 0.188321 0.038468
0.922803 0.188321 0.038468
0.922803 0.188321 0.038468
0.054616 0.175657 0.017727
0.081275 0.177496 0.018668
0.110044 0.179275 0.019585
0.140707 0.181015 0.020488
0.173029 0.182725 0.021382
0.206783 0.184412 0.022269
0.241750 0.186080 0.023153
0.277721 0.187733 0.024034
0.314496 0.189373 0.024913
0.351883 0.191001 0.025792
0.389698 0.192620 0.026670
0.427762 0.194231 0.027549
0.465902 0.195833 0.028428
0.503950 0.197429 0.029309
0.541743 0.199019 0.030191
0.579123 0.200603 0.031075
0.615933 0.202182 0.031960
0.652021 0.203757 0.032848
0.687240 0.205328 0.033737
0.721444 0.206895 0.034629
0.754489 0.208458 0.035524
0.786234 0.210019 0.036421
0.816542 0.211576 0.037320
0.845276 0.213131 0.038222
0.872304 0.214684 0.039127
0.897491 0.216234 0.040035
0.920710 0.217782 0.040946
0.926095 0.218162 0.041170
0.926095 0.218162 0.041170
0.926095 0.218162 0.041170
0.926095 0.218162 0.041170
0.926095 0.218162 0.041170
0.926095 0.218162 0.041170
0.057629 0.205091 0.019977
0.084690 0.207018 0.020942
0.113813 0.208882 0.021882
0.144787 0.210703 0.022808
0.177383 0.212493 0.023724
0.211376 0.214258 0.024633
0.246550 0.216002 0.025538
0.282696 0.217730 0.026440
0.319617 0.219443 0.027340
0.357121 0.221144 0.028239
0.395024 0.222834 0.029137
0.433149 0.224515 0.030036
0.471324 0.226187 0.030935
0.509380 0.227851 0.031836
0.547156 0.229509 0.032737
0.584493 0.231160 0.033640
0.621236 0.232805 0.034544
0.657233 0.234445 0.035451
0.692337 0.236080 0.036359
0.726401 0.237711 0.037270
0.759283 0.239338 0.038183
0.790843 0.240960 0.039098
0.820942 0.242580 0.040016
0.849445 0.244196 0.040936
0.876219 0.245809 0.041859
0.901131 0.247419 0.042784
0.924051 0.249026 0.043712
0.929360 0.249421 0.043941
0.929360 0.249421 0.043941
0.929360 0.249421 0.043941
0.929360 0.249421 0.043941
0.929360 0.249421 0.043941
0.929360 0.249421 0.043941
0.060708 0.236003 0.022296
0.088170 0.238009 0.023285
0.117644 0.239948 0.024249
0.148927 0.241842 0.025197
0.181795 0.243703 0.026135
0.216024 0.245537 0.027066
0.251402 0.247350 0.027992
0.287720 0.249144 0.028915
0.324784 0.250923 0.029836
0.362401 0.252688 0.030755
0.400389 0.254442 0.031674
0.438572 0.256185 0.032592
0.476777 0.257918 0.033511
0.514839 0.259643 0.034431
0.552594 0.261360 0.035352
0.589884 0.263070 0.036274
0.626556 0.264774 0.037197
0.662458 0.266472 0.038123
0.697442 0.268164 0.039050
0.731362 0.269851 0.039979
0.764077 0.271533 0.040910
0.795447 0.273211 0.041843
0.825333 0.274885 0.042779
0.853600 0.276555 0.043717
0.880115 0.278221 0.044658
0.904746 0.279883 0.045601
0.927363 0.281543 0.046547
0.932595 0.281950 0.046779
0.932595 0.281950 0.046779
0.932595 0.281950 0.046779
0.932595 0.281950 0.046779
0.932595 0.281950 0.046779
0.932595 0.281950 0.046779
0.063854 0.268243 0.024685
0.091713 0.270319 0.025698
0.121535 0.272325 0.026685
0.153125 0.274283 0.027656
0.186261 0.276206 0.028616
0.220724 0.278101 0.029568
0.256302 0.279973 0.030516
0.292791 0.281826 0.031459
0.329993 0.283662 0.032400
0.367720 0.285483 0.033340
0.405791 0.287292 0.034279
0.444027 0.289089 0.035217
0.482260 0.290876 0.036156
0.520322 0.292654 0.037095
0.558053 0.294423 0.038035
0.595293 0.296185 0.038976
0.631890 0.297939 0.039918
0.667692 0.299687 0.040862
0.702551 0.301428 0.041808
0.736324 0.303164 0.042755
0.768868 0.304894 0.043705
0.800042 0.306619 0.044656
0.829710 0.308339 0.045610
0.857737 0.310055 0.046566
0.883988 0.311767 0.047524
0.908334 0.313475 0.048485
0.930643 0.315179 0.049448
0.935796 0.315597 0.049685
0.935796 0.315597 0.049685
0.935796 0.315597 0.049685
0.935796 0.315597 0.049685
0.935796 0.315597 0.049685
0.935796 0.315597 0.049685
0.067063 0.301660 0.027143
0.095318 0.303796 0.028180
0.125485 0.305859 0.029190
0.157378 0.307872 0.030183
0.190780 0.309849 0.031165
0.225475 0.311796 0.032139
0.261250 0.313719 0.033107
0.297905 0.315622 0.034071
0.335243 0.317507 0.035033
0.373077 0.319376 0.035993
0.411225 0.321232 0.036951
0.449513 0.323075 0.037909
0.487769 0.324908 0.038868
0.525829 0.326730 0.039826
0.563530 0.328544 0.040785
0.600716 0.330348 0.041745
0.637234 0.332145 0.042706
0.672932 0.333935 0.043669
0.707664 0.335717 0.044633
0.741284 0.337494 0.045598
0.773652 0.339264 0.046566
0.804627 0.341029 0.047535
0.834073 0.342789 0.048507
0.861854 0.344543 0.049481
0.887837 0.346293 0.050457
0.911892 0.348038 0.051435
0.933888 0.349779 0.052416
0.938960 0.350206 0.052657
0.938960 0.350206 0.052657
0.938960 0.350206 0.052657
0.938960 0.350206 0.052657
0.938960 0.350206 0.052657
0.938960 0.350206 0.052657
0.070337 0.336098 0.029668
0.098983 0.338284 0.030730
0.129493 0.340395 0.031762
0.161687 0.342454 0.032778
0.195351 0.344476 0.033781
0.230273 0.346466 0.034776
0.266243 0.348431 0.035766
0.303060 0.350375 0.036751
0.340531 0.352300 0.037733
0.378468 0.354209 0.038712
0.416691 0.356104 0.039691
0.455026 0.357985 0.040669
0.493302 0.359855 0.041646
0.531355 0.361714 0.042623
0.569024 0.363563 0.043602
0.606152 0.365403 0.044580
0.642586 0.367235 0.045560
0.678176 0.369058 0.046541
0.712775 0.370874 0.047523
0.746239 0.372683 0.048507
0.778427 0.374486 0.049493
0.809198 0.376283 0.050480
0.838417 0.378073 0.051470
0.865948 0.379859 0.052461
0.891658 0.381638 0.053455
0.915417 0.383413 0.054450
0.937096 0.385183 0.055448
0.942087 0.385617 0.055694
0.942087 0.385617 0.055694
0.942087 0.385617 0.055694
0.942087 0.385617 0.055694
0.942087 0.385617 0.055694
0.942087 0.385617 0.055694
0.073673 0.371398 0.032262
0.102707 0.373624 0.033347
0.133557 0.375773 0.034402
0.166048 0.377869 0.035440
0.199973 0.379926 0.036465
0.235118 0.381951 0.037481
0.271280 0.383950 0.038491
0.308256 0.385926 0.039496
0.345856 0.387883 0.040499
0.383892 0.389823 0.041498
0.422187 0.391748 0.042496
0.460564 0.393659 0.043494
0.498857 0.395557 0.044490
0.536899 0.397445 0.045487
0.574531 0.399321 0.046484
0.611597 0.401188 0.047481
0.647944 0.403046 0.048480
0.683422 0.404895 0.049479
0.717885 0.406737 0.050480
0.751188 0.408571 0.051482
0.783190 0.410398 0.052485
0.813754 0.412218 0.053490
0.842741 0.414032 0.054497
0.870017 0.415840 0.055506
0.895450 0.417642 0.056517
0.918909 0.419439 0.057530
0.940265 0.421230 0.058545
0.945173 0.421670 0.058795
0.945173 0.421670 0.058795
0.945173 0.421670 0.058795
0.945173 0.421670 0.058795
0.945173 0.421670 0.058795
0.945173 0.421670 0.058795
0.077070 0.407396 0.034922
0.106491 0.409653 0.036030
0.137677 0.411831 0.037109
0.170462 0.413954 0.038168
0.204642 0.416037 0.039214
0.240009 0.418088 0.040252
0.276358 0.420111 0.041283
0.313490 0.422111 0.042308
0.351215 0.424091 0.043331
0.389348 0.426053 0.044350
0.427710 0.428000 0.045368
0.466127 0.429932 0.046384
0.504431 0.431851 0.047400
0.542459 0.433758 0.048416
0.580051 0.435654 0.049431
0.617051 0.437540 0.050447
0.653306 0.439416 0.051464
0.688668 0.441283 0.052481
0.722989 0.443141 0.053500
0.756127 0.444992 0.054520
0.787941 0.446835 0.055541
0.818291 0.448671 0.056564
0.847042 0.450500 0.057589
0.874059 0.452323 0.058615
0.899210 0.454140 0.059643
0.922364 0.455950 0.060673
0.943393 0.457755 0.061705
0.948217 0.458197 0.061959
0.948217 0.458197 0.061959
0.948217 0.458197 0.061959
0.948217 0.458197 0.061959
0.948217 0.458197 0.061959
0.948217 0.458197 0.061959
0.080529 0.443929 0.037648
0.110332 0.446206 0.038780
0.141851 0.448402 0.039881
0.174927 0.450544 0.040962
0.209360 0.452644 0.042030
0.244944 0.454711 0.043088
0.281477 0.456750 0.044140
0.318761 0.458765 0.045186
0.356608 0.460759 0.046228
0.394833 0.462735 0.047267
0.433258 0.464694 0.048304
0.471711 0.466638 0.049340
0.510024 0.468569 0.050374
0.548034 0.470488 0.051409
0.585581 0.472395 0.052443
0.622511 0.474291 0.053477
0.658670 0.476176 0.054512
0.693911 0.478053 0.055548
0.728088 0.479921 0.056585
0.761056 0.481780 0.057622
0.792676 0.483631 0.058662
0.822810 0.485474 0.059702
0.851320 0.487311 0.060744
0.878073 0.489140 0.061787
0.902937 0.490963 0.062833
0.925781 0.492779 0.063880
0.946478 0.494589 0.064929
0.951217 0.495033 0.065187
0.951217 0.495033 0.065187
0.951217 0.495033 0.065187
0.951217 0.495033 0.065187
0.951217 0.495033 0.065187
0.951217 0.495033 0.065187
0.084048 0.480827 0.040441
0.114229 0.483114 0.041596
0.146078 0.485320 0.042719
0.179441 0.487470 0.043822
0.214124 0.489578 0.044911
0.249921 0.491652 0.045990
0.286635 0.493697 0.047062
0.324068 0.495718 0.048128
0.362033 0.497717 0.049189
0.400346 0.499698 0.050248
0.438831 0.501661 0.051305
0.477316 0.503610 0.052359
0.515633 0.505544 0.053413
0.553621 0.507465 0.054466
0.591120 0.509374 0.055519
0.627975 0.511272 0.056571
0.664035 0.513159 0.057624
0.699151 0.515037 0.058678
0.733178 0.516905 0.059733
0.765972 0.518764 0.060788
0.797395 0.520615 0.061845
0.827306 0.522458 0.062902
0.855571 0.524293 0.063962
0.882056 0.526121 0.065022
0.906628 0.527942 0.066085
0.929159 0.529756 0.067149
0.949518 0.531564 0.068214
0.954171 0.532006 0.068476
0.954171 0.532006 0.068476
0.954171 0.532006 0.068476
0.954171 0.532006 0.068476
0.954171 0.532006 0.068476
0.954171 0.532006 0.068476
0.087626 0.517921 0.043299
0.118183 0.520208 0.044477
0.150358 0.522413 0.045622
0.184005 0.524562 0.046747
0.218933 0.526668 0.047857
0.254941 0.528739 0.048956
0.291831 0.530782 0.050048
0.329409 0.532799 0.051134
0.367488 0.534795 0.052215
0.405886 0.536771 0.053293
0.444427 0.538730 0.054369
0.482940 0.540674 0.055443
0.521258 0.542602 0.056515
0.559219 0.544518 0.057586
0.596665 0.546420 0.058657
0.633441 0.548312 0.059728
0.669397 0.550192 0.060799
0.704385 0.552062 0.061871
0.738258 0.553922 0.062943
0.770875 0.555773 0.064016
0.802094 0.557616 0.065090
0.831780 0.559450 0.066165
0.859795 0.561275 0.067241
0.886007 0.563094 0.068319
0.910283 0.564904 0.069398
0.932495 0.566708 0.070479
0.952513 0.568505 0.071561
0.957078 0.568945 0.071827
0.957078 0.568945 0.071827
0.957078 0.568945 0.071827
0.957078 0.568945 0.071827
0.957078 0.568945 0.071827
0.957078 0.568945 0.071827
0.091264 0.555038 0.046221
0.122192 0.557314 0.047423
0.154689 0.559509 0.048590
0.188616 0.561646 0.049735
0.223786 0.563741 0.050866
0.260000 0.565800 0.051986
0.297064 0.567831 0.053098
0.334783 0.569836 0.054204
0.372973 0.571819 0.055305
0.411452 0.573782 0.056402
0.450045 0.575728 0.057497
0.488581 0.577657 0.058589
0.526896 0.579572 0.059680
0.564826 0.581472 0.060770
0.602216 0.583360 0.061859
0.638910 0.585236 0.062948
0.674757 0.587101 0.064037
0.709611 0.588955 0.065126
0.743327 0.590799 0.066216
0.775761 0.592633 0.067306
0.806774 0.594458 0.068397
0.836229 0.596275 0.069489
0.863990 0.598083 0.070583
0.889925 0.599883 0.071677
0.913900 0.601676 0.072773
0.935788 0.603460 0.073871
0.955459 0.605238 0.074969
0.959937 0.605674 0.075239
0.959937 0.605674 0.075239
0.959937 0.605674 0.075239
0.959937 0.605674 0.075239
0.959937 0.605674 0.075239
0.959937 0.605674 0.075239
0.094959 0.592002 0.049208
0.126255 0.594257 0.050432
0.159071 0.596431 0.051621
0.193274 0.598548 0.052788
0.228682 0.600621 0.053940
0.265100 0.602660 0.055080
0.302332 0.604669 0.056212
0.340189 0.606652 0.057337
0.378485 0.608613 0.058457
0.417041 0.610554 0.059574
0.455682 0.612477 0.060687
0.494239 0.614384 0.061798
0.532546 0.616275 0.062907
0.570442 0.618153 0.064015
0.607770 0.620017 0.065123
0.644378 0.621869 0.066229
0.680113 0.623709 0.067336
0.714830 0.625539 0.068443
0.748382 0.627358 0.069550
0.780630 0.629167 0.070657
0.811432 0.630967 0.071766
0.840652 0.632758 0.072875
0.868155 0.634540 0.073985
0.893807 0.636313 0.075096
0.917477 0.638079 0.076209
0.939037 0.639837 0.077322
0.958357 0.641587 0.078438
0.962745 0.642016 0.078712
0.962745 0.642016 0.078712
0.962745 0.642016 0.078712
0.962745 0.642016 0.078712
0.962745 0.642016 0.078712
0.962745 0.642016 0.078712
0.098713 0.628636 0.052259
0.130373 0.630860 0.053506
0.163503 0.633003 0.054716
0.197979 0.635089 0.055904
0.233621 0.637132 0.057076
0.270237 0.639140 0.058237
0.307635 0.641118 0.059388
0.345626 0.643070 0.060533
0.384025 0.645000 0.061672
0.422654 0.646910 0.062808
0.461339 0.648801 0.063940
0.499911 0.650676 0.065069
0.538206 0.652536 0.066196
0.576064 0.654381 0.067323
0.613328 0.656213 0.068448
0.649844 0.658032 0.069572
0.685463 0.659839 0.070696
0.720038 0.661636 0.071820
0.753424 0.663421 0.072945
0.785480 0.665197 0.074069
0.816067 0.666962 0.075195
0.845047 0.668719 0.076321
0.872287 0.670466 0.077447
0.897653 0.672205 0.078575
0.921013 0.673935 0.079704
0.942240 0.675658 0.080834
0.961204 0.677372 0.081966
0.965501 0.677792 0.082244
0.965501 0.677792 0.082244
0.965501 0.677792 0.082244
0.965501 0.677792 0.082244
0.965501 0.677792 0.082244
0.965501 0.677792 0.082244
0.102523 0.664762 0.055373
0.134542 0.666944 0.056642
0.167983 0.669045 0.057874
0.202728 0.671091 0.059083
0.238601 0.673093 0.060275
0.275413 0.675060 0.061456
0.312972 0.676998 0.062627
0.351092 0.678910 0.063791
0.389590 0.680800 0.064949
0.428288 0.682669 0.066103
0.467013 0.684520 0.067254
0.505597 0.686354 0.068401
0.543877 0.688173 0.069547
0.581692 0.689977 0.070691
0.618887 0.691767 0.071834
0.655308 0.693545 0.072976
0.690806 0.695310 0.074117
0.725234 0.697065 0.075259
0.758450 0.698808 0.076400
0.790310 0.700541 0.077542
0.820677 0.702264 0.078684
0.849414 0.703978 0.079826
0.876386 0.705682 0.080970
0.901460 0.707377 0.082114
0.924507 0.709064 0.083259
0.945396 0.710743 0.084405
0.964000 0.712413 0.085553
0.968205 0.712822 0.085835
0.968205 0.712822 0.085835
0.968205 0.712822 0.085835
0.968205 0.712822 0.085835
0.968205 0.712822 0.085835
0.968205 0.712822 0.085835
0.106389 0.700198 0.058550
0.138765 0.702327 0.059841
0.172513 0.704377 0.061094
0.207522 0.706371 0.062324
0.243622 0.708323 0.063536
0.280624 0.710241 0.064736
0.318342 0.712129 0.065927
0.356587 0.713991 0.067110
0.395180 0.715831 0.068287
0.433943 0.717650 0.069460
0.472704 0.719451 0.070629
0.511296 0.721236 0.071794
0.549556 0.723004 0.072958
0.587324 0.724758 0.074120
0.624445 0.726498 0.075280
0.660767 0.728226 0.076439
0.696140 0.729941 0.077598
0.730418 0.731644 0.078757
0.763458 0.733337 0.079915
0.795119 0.735019 0.081073
0.825262 0.736690 0.082232
0.853750 0.738352 0.083391
0.880450 0.740005 0.084551
0.905229 0.741648 0.085711
0.927956 0.743283 0.086873
0.948503 0.744909 0.088035
0.966742 0.746527 0.089198
0.970854 0.746923 0.089484
0.970854 0.746923 0.089484
0.970854 0.746923 0.089484
0.970854 0.746923 0.089484
0.970854 0.746923 0.089484
0.970854 0.746923 0.089484
0.110310 0.734760 0.061789
0.143038 0.736826 0.063102
0.177089 0.738814 0.064376
0.212360 0.740748 0.065626
0.248682 0.742640 0.066859
0.285872 0.744497 0.068079
0.323743 0.746326 0.069288
0.362110 0.748129 0.070490
0.400793 0.749909 0.071686
0.439617 0.751670 0.072877
0.478410 0.753412 0.074064
0.517006 0.755137 0.075248
0.555242 0.756847 0.076429
0.592960 0.758541 0.077608
0.630003 0.760222 0.078786
0.666221 0.761890 0.079963
0.701465 0.763546 0.081139
0.735589 0.765190 0.082314
0.768449 0.766823 0.083489
0.799905 0.768445 0.084664
0.829819 0.770056 0.085839
0.858055 0.771658 0.087015
0.884478 0.773250 0.088190
0.908957 0.774833 0.089367
0.931361 0.776407 0.090544
0.951561 0.777972 0.091722
0.969431 0.779529 0.092902
0.973448 0.779910 0.093191
0.973448 0.779910 0.093191
0.973448 0.779910 0.093191
0.973448 0.779910 0.093191
0.973448 0.779910 0.093191
0.973448 0.779910 0.093191
0.114287 0.768266 0.065090
0.147363 0.770257 0.066424
0.181713 0.772173 0.067720
0.217240 0.774035 0.068990
0.253781 0.775857 0.070242
0.291154 0.777645 0.071481
0.329174 0.779404 0.072710
0.367659 0.781139 0.073931
0.406429 0.782851 0.075145
0.445310 0.784543 0.076355
0.484131 0.786216 0.077559
0.522727 0.787873 0.078761
0.560935 0.789515 0.079960
0.598597 0.791141 0.081157
0.635559 0.792754 0.082352
0.671669 0.794354 0.083545
0.706779 0.795941 0.084738
0.740744 0.797516 0.085930
0.773420 0.799081 0.087122
0.804668 0.800634 0.088313
0.834349 0.802177 0.089504
0.862327 0.803710 0.090696
0.888469 0.805233 0.091888
0.912643 0.806747 0.093081
0.934719 0.808251 0.094274
0.954568 0.809747 0.095467
0.972063 0.811234 0.096662
0.975985 0.811598 0.096956
