luts/blade-runner.cube
# CineLUT — Blade Runner (1982)
# Gerado por generate_luts.py
LUT_3D_SIZE 9
0.031501 0.001271 0.001271
0.138069 0.004122 0.004122
0.272531 0.006915 0.006915
0.420844 0.009730 0.009730
0.571294 0.012589 0.012589
0.713538 0.015503 0.015503
0.838142 0.018475 0.018475
0.897055 0.020170 0.020170
0.897055 0.020170 0.020170
0.040616 0.055494 0.007569
0.152225 0.060399 0.010759
0.289717 0.065076 0.013864
0.439436 0.069676 0.016976
0.589835 0.074249 0.020119
0.730674 0.078818 0.023308
0.852588 0.083396 0.026547
0.909449 0.085973 0.028389
0.909449 0.085973 0.028389
0.051671 0.147843 0.015549
0.168734 0.154543 0.019110
0.309424 0.160857 0.022557
0.460516 0.167003 0.025991
0.610650 0.173053 0.029446
0.749697 0.179043 0.032935
0.868372 0.184993 0.036466
0.922803 0.188321 0.038468
0.922803 0.188321 0.038468
0.063854 0.268243 0.024685
0.186261 0.276206 0.028616
0.329993 0.283662 0.032400
0.482260 0.290876 0.036156
0.631890 0.297939 0.039918
0.768868 0.304894 0.043705
0.883988 0.311767 0.047524
0.935796 0.315597 0.049685
0.935796 0.315597 0.049685
0.077070 0.407396 0.034922
0.204642 0.416037 0.039214
0.351215 0.424091 0.043331
0.504431 0.431851 0.047400
0.653306 0.439416 0.051464
0.787941 0.446835 0.055541
0.899210 0.454140 0.059643
0.948217 0.458197 0.061959
0.948217 0.458197 0.061959
0.091264 0.555038 0.046221
0.223786 0.563741 0.050866
0.372973 0.571819 0.055305
0.526896 0.579572 0.059680
0.674757 0.587101 0.064037
0.806774 0.594458 0.068397
0.913900 0.601676 0.072773
0.959937 0.605674 0.075239
0.959937 0.605674 0.075239
0.106389 0.700198 0.058550
0.243622 0.708323 0.063536
0.395180 0.715831 0.068287
0.549556 0.723004 0.072958
0.696140 0.729941 0.077598
0.825262 0.736690 0.082232
0.927956 0.743283 0.086873
0.970854 0.746923 0.089484
0.970854 0.746923 0.089484
0.122403 0.831356 0.071874
0.264092 0.838247 0.077190
0.417766 0.844572 0.082242
0.572334 0.850578 0.087198
0.717370 0.856349 0.092111
0.843317 0.861930 0.097008
0.941291 0.867346 0.101903
0.980885 0.870322 0.104654
0.980885 0.870322 0.104654
0.139266 0.936542 0.086160
0.285143 0.941527 0.091793
0.440667 0.946045 0.097134
0.595158 0.950281 0.102363
0.738372 0.954302 0.107538
0.860864 0.958140 0.112687
0.953828 0.961816 0.117825
0.989952 0.963814 0.120710
0.989952 0.963814 0.120710
0.031727 0.001424 0.010615
0.138427 0.004283 0.013953
0.272969 0.007084 0.017195
0.421320 0.009907 0.020435
0.571770 0.012774 0.023703
0.713981 0.015694 0.027012
0.838518 0.018673 0.030368
0.897379 0.020372 0.032274
0.897379 0.020372 0.032274
0.040858 0.055760 0.017950
0.152594 0.060672 0.021614
0.290161 0.065355 0.025154
0.439914 0.069962 0.028677
0.590309 0.074541 0.032217
0.731110 0.079116 0.035788
0.852953 0.083699 0.039399
0.909759 0.086279 0.041445
0.909759 0.086279 0.041445
0.051931 0.148208 0.027064
0.169115 0.154913 0.031083
0.309875 0.161232 0.034948
0.460995 0.167383 0.038780
0.611121 0.173437 0.042617
0.750125 0.179431 0.046474
0.868724 0.185385 0.050363
0.923098 0.188715 0.052562
0.923098 0.188715 0.052562
0.064132 0.268679 0.037325
0.186654 0.276645 0.041696
0.330450 0.284104 0.045885
0.482741 0.291321 0.050022
0.632356 0.298386 0.054152
0.769286 0.305343 0.058292
0.884326 0.312219 0.062455
0.936074 0.316050 0.064805
0.936074 0.316050 0.064805
0.077366 0.407870 0.048664
0.205047 0.416513 0.053380
0.351678 0.424567 0.057884
0.504912 0.432328 0.062320
0.653768 0.439893 0.066736
0.788349 0.447314 0.071153
0.899532 0.454619 0.075584
0.948477 0.458677 0.078081
0.948477 0.458677 0.078081
0.091576 0.555516 0.061037
0.224201 0.564218 0.066087
0.373440 0.572295 0.070897
0.527376 0.580047 0.075624
0.675213 0.587575 0.080317
0.807171 0.594932 0.085002
0.914206 0.602148 0.089693
0.960177 0.606145 0.092331
0.960177 0.606145 0.092331
0.106717 0.700645 0.074404
0.244047 0.708768 0.079779
0.395652 0.716273 0.084884
0.550035 0.723443 0.089890
0.696589 0.730377 0.094852
0.825647 0.737124 0.099795
0.928245 0.743713 0.104736
0.971075 0.747352 0.107511
0.971075 0.747352 0.107511
0.122747 0.831737 0.088730
0.264526 0.838623 0.094416
0.418241 0.844943 0.099806
0.572810 0.850944 0.105082
0.717811 0.856711 0.110300
0.843689 0.862287 0.115492
0.941561 0.867699 0.120671
0.981084 0.870672 0.123578
0.981084 0.870672 0.123578
0.139624 0.936819 0.103978
0.285585 0.941796 0.109963
0.441145 0.946308 0.115626
0.595632 0.950538 0.121158
0.738805 0.954552 0.126623
0.861222 0.958384 0.132051
0.954079 0.962053 0.137459
0.990129 0.964048 0.140491
0.990129 0.964048 0.140491
0.032397 0.001878 0.046782
0.139487 0.004763 0.051444
0.274265 0.007589 0.055897
0.422729 0.010434 0.060287
0.573182 0.013323 0.064657
0.715291 0.016264 0.069031
0.839629 0.019264 0.073419
0.898338 0.020974 0.075893
0.898338 0.020974 0.075893
0.041578 0.056550 0.056925
0.153688 0.061483 0.061869
0.291477 0.066186 0.066581
0.441329 0.070811 0.071214
0.591714 0.075407 0.075819
0.732400 0.079999 0.080419
0.854032 0.084599 0.085026
0.910678 0.087188 0.087619
0.910678 0.087188 0.087619
0.052704 0.149292 0.069099
0.170245 0.156013 0.074349
0.311211 0.162345 0.079341
0.462415 0.168509 0.084240
0.612515 0.174576 0.089099
0.751390 0.180582 0.093943
0.869764 0.186548 0.098788
0.923969 0.189884 0.101511
0.923969 0.189884 0.101511
0.064957 0.269970 0.082385
0.187819 0.277946 0.087937
0.331805 0.285413 0.093205
0.484164 0.292638 0.098365
0.633738 0.299711 0.103473
0.770524 0.306675 0.108558
0.885323 0.313557 0.113635
0.936895 0.317392 0.116485
0.936895 0.317392 0.116485
0.078242 0.409274 0.096676
0.206245 0.417920 0.102522
0.353050 0.425978 0.108058
0.506336 0.433741 0.113470
0.655134 0.441309 0.118821
0.789557 0.448731 0.124138
0.900484 0.456038 0.129440
0.949244 0.460096 0.132414
0.949244 0.460096 0.132414
0.092502 0.556932 0.111909
0.225430 0.565632 0.118037
0.374827 0.573707 0.123831
0.528797 0.581455 0.129488
0.676562 0.588981 0.135071
0.808346 0.596334 0.140612
0.915110 0.603547 0.146130
0.960888 0.607542 0.149222
0.960888 0.607542 0.149222
0.107691 0.701970 0.128032
0.245306 0.710084 0.134432
0.397050 0.717580 0.140473
0.551452 0.724742 0.146362
0.697918 0.731668 0.152168
0.826785 0.738406 0.157923
0.929097 0.744988 0.163647
0.971726 0.748621 0.166852
0.971726 0.748621 0.166852
0.123766 0.832863 0.145000
0.265812 0.839734 0.151659
0.419649 0.846040 0.157936
0.574221 0.852028 0.164047
0.719117 0.857781 0.170064
0.844789 0.863343 0.176022
0.942360 0.868741 0.181941
0.981672 0.871706 0.185252
0.981672 0.871706 0.185252
0.140687 0.937637 0.162771
0.286896 0.942594 0.169675
0.442561 0.947085 0.176175
0.597034 0.951296 0.182496
0.740085 0.955291 0.188713
0.862281 0.959104 0.194862
0.954821 0.962754 0.200966
0.990652 0.964738 0.204377
0.990652 0.964738 0.204377
0.033147 0.002387 0.100216
0.140668 0.005301 0.106130
0.275707 0.008153 0.111728
0.424295 0.011024 0.117199
0.574749 0.013937 0.122606
0.716744 0.016902 0.127978
0.840861 0.019924 0.133332
0.899399 0.021647 0.136334
0.899399 0.021647 0.136334
0.042381 0.057431 0.113013
0.154906 0.062388 0.119161
0.292941 0.067112 0.124973
0.442901 0.071757 0.130646
0.593272 0.076373 0.136245
0.733831 0.080983 0.141802
0.855227 0.085601 0.147335
0.911695 0.088200 0.150435
0.911695 0.088200 0.150435
0.053567 0.150499 0.128061
0.171503 0.157237 0.134462
0.312697 0.163585 0.140503
0.463993 0.169763 0.146393
0.614062 0.175844 0.152199
0.752794 0.181863 0.157954
0.870915 0.187842 0.163679
0.924934 0.191185 0.166884
0.924934 0.191185 0.166884
0.065878 0.271407 0.144167
0.189115 0.279393 0.150814
0.333311 0.286869 0.157080
0.485744 0.294103 0.163181
0.635271 0.301184 0.169188
0.771897 0.308156 0.175136
0.886427 0.315046 0.181046
0.937803 0.318884 0.184353
0.937803 0.318884 0.184353
0.079220 0.410834 0.161188
0.207578 0.419484 0.168072
0.354574 0.427545 0.174552
0.507917 0.435311 0.180855
0.656651 0.442881 0.187055
0.790896 0.450306 0.193188
0.901538 0.457614 0.199276
0.950093 0.461674 0.202679
0.950093 0.461674 0.202679
0.093535 0.558505 0.179040
0.226798 0.567202 0.186149
0.376367 0.575273 0.192835
0.530376 0.583019 0.199330
0.678059 0.590541 0.205712
0.809647 0.597891 0.212020
0.916110 0.605099 0.218276
0.961673 0.609092 0.221771
0.961673 0.609092 0.221771
0.108776 0.703439 0.197661
0.246706 0.711544 0.204983
0.398604 0.719031 0.211862
0.553026 0.726184 0.218538
0.699392 0.733100 0.225093
0.828047 0.739829 0.231565
0.930040 0.746401 0.237978
0.972444 0.750029 0.241558
0.972444 0.750029 0.241558
0.124902 0.834111 0.216997
0.267243 0.840965 0.224519
0.421214 0.847256 0.231579
0.575788 0.853228 0.238425
0.720566 0.858966 0.245139
0.846008 0.864513 0.251764
0.943242 0.869895 0.258323
0.982321 0.872852 0.261983
0.982321 0.872852 0.261983
0.141871 0.938542 0.236998
0.288354 0.943475 0.244707
0.444134 0.947945 0.251935
0.598590 0.952134 0.258937
0.741506 0.956108 0.265800
0.863453 0.959899 0.272566
0.955640 0.963528 0.279260
0.991227 0.965501 0.282992
0.991227 0.965501 0.282992
0.033946 0.002932 0.169560
0.141923 0.005877 0.176552
0.277237 0.008757 0.183131
0.425955 0.011655 0.189527
0.576408 0.014593 0.195814
0.718282 0.017583 0.202031
0.842162 0.020630 0.208200
0.900519 0.022366 0.211648
0.900519 0.022366 0.211648
0.043238 0.058370 0.184636
0.156200 0.063351 0.191812
0.294493 0.068098 0.198557
0.444568 0.072765 0.205109
0.594923 0.077401 0.211545
0.735345 0.082031 0.217904
0.856490 0.086668 0.224209
0.912768 0.089277 0.227730
0.912768 0.089277 0.227730
0.054485 0.151781 0.202128
0.172839 0.158537 0.209498
0.314273 0.164901 0.216421
0.465665 0.171095 0.223138
0.615701 0.177191 0.229731
0.754278 0.183224 0.236239
0.872132 0.189216 0.242688
0.925951 0.192567 0.246287
0.925951 0.192567 0.246287
0.066858 0.272930 0.220603
0.190492 0.280928 0.228161
0.334909 0.288414 0.235252
0.487419 0.295657 0.242127
0.636895 0.302747 0.248870
0.773349 0.309727 0.255522
0.887594 0.316624 0.262106
0.938761 0.320467 0.265780
0.938761 0.320467 0.265780
0.080260 0.412488 0.239885
0.208994 0.421142 0.247619
0.356191 0.429206 0.254870
0.509592 0.436975 0.261894
0.658256 0.444548 0.268777
0.792311 0.451974 0.275562
0.902650 0.459285 0.282273
0.950987 0.463345 0.286016
0.950987 0.463345 0.286016
0.094633 0.560170 0.259873
0.228251 0.568864 0.267773
0.378000 0.576933 0.275171
0.532049 0.584675 0.282333
0.679643 0.592193 0.289346
0.811024 0.599539 0.296253
0.917165 0.606743 0.303082
0.962500 0.610734 0.306887
0.962500 0.610734 0.306887
0.109930 0.704994 0.280495
0.248193 0.713089 0.288546
0.400251 0.720566 0.296080
0.554694 0.727709 0.303368
0.700952 0.734615 0.310499
0.829381 0.741334 0.317518
0.931034 0.747896 0.324453
0.973200 0.751518 0.328315
0.973200 0.751518 0.328315
0.126109 0.835430 0.301687
0.268761 0.842267 0.309876
0.422872 0.848541 0.317534
0.577447 0.854496 0.324936
0.722099 0.860218 0.332173
0.847296 0.865748 0.339292
0.944173 0.871115 0.346321
0.983003 0.874062 0.350234
0.983003 0.874062 0.350234
0.143130 0.939496 0.323395
0.289901 0.944404 0.331707
0.445801 0.948850 0.339475
0.600238 0.953017 0.346977
0.743008 0.956968 0.354309
0.864692 0.960737 0.361515
0.956503 0.964344 0.368626
0.991831 0.966303 0.372583
0.991831 0.966303 0.372583
0.034784 0.003506 0.252753
0.143233 0.006483 0.260596
0.278832 0.009392 0.267944
0.427684 0.012317 0.275058
0.578135 0.015283 0.282026
0.719882 0.018298 0.288892
0.843514 0.021370 0.295681
0.901682 0.023120 0.299465
0.901682 0.023120 0.299465
0.044135 0.059352 0.269621
0.157551 0.064359 0.277594
0.296112 0.069130 0.285059
0.446304 0.073818 0.292282
0.596641 0.078476 0.299352
0.736919 0.083126 0.306315
0.857801 0.087783 0.313195
0.913881 0.090403 0.317029
0.913881 0.090403 0.317029
0.055447 0.153120 0.288998
0.174234 0.159894 0.297107
0.315915 0.166275 0.304693
0.467406 0.172485 0.312028
0.617406 0.178596 0.319203
0.755822 0.184644 0.326264
0.873394 0.190650 0.333238
0.927006 0.194008 0.337122
0.927006 0.194008 0.337122
0.067883 0.274519 0.309263
0.191929 0.282528 0.317497
0.336573 0.290025 0.325195
0.489163 0.297278 0.332633
0.638584 0.304376 0.339905
0.774857 0.311364 0.347056
0.888804 0.318270 0.354115
0.939753 0.322116 0.358044
0.939753 0.322116 0.358044
0.081347 0.414211 0.330210
0.210471 0.422869 0.338558
0.357875 0.430937 0.346357
0.511336 0.438708 0.353888
0.659926 0.446284 0.361245
0.793782 0.453712 0.368477
0.903804 0.461024 0.375610
0.951913 0.465086 0.379579
0.951913 0.465086 0.379579
0.095780 0.561904 0.351724
0.229765 0.570595 0.360173
0.379702 0.578660 0.368061
0.533790 0.586398 0.375674
0.681291 0.593912 0.383106
0.812454 0.601254 0.390406
0.918259 0.608454 0.397603
0.963356 0.612442 0.401606
0.963356 0.612442 0.401606
0.111136 0.706612 0.373722
0.249743 0.714695 0.382259
0.401967 0.722162 0.390223
0.556429 0.729295 0.397904
0.702574 0.736190 0.405399
0.830767 0.742899 0.412756
0.932065 0.749450 0.420006
0.973982 0.753066 0.424035
0.973982 0.753066 0.424035
0.127370 0.836799 0.396135
0.270343 0.843618 0.404745
0.424600 0.849875 0.412773
0.579173 0.855813 0.420509
0.723692 0.861518 0.428054
0.848634 0.867031 0.435456
0.945136 0.872381 0.442745
0.983707 0.875319 0.446796
0.983707 0.875319 0.446796
0.144443 0.940485 0.418900
0.291514 0.945367 0.427569
0.447537 0.949788 0.435646
0.601952 0.953931 0.443426
0.744570 0.957858 0.451007
0.865979 0.961604 0.458442
0.957396 0.965187 0.465758
0.992454 0.967134 0.469822
0.992454 0.967134 0.469822
0.035654 0.004105 0.347063
0.144588 0.007114 0.355492
0.280480 0.010054 0.363362
0.429468 0.013007 0.370958
0.579916 0.016000 0.378375
0.721529 0.019042 0.385661
0.844905 0.022139 0.392846
0.902876 0.023903 0.396842
0.902876 0.023903 0.396842
0.045066 0.060371 0.365155
0.158949 0.065405 0.373659
0.297784 0.070199 0.381596
0.448095 0.074910 0.389251
0.598412 0.079590 0.396723
0.738541 0.084261 0.404060
0.859149 0.088938 0.411290
0.915024 0.091570 0.415310
0.915024 0.091570 0.415310
0.056444 0.154505 0.385774
0.175676 0.161298 0.394352
0.317612 0.167697 0.402352
0.469203 0.173923 0.410065
0.619163 0.180049 0.417588
0.757411 0.186112 0.424971
0.874692 0.192132 0.432244
0.928089 0.195498 0.436285
0.928089 0.195498 0.436285
0.068946 0.276161 0.407160
0.193414 0.284181 0.415801
0.338293 0.291688 0.423854
0.490962 0.298951 0.431613
0.640324 0.306058 0.439178
0.776411 0.313056 0.446597
0.890048 0.319969 0.453901
0.940771 0.323820 0.457959
0.940771 0.323820 0.457959
0.082474 0.415989 0.429088
0.211998 0.424651 0.437778
0.359614 0.432722 0.445872
0.513135 0.440497 0.453666
0.661647 0.448075 0.461260
0.795297 0.455506 0.468705
0.904990 0.462820 0.476029
0.952862 0.466882 0.480097
0.952862 0.466882 0.480097
0.096969 0.563692 0.451429
0.231331 0.572379 0.460155
0.381459 0.580440 0.468277
0.535586 0.588175 0.476094
0.682989 0.595685 0.483706
0.813925 0.603022 0.491163
0.919382 0.610218 0.498497
0.964232 0.614203 0.502567
0.964232 0.614203 0.502567
0.112384 0.708278 0.474092
0.251344 0.716350 0.482840
0.403738 0.723806 0.490977
0.558219 0.730928 0.498803
0.704246 0.737813 0.506420
0.832192 0.744510 0.513878
0.933123 0.751050 0.521208
0.974782 0.754660 0.525275
0.974782 0.754660 0.525275
0.128675 0.838208 0.497002
0.271979 0.845008 0.505756
0.426383 0.851247 0.513894
0.580954 0.857168 0.521717
0.725334 0.862854 0.529325
0.850009 0.868350 0.536771
0.946125 0.873682 0.544086
0.984427 0.876610 0.548142
0.984427 0.876610 0.548142
0.145803 0.941499 0.520092
0.293179 0.946354 0.528837
0.449328 0.950750 0.536962
0.603720 0.954868 0.544767
0.746179 0.958771 0.552354
0.867301 0.962492 0.559775
0.958311 0.966051 0.567061
0.993090 0.967984 0.571099
0.993090 0.967984 0.571099
0.036552 0.004726 0.449191
0.145983 0.007769 0.457914
0.282173 0.010739 0.466034
0.431299 0.013722 0.473849
0.581742 0.016742 0.481459
0.723216 0.019812 0.488916
0.846326 0.022935 0.496249
0.904095 0.024714 0.500320
0.904095 0.024714 0.500320
0.046026 0.061421 0.467880
0.160386 0.066482 0.476623
0.299501 0.071301 0.484757
0.449933 0.076036 0.492582
0.600227 0.080737 0.500199
0.740201 0.085430 0.507658
0.860527 0.090128 0.514990
0.916191 0.092771 0.519059
0.916191 0.092771 0.519059
0.057473 0.155929 0.489031
0.177159 0.162742 0.497784
0.319354 0.169158 0.505924
0.471045 0.175401 0.513749
0.620964 0.181543 0.521362
0.759038 0.187621 0.528814
0.876019 0.193656 0.536135
0.929194 0.197030 0.540196
0.929194 0.197030 0.540196
0.070042 0.277847 0.510804
0.194942 0.285879 0.519555
0.340058 0.293397 0.527687
0.492807 0.300670 0.535501
0.642108 0.307786 0.543098
0.778001 0.314792 0.550531
0.891318 0.321714 0.557829
0.941809 0.325569 0.561876
0.941809 0.325569 0.561876
0.083635 0.417813 0.532960
0.213567 0.426479 0.541694
0.361400 0.434554 0.549805
0.514980 0.442332 0.557595
0.663410 0.449912 0.565164
0.796846 0.457345 0.572565
0.906201 0.464661 0.579829
0.953830 0.468724 0.583855
0.953830 0.468724 0.583855
0.098193 0.565525 0.555361
0.232940 0.574208 0.564064
0.383262 0.582265 0.572141
0.537428 0.589996 0.579893
0.684728 0.597502 0.587422
0.815431 0.604835 0.594779
0.920529 0.612026 0.601995
0.965125 0.616008 0.605993
0.965125 0.616008 0.605993
0.113669 0.709984 0.577910
0.252990 0.718045 0.586566
0.405556 0.725489 0.594595
0.560054 0.732600 0.602296
0.705958 0.739474 0.609771
0.833650 0.746160 0.617071
0.934202 0.752688 0.624227
0.975597 0.756292 0.628189
0.975597 0.756292 0.628189
0.130018 0.839650 0.600526
0.273658 0.846430 0.609120
0.428212 0.852650 0.617087
0.582779 0.858552 0.624723
0.727015 0.864221 0.632130
0.851416 0.869699 0.639359
0.947133 0.875013 0.646442
0.985159 0.877930 0.650362
0.985159 0.877930 0.650362
0.147201 0.942533 0.623138
0.294890 0.947361 0.631655
0.451166 0.951731 0.639544
0.605532 0.955823 0.647101
0.747826 0.959701 0.654427
0.868653 0.963397 0.661572
0.959244 0.966932 0.668568
0.993735 0.968850 0.672439
0.993735 0.968850 0.672439
0.037476 0.005368 0.555355
0.147412 0.008445 0.564058
0.283904 0.011446 0.572135
0.433170 0.014459 0.579887
0.583606 0.017508 0.587416
0.724937 0.020604 0.594773
0.847775 0.023755 0.601989
0.905336 0.025548 0.605987
0.905336 0.025548 0.605987
0.047014 0.062500 0.573969
0.161858 0.067588 0.582634
0.301257 0.072432 0.590673
0.451810 0.077191 0.598383
0.602081 0.081915 0.605868
0.741894 0.086630 0.613179
0.861931 0.091349 0.620347
0.917378 0.094004 0.624316
0.917378 0.094004 0.624316
0.058530 0.157388 0.594886
0.178678 0.164221 0.603498
0.321136 0.170656 0.611481
0.472928 0.176915 0.619135
0.622803 0.183074 0.626560
0.760697 0.189167 0.633808
0.877370 0.195217 0.640910
0.930317 0.198599 0.644842
0.930317 0.198599 0.644842
0.071167 0.279572 0.616257
0.196505 0.287616 0.624799
0.341862 0.295145 0.632714
0.494692 0.302427 0.640296
0.643929 0.309553 0.647648
0.779622 0.316568 0.654820
0.892612 0.323498 0.661844
0.942864 0.327358 0.665731
0.942864 0.327358 0.665731
0.084827 0.419678 0.637833
0.215173 0.428348 0.646290
0.363225 0.436427 0.654121
0.516864 0.444207 0.661619
0.665209 0.451790 0.668884
0.798426 0.459225 0.675968
0.907432 0.466543 0.682900
0.954812 0.470607 0.686734
0.954812 0.470607 0.686734
0.099449 0.567396 0.659471
0.234586 0.576076 0.667829
0.385105 0.584129 0.675562
0.539308 0.591856 0.682961
0.686502 0.599357 0.690126
0.816965 0.606685 0.697107
0.921696 0.613871 0.703934
0.966031 0.617851 0.707708
0.966031 0.617851 0.707708
0.114986 0.711725 0.681070
0.254674 0.719773 0.689312
0.407414 0.727206 0.696933
0.561928 0.734306 0.704219
0.707704 0.741168 0.711269
0.835135 0.747843 0.718134
0.935299 0.754359 0.724843
0.976422 0.757956 0.728550
0.976422 0.757956 0.728550
0.131395 0.841118 0.702546
0.275377 0.847878 0.710656
0.430082 0.854079 0.718149
0.584642 0.859962 0.725307
0.728730 0.865612 0.732229
0.852849 0.871072 0.738964
0.948157 0.876367 0.745541
0.985899 0.879274 0.749173
0.985899 0.879274 0.749173
0.148634 0.943584 0.723824
0.296640 0.948383 0.731786
0.453044 0.952726 0.739136
0.607382 0.956793 0.746153
0.749505 0.960644 0.752932
0.870029 0.964315 0.759523
0.960191 0.967824 0.765954
0.994387 0.969729 0.769503
0.994387 0.969729 0.769503
