luts/darjeeling-limited.cube
# CineLUT — The Darjeeling Limited (2007)
# Gerado por generate_luts.py
LUT_3D_SIZE 5
0.072938 0.000000 0.000000
0.398550 0.000000 0.000000
0.738348 0.000000 0.000000
0.995639 0.000000 0.000000
1.000000 0.000000 0.000000
0.058695 0.214838 0.000000
0.378482 0.208384 0.000000
0.719400 0.202388 0.000000
0.983805 0.196627 0.000000
1.000000 0.194909 0.000000
0.044306 0.511760 0.000000
0.357545 0.504455 0.000000
0.699237 0.497625 0.000000
0.970725 0.491022 0.000000
1.000000 0.489045 0.000000
0.030528 0.805790 0.000000
0.336779 0.799430 0.000000
0.678833 0.793445 0.000000
0.957006 0.787625 0.000000
1.000000 0.785875 0.000000
0.017778 1.000000 0.000000
0.316832 1.000000 0.000000
0.658844 1.000000 0.000000
0.943118 1.000000 0.000000
1.000000 1.000000 0.000000
0.072249 0.000000 0.094699
0.397592 0.000000 0.089277
0.737452 0.000000 0.084265
0.995090 0.000000 0.079473
1.000000 0.000000 0.078048
0.058030 0.213978 0.079717
0.377530 0.207529 0.074472
0.718492 0.201538 0.069627
0.983226 0.195782 0.064999
1.000000 0.194066 0.063623
0.043668 0.510789 0.064518
0.356600 0.503484 0.059467
0.698317 0.496653 0.054805
0.970117 0.490051 0.050357
1.000000 0.488074 0.049036
0.029918 0.804947 0.049895
0.335842 0.798582 0.045046
0.677903 0.792591 0.040577
0.956369 0.786766 0.036316
1.000000 0.785015 0.035051
0.017197 1.000000 0.036291
0.315904 1.000000 0.031647
0.657905 1.000000 0.027371
0.942455 1.000000 0.023300
1.000000 1.000000 0.022093
0.071048 0.000000 0.316431
0.395922 0.000000 0.309466
0.735887 0.000000 0.302979
0.994128 0.000000 0.296731
1.000000 0.000000 0.294865
0.056873 0.212479 0.297051
0.375870 0.206040 0.290164
0.716906 0.200058 0.283752
0.982214 0.194311 0.277579
1.000000 0.192598 0.275735
0.042558 0.509095 0.276935
0.354952 0.501790 0.270138
0.696712 0.494959 0.263812
0.969053 0.488357 0.257725
1.000000 0.486380 0.255908
0.028858 0.803475 0.257090
0.334209 0.797099 0.250391
0.676280 0.791100 0.244160
0.955256 0.785265 0.238167
1.000000 0.783512 0.236378
0.016187 1.000000 0.238133
0.314287 1.000000 0.231537
0.656266 1.000000 0.225405
0.941295 1.000000 0.219511
1.000000 1.000000 0.217752
0.069745 0.000000 0.592507
0.394103 0.000000 0.585276
0.734181 0.000000 0.578505
0.993076 0.000000 0.571951
1.000000 0.000000 0.569987
0.055617 0.210849 0.572288
0.374063 0.204420 0.565026
0.715178 0.198449 0.558230
0.981107 0.192712 0.551653
1.000000 0.191002 0.549682
0.041354 0.507251 0.550965
0.353159 0.499945 0.543681
0.694962 0.493115 0.536865
0.967890 0.486513 0.530271
1.000000 0.484536 0.528296
0.027709 0.801869 0.529582
0.332432 0.795483 0.522283
0.674510 0.789473 0.515455
0.954039 0.783629 0.508854
1.000000 0.781873 0.506877
0.015091 1.000000 0.508816
0.312528 1.000000 0.501510
0.654480 1.000000 0.494680
0.940029 1.000000 0.488078
1.000000 1.000000 0.486101
0.068377 0.000000 0.861886
0.392190 0.000000 0.855969
0.732382 0.000000 0.850390
0.991963 0.000000 0.844954
1.000000 0.000000 0.843318
0.054299 0.209136 0.845233
0.372161 0.202718 0.839172
0.713356 0.196757 0.833461
0.979935 0.191031 0.827900
1.000000 0.189324 0.826227
0.040091 0.505308 0.827316
0.351273 0.498002 0.821113
0.693117 0.491172 0.815270
0.966660 0.484571 0.809585
1.000000 0.482594 0.807875
0.026503 0.800176 0.808989
0.330563 0.793777 0.802651
0.672646 0.787757 0.796686
0.952753 0.781904 0.790885
1.000000 0.780144 0.789141
0.013943 1.000000 0.790851
0.310678 1.000000 0.784392
0.652598 1.000000 0.778316
0.938691 1.000000 0.772410
1.000000 1.000000 0.770635
