luts/darjeeling-limited.cube
# CineLUT — The Darjeeling Limited (2007)
# Gerado por generate_luts.py
LUT_3D_SIZE 9
0.072938 0.000000 0.000000
0.227334 0.000000 0.000000
0.398550 0.000000 0.000000
0.573053 0.000000 0.000000
0.738348 0.000000 0.000000
0.882846 0.000000 0.000000
0.995639 0.000000 0.000000
1.000000 0.000000 0.000000
1.000000 0.000000 0.000000
0.066111 0.088969 0.000000
0.218683 0.086213 0.000000
0.389007 0.083614 0.000000
0.563426 0.081106 0.000000
0.729383 0.078664 0.000000
0.875252 0.076276 0.000000
0.990097 0.073933 0.000000
1.000000 0.072526 0.000000
1.000000 0.072526 0.000000
0.058695 0.214838 0.000000
0.209195 0.211521 0.000000
0.378482 0.208384 0.000000
0.552758 0.205349 0.000000
0.719400 0.202388 0.000000
0.866737 0.199483 0.000000
0.983805 0.196627 0.000000
1.000000 0.194909 0.000000
1.000000 0.194909 0.000000
0.051425 0.358926 0.000000
0.199798 0.355277 0.000000
0.367994 0.351821 0.000000
0.542075 0.348472 0.000000
0.709350 0.345198 0.000000
0.858106 0.341982 0.000000
0.977347 0.338813 0.000000
1.000000 0.336905 0.000000
1.000000 0.336905 0.000000
0.044306 0.511760 0.000000
0.190493 0.508011 0.000000
0.357545 0.504455 0.000000
0.531380 0.501003 0.000000
0.699237 0.497625 0.000000
0.849361 0.494301 0.000000
0.970725 0.491022 0.000000
1.000000 0.489045 0.000000
1.000000 0.489045 0.000000
0.037339 0.663872 0.000000
0.181286 0.660253 0.000000
0.347139 0.656815 0.000000
0.520674 0.653473 0.000000
0.689064 0.650197 0.000000
0.840506 0.646970 0.000000
0.963944 0.643783 0.000000
1.000000 0.641859 0.000000
1.000000 0.641859 0.000000
0.030528 0.805790 0.000000
0.172177 0.802532 0.000000
0.336779 0.799430 0.000000
0.509963 0.796411 0.000000
0.678833 0.793445 0.000000
0.831544 0.790520 0.000000
0.957006 0.787625 0.000000
1.000000 0.785875 0.000000
1.000000 0.785875 0.000000
0.023876 0.928045 0.000000
0.163171 0.925378 0.000000
0.326468 0.922832 0.000000
0.499249 0.920346 0.000000
0.668548 0.917899 0.000000
0.822477 0.915479 0.000000
0.949914 0.913078 0.000000
1.000000 0.911624 0.000000
1.000000 0.911624 0.000000
0.017778 1.000000 0.000000
0.154810 1.000000 0.000000
0.316832 1.000000 0.000000
0.489187 1.000000 0.000000
0.658844 1.000000 0.000000
0.813871 1.000000 0.000000
0.943118 1.000000 0.000000
1.000000 1.000000 0.000000
1.000000 1.000000 0.000000
0.072773 0.000000 0.019052
0.227125 0.000000 0.016806
0.398320 0.000000 0.014693
0.572822 0.000000 0.012660
0.738133 0.000000 0.010688
0.882664 0.000000 0.008763
0.995508 0.000000 0.006881
1.000000 0.000000 0.005754
1.000000 0.000000 0.005754
0.065948 0.088798 0.013290
0.218476 0.086043 0.011096
0.388778 0.083444 0.009033
0.563194 0.080937 0.007050
0.729167 0.078496 0.005126
0.875068 0.076109 0.003250
0.989962 0.073767 0.001415
1.000000 0.072361 0.000316
1.000000 0.072361 0.000316
0.058535 0.214632 0.007075
0.208990 0.211315 0.004940
0.378254 0.208179 0.002935
0.552526 0.205145 0.001007
0.719183 0.202184 0.000000
0.866551 0.199280 0.000000
0.983666 0.196424 0.000000
1.000000 0.194706 0.000000
1.000000 0.194706 0.000000
0.051269 0.358699 0.001031
0.199595 0.355051 0.000000
0.367766 0.351595 0.000000
0.541843 0.348246 0.000000
0.709131 0.344972 0.000000
0.857917 0.341757 0.000000
0.977204 0.338588 0.000000
1.000000 0.336680 0.000000
1.000000 0.336680 0.000000
0.044153 0.511527 0.000000
0.190292 0.507779 0.000000
0.357318 0.504222 0.000000
0.531147 0.500771 0.000000
0.699017 0.497392 0.000000
0.849170 0.494068 0.000000
0.970579 0.490789 0.000000
1.000000 0.488812 0.000000
1.000000 0.488812 0.000000
0.037189 0.663647 0.000000
0.181087 0.660028 0.000000
0.346913 0.656589 0.000000
0.520442 0.653248 0.000000
0.688842 0.649971 0.000000
0.840313 0.646744 0.000000
0.963795 0.643556 0.000000
1.000000 0.641632 0.000000
1.000000 0.641632 0.000000
0.030382 0.805588 0.000000
0.171980 0.802329 0.000000
0.336554 0.799227 0.000000
0.509730 0.796207 0.000000
0.678610 0.793241 0.000000
0.831348 0.790314 0.000000
0.956853 0.787419 0.000000
1.000000 0.785669 0.000000
1.000000 0.785669 0.000000
0.023734 0.927880 0.000000
0.162977 0.925212 0.000000
0.326244 0.922664 0.000000
0.499016 0.920178 0.000000
0.668324 0.917730 0.000000
0.822279 0.915309 0.000000
0.949759 0.912907 0.000000
1.000000 0.911453 0.000000
1.000000 0.911453 0.000000
0.017638 1.000000 0.000000
0.154618 1.000000 0.000000
0.316609 1.000000 0.000000
0.488954 1.000000 0.000000
0.658619 1.000000 0.000000
0.813671 1.000000 0.000000
0.942959 1.000000 0.000000
1.000000 1.000000 0.000000
1.000000 1.000000 0.000000
0.072249 0.000000 0.094699
0.226464 0.000000 0.091909
0.397592 0.000000 0.089277
0.572089 0.000000 0.086738
0.737452 0.000000 0.084265
0.882089 0.000000 0.081846
0.995090 0.000000 0.079473
1.000000 0.000000 0.078048
1.000000 0.000000 0.078048
0.065433 0.088254 0.087525
0.217819 0.085502 0.084777
0.388052 0.082907 0.082186
0.562460 0.080402 0.079686
0.728481 0.077965 0.077253
0.874485 0.075581 0.074872
0.989534 0.073241 0.072537
1.000000 0.071837 0.071135
1.000000 0.071837 0.071135
0.058030 0.213978 0.079717
0.208340 0.210663 0.077017
0.377530 0.207529 0.074472
0.551791 0.204497 0.072017
0.718492 0.201538 0.069627
0.865960 0.198636 0.067291
0.983226 0.195782 0.064999
1.000000 0.194066 0.063623
1.000000 0.194066 0.063623
0.050774 0.357980 0.072047
0.198950 0.354333 0.069396
0.367045 0.350878 0.066898
0.541106 0.347530 0.064488
0.708436 0.344258 0.062144
0.857318 0.341043 0.059852
0.976753 0.337876 0.057604
1.000000 0.335968 0.056256
1.000000 0.335968 0.056256
0.043668 0.510789 0.064518
0.189655 0.507040 0.061917
0.356600 0.503484 0.059467
0.530409 0.500032 0.057104
0.698317 0.496653 0.054805
0.848563 0.493330 0.052559
0.970117 0.490051 0.050357
1.000000 0.488074 0.049036
1.000000 0.488074 0.049036
0.036715 0.662935 0.057133
0.180456 0.659315 0.054584
0.346198 0.655875 0.052182
0.519704 0.652532 0.049867
0.688139 0.649255 0.047615
0.839698 0.646027 0.045416
0.963321 0.642838 0.043260
1.000000 0.640913 0.041967
1.000000 0.640913 0.041967
0.029918 0.804947 0.049895
0.171356 0.801686 0.047398
0.335842 0.798582 0.045046
0.508992 0.795559 0.042780
0.677903 0.792591 0.040577
0.830726 0.789663 0.038424
0.956369 0.786766 0.036316
1.000000 0.785015 0.035051
1.000000 0.785015 0.035051
0.023282 0.927356 0.042808
0.162360 0.924684 0.040364
0.325535 0.922134 0.038063
0.498278 0.919644 0.035846
0.667614 0.917193 0.033692
0.821650 0.914769 0.031589
0.949264 0.912364 0.029528
1.000000 0.910908 0.028293
1.000000 0.910908 0.028293
0.017197 1.000000 0.036291
0.154008 1.000000 0.033899
0.315904 1.000000 0.031647
0.488216 1.000000 0.029478
0.657905 1.000000 0.027371
0.813035 1.000000 0.025314
0.942455 1.000000 0.023300
1.000000 1.000000 0.022093
1.000000 1.000000 0.022093
0.071665 0.000000 0.195609
0.225727 0.000000 0.192357
0.396781 0.000000 0.189283
0.571272 0.000000 0.186310
0.736693 0.000000 0.183410
0.881447 0.000000 0.180567
0.994624 0.000000 0.177771
1.000000 0.000000 0.176090
1.000000 0.000000 0.176090
0.064859 0.087649 0.187232
0.217088 0.084901 0.184011
0.387243 0.082309 0.180967
0.561642 0.079808 0.178023
0.727717 0.077374 0.175151
0.873835 0.074993 0.172335
0.989056 0.072657 0.169568
1.000000 0.071255 0.167904
1.000000 0.071255 0.167904
0.057468 0.213250 0.178059
0.207616 0.209938 0.174873
0.376724 0.206806 0.171862
0.550971 0.203776 0.168950
0.717723 0.200819 0.166111
0.865301 0.197920 0.163328
0.982735 0.195068 0.160592
1.000000 0.193353 0.158948
1.000000 0.193353 0.158948
0.050223 0.357180 0.168987
0.198234 0.353534 0.165836
0.366242 0.350080 0.162860
0.540286 0.346734 0.159982
0.707662 0.343462 0.157176
0.856650 0.340248 0.154426
0.976249 0.337082 0.151724
1.000000 0.335175 0.150099
1.000000 0.335175 0.150099
0.043129 0.509967 0.160018
0.188945 0.506218 0.156905
0.355800 0.502661 0.153964
0.529588 0.499210 0.151121
0.697538 0.495831 0.148349
0.847887 0.492508 0.145634
0.969601 0.489229 0.142965
1.000000 0.487252 0.141361
1.000000 0.487252 0.141361
0.036188 0.662142 0.151156
0.179754 0.658520 0.148081
0.345401 0.655079 0.145177
0.518882 0.651735 0.142370
0.687355 0.648456 0.139634
0.839013 0.645227 0.136953
0.962793 0.642037 0.134320
1.000000 0.640112 0.132737
1.000000 0.640112 0.132737
0.029403 0.804233 0.142405
0.170662 0.800969 0.139369
0.335049 0.797863 0.136502
0.508170 0.794838 0.133733
0.677115 0.791868 0.131033
0.830033 0.788937 0.128389
0.955829 0.786038 0.125791
1.000000 0.784285 0.124230
1.000000 0.784285 0.124230
0.022779 0.926771 0.133767
0.161674 0.924096 0.130772
0.324747 0.921542 0.127944
0.497456 0.919049 0.125212
0.666822 0.916595 0.122549
0.820950 0.914167 0.119942
0.948713 0.911759 0.117381
1.000000 0.910302 0.115843
1.000000 0.910302 0.115843
0.016706 1.000000 0.125761
0.153330 1.000000 0.122805
0.315119 1.000000 0.120014
0.487394 1.000000 0.117319
0.657109 1.000000 0.114692
0.812328 1.000000 0.112121
0.941892 1.000000 0.109596
1.000000 1.000000 0.108079
1.000000 1.000000 0.108079
0.071048 0.000000 0.316431
0.224947 0.000000 0.312853
0.395922 0.000000 0.309466
0.570406 0.000000 0.306185
0.735887 0.000000 0.302979
0.880766 0.000000 0.299831
0.994128 0.000000 0.296731
1.000000 0.000000 0.294865
1.000000 0.000000 0.294865
0.064253 0.087008 0.307203
0.216314 0.084264 0.303644
0.386386 0.081676 0.300274
0.560774 0.079179 0.297011
0.726906 0.076748 0.293822
0.873145 0.074370 0.290691
0.988548 0.072038 0.287609
1.000000 0.070638 0.285753
1.000000 0.070638 0.285753
0.056873 0.212479 0.297051
0.206849 0.209169 0.293513
0.375870 0.206040 0.290164
0.550102 0.203012 0.286921
0.716906 0.200058 0.283752
0.864601 0.197161 0.280641
0.982214 0.194311 0.277579
1.000000 0.192598 0.275735
1.000000 0.192598 0.275735
0.049640 0.356331 0.286961
0.197474 0.352687 0.283445
0.365391 0.349234 0.280117
0.539416 0.345889 0.276895
0.706841 0.342619 0.273748
0.855941 0.339406 0.270658
0.975715 0.336241 0.267616
1.000000 0.334335 0.265786
1.000000 0.334335 0.265786
0.042558 0.509095 0.276935
0.188194 0.505346 0.273443
0.354952 0.501790 0.270138
0.528717 0.498338 0.266938
0.696712 0.494959 0.263812
0.847169 0.491636 0.260744
0.969053 0.488357 0.257725
1.000000 0.486380 0.255908
1.000000 0.486380 0.255908
0.035630 0.661300 0.266977
0.179010 0.657677 0.263510
0.344557 0.654235 0.260228
0.518010 0.650889 0.257051
0.686524 0.647610 0.253948
0.838287 0.644380 0.250904
0.962233 0.641189 0.247907
1.000000 0.639263 0.246104
1.000000 0.639263 0.246104
0.028858 0.803475 0.257090
0.169927 0.800209 0.253648
0.334209 0.797099 0.250391
0.507298 0.794072 0.247239
0.676280 0.791100 0.244160
0.829298 0.788167 0.241140
0.955256 0.785265 0.238167
1.000000 0.783512 0.236378
1.000000 0.783512 0.236378
0.022247 0.926151 0.247278
0.160948 0.923471 0.243862
0.323911 0.920913 0.240631
0.496584 0.918417 0.237504
0.665982 0.915959 0.234450
0.820206 0.913528 0.231455
0.948127 0.911117 0.228507
1.000000 0.909657 0.226733
1.000000 0.909657 0.226733
0.016187 1.000000 0.238133
0.152612 1.000000 0.234743
0.314287 1.000000 0.231537
0.486522 1.000000 0.228434
0.656266 1.000000 0.225405
0.811577 1.000000 0.222434
0.941295 1.000000 0.219511
1.000000 1.000000 0.217752
1.000000 1.000000 0.217752
0.070406 0.000000 0.451113
0.224134 0.000000 0.447377
0.395027 0.000000 0.443834
0.569504 0.000000 0.440397
0.735048 0.000000 0.437035
0.880056 0.000000 0.433729
0.993611 0.000000 0.430470
1.000000 0.000000 0.428505
1.000000 0.000000 0.428505
0.063622 0.086342 0.441464
0.215509 0.083602 0.437733
0.385493 0.081017 0.434195
0.559870 0.078524 0.430764
0.726062 0.076097 0.427407
0.872425 0.073723 0.424107
0.988017 0.071394 0.420853
1.000000 0.069997 0.418893
1.000000 0.069997 0.418893
0.056254 0.211676 0.430806
0.206051 0.208370 0.427082
0.374980 0.205242 0.423551
0.549197 0.202218 0.420127
0.716056 0.199266 0.416777
0.863872 0.196371 0.413485
0.981669 0.193524 0.410239
1.000000 0.191812 0.408283
1.000000 0.191812 0.408283
0.049034 0.355448 0.420169
0.196684 0.351805 0.416453
0.364505 0.348354 0.412929
0.538510 0.345010 0.409513
0.705985 0.341740 0.406172
0.855202 0.338529 0.402888
0.975156 0.335366 0.399650
1.000000 0.333460 0.397700
1.000000 0.333460 0.397700
0.041965 0.508187 0.409556
0.187412 0.504438 0.405848
0.354070 0.500882 0.402334
0.527810 0.497430 0.398927
0.695851 0.494051 0.395595
0.846420 0.490728 0.392320
0.968481 0.487449 0.389092
1.000000 0.485473 0.387147
1.000000 0.485473 0.387147
0.035050 0.660423 0.398970
0.178237 0.656799 0.395272
0.343679 0.653355 0.391768
0.517103 0.650009 0.388371
0.685658 0.646728 0.385049
0.837529 0.643497 0.381785
0.961647 0.640304 0.378567
1.000000 0.638378 0.376629
1.000000 0.638378 0.376629
0.028292 0.802685 0.388413
0.169162 0.799416 0.384727
0.333334 0.796304 0.381234
0.506390 0.793275 0.377849
0.675409 0.790300 0.374538
0.828532 0.787365 0.371285
0.954658 0.784461 0.368078
1.000000 0.782706 0.366147
1.000000 0.782706 0.366147
0.021694 0.925503 0.377891
0.160192 0.922820 0.374217
0.323040 0.920258 0.370736
0.495676 0.917758 0.367362
0.665107 0.915296 0.364064
0.819431 0.912862 0.360823
0.947516 0.910447 0.357629
1.000000 0.908986 0.355706
1.000000 0.908986 0.355706
0.015647 1.000000 0.368041
0.151864 1.000000 0.364381
0.313421 1.000000 0.360912
0.485615 1.000000 0.357551
0.655387 1.000000 0.354264
0.810794 1.000000 0.351036
0.940673 1.000000 0.347855
1.000000 1.000000 0.345939
1.000000 1.000000 0.345939
0.069745 0.000000 0.592507
0.223297 0.000000 0.588798
0.394103 0.000000 0.585276
0.568573 0.000000 0.581856
0.734181 0.000000 0.578505
0.879322 0.000000 0.575207
0.993076 0.000000 0.571951
1.000000 0.000000 0.569987
1.000000 0.000000 0.569987
0.062972 0.085656 0.582918
0.214678 0.082920 0.579201
0.384573 0.080339 0.575672
0.558938 0.077850 0.572245
0.725190 0.075427 0.568888
0.871682 0.073057 0.565584
0.987469 0.070732 0.562322
1.000000 0.069336 0.560355
1.000000 0.069336 0.560355
0.055617 0.210849 0.572288
0.205228 0.207545 0.568563
0.374063 0.204420 0.565026
0.548263 0.201398 0.561593
0.715178 0.198449 0.558230
0.863118 0.195557 0.554920
0.981107 0.192712 0.551653
1.000000 0.191002 0.549682
1.000000 0.191002 0.549682
0.048410 0.354538 0.561636
0.195870 0.350896 0.557904
0.363591 0.347446 0.554362
0.537574 0.344103 0.550922
0.705101 0.340835 0.547554
0.854439 0.337625 0.544240
0.974579 0.334463 0.540968
1.000000 0.332558 0.538995
1.000000 0.332558 0.538995
0.041354 0.507251 0.550965
0.186606 0.503502 0.547228
0.353159 0.499945 0.543681
0.526874 0.496493 0.540237
0.694962 0.493115 0.536865
0.845647 0.489791 0.533546
0.967890 0.486513 0.530271
1.000000 0.484536 0.528296
1.000000 0.484536 0.528296
0.034453 0.659518 0.540280
0.177439 0.655892 0.536538
0.342772 0.652447 0.532986
0.516166 0.649099 0.529539
0.684764 0.645818 0.526164
0.836747 0.642585 0.522843
0.961042 0.639392 0.519565
1.000000 0.637464 0.517589
1.000000 0.637464 0.517589
0.027709 0.801869 0.529582
0.168374 0.798597 0.525837
0.332432 0.795483 0.522283
0.505454 0.792451 0.518833
0.674510 0.789473 0.515455
0.827740 0.786536 0.512133
0.954039 0.783629 0.508854
1.000000 0.781873 0.506877
1.000000 0.781873 0.506877
0.021125 0.924834 0.518876
0.159412 0.922147 0.515128
0.322143 0.919581 0.511572
0.494739 0.917077 0.508121
0.664204 0.914611 0.504742
0.818631 0.912173 0.501419
0.946884 0.909755 0.498140
1.000000 0.908291 0.496162
1.000000 0.908291 0.496162
0.015091 1.000000 0.508816
0.151094 1.000000 0.505067
0.312528 1.000000 0.501510
0.484678 1.000000 0.498059
0.654480 1.000000 0.494680
0.809985 1.000000 0.491357
0.940029 1.000000 0.488078
1.000000 1.000000 0.486101
1.000000 1.000000 0.486101
0.069068 0.000000 0.732451
0.222439 0.000000 0.728973
0.393157 0.000000 0.725666
0.567617 0.000000 0.722449
0.733292 0.000000 0.719293
0.878569 0.000000 0.716182
0.992526 0.000000 0.713107
1.000000 0.000000 0.711250
1.000000 0.000000 0.711250
0.062306 0.084953 0.723448
0.213827 0.082221 0.719949
0.383629 0.079645 0.716621
0.557981 0.077159 0.713385
0.724294 0.074740 0.710210
0.870919 0.072374 0.707081
0.986905 0.070053 0.703989
1.000000 0.068660 0.702121
1.000000 0.068660 0.702121
0.054964 0.210001 0.713425
0.204385 0.206700 0.709902
0.373122 0.203578 0.706553
0.547305 0.200558 0.703297
0.714277 0.197612 0.700102
0.862345 0.194722 0.696954
0.980528 0.191880 0.693843
1.000000 0.190171 0.691964
1.000000 0.190171 0.691964
0.047771 0.353604 0.703337
0.195035 0.349963 0.699792
0.362654 0.346515 0.696423
0.536615 0.343173 0.693147
0.704194 0.339906 0.689934
0.853655 0.336698 0.686768
0.973986 0.333537 0.683639
1.000000 0.331633 0.681750
1.000000 0.331633 0.681750
0.040729 0.506290 0.693188
0.185780 0.502541 0.689622
0.352226 0.498984 0.686233
0.525914 0.495532 0.682939
0.694050 0.492154 0.679708
0.844853 0.488831 0.676525
0.967282 0.485552 0.673379
1.000000 0.483576 0.671480
1.000000 0.483576 0.671480
0.033841 0.658589 0.682980
0.176622 0.654962 0.679395
0.341843 0.651516 0.675987
0.515206 0.648167 0.672675
0.683847 0.644883 0.669428
0.835943 0.641650 0.666228
0.960421 0.638455 0.663067
1.000000 0.636527 0.661159
1.000000 0.636527 0.661159
0.027112 0.801032 0.672716
0.167566 0.797757 0.669113
0.331507 0.794640 0.665688
0.504493 0.791605 0.662360
0.673588 0.788625 0.659097
0.826927 0.785685 0.655882
0.953404 0.782776 0.652706
1.000000 0.781018 0.650789
1.000000 0.781018 0.650789
0.020543 0.924147 0.662401
0.158614 0.921455 0.658780
0.321223 0.918885 0.655340
0.493778 0.916377 0.651996
0.663277 0.913908 0.648718
0.817809 0.911466 0.645489
0.946235 0.909044 0.642299
1.000000 0.907578 0.640374
1.000000 0.907578 0.640374
0.014523 1.000000 0.652669
0.150304 1.000000 0.649033
0.311613 1.000000 0.645578
0.483718 1.000000 0.642221
0.653549 1.000000 0.638930
0.809155 1.000000 0.635689
0.939368 1.000000 0.632487
1.000000 1.000000 0.630555
1.000000 1.000000 0.630555
0.068377 0.000000 0.861886
0.221563 0.000000 0.858856
0.392190 0.000000 0.855969
0.566642 0.000000 0.853156
0.732382 0.000000 0.850390
0.877798 0.000000 0.847659
0.991963 0.000000 0.844954
1.000000 0.000000 0.843318
1.000000 0.000000 0.843318
0.061627 0.084236 0.854030
0.212958 0.081509 0.850965
0.382665 0.078936 0.848044
0.557004 0.076455 0.845198
0.723379 0.074040 0.842401
0.870138 0.071678 0.839639
0.986328 0.069360 0.836904
1.000000 0.067970 0.835251
1.000000 0.067970 0.835251
0.054299 0.209136 0.845233
0.203525 0.205837 0.842129
0.372161 0.202718 0.839172
0.546326 0.199701 0.836292
0.713356 0.196757 0.833461
0.861553 0.193871 0.830667
0.979935 0.191031 0.827900
1.000000 0.189324 0.826227
1.000000 0.189324 0.826227
0.047119 0.352650 0.836328
0.194183 0.349011 0.833186
0.361696 0.345564 0.830194
0.535635 0.342223 0.827280
0.703267 0.338958 0.824417
0.852853 0.335751 0.821590
0.973378 0.332592 0.818792
1.000000 0.330689 0.817101
1.000000 0.330689 0.817101
0.040091 0.505308 0.827316
0.184936 0.501559 0.824139
0.351273 0.498002 0.821113
0.524934 0.494551 0.818166
0.693117 0.491172 0.815270
0.844042 0.487849 0.812413
0.966660 0.484571 0.809585
1.000000 0.482594 0.807875
1.000000 0.482594 0.807875
0.033218 0.657640 0.818202
0.175788 0.654011 0.814989
0.340894 0.650564 0.811930
0.514224 0.647213 0.808952
0.682909 0.643929 0.806026
0.835121 0.640694 0.803139
0.959784 0.637498 0.800281
1.000000 0.635569 0.798554
1.000000 0.635569 0.798554
0.026503 0.800176 0.808989
0.166741 0.796898 0.805742
0.330563 0.793777 0.802651
0.503511 0.790740 0.799642
0.672646 0.787757 0.796686
0.826096 0.784815 0.793770
0.952753 0.781904 0.790885
1.000000 0.780144 0.789141
1.000000 0.780144 0.789141
0.019949 0.923444 0.799679
0.157799 0.920747 0.796400
0.320283 0.918173 0.793278
0.492797 0.915661 0.790239
0.662330 0.913188 0.787255
0.816968 0.910742 0.784311
0.945571 0.908317 0.781398
1.000000 0.906849 0.779638
1.000000 0.906849 0.779638
0.013943 1.000000 0.790851
0.149499 1.000000 0.787542
0.310678 1.000000 0.784392
0.482736 1.000000 0.781326
0.652598 1.000000 0.778316
0.808306 1.000000 0.775347
0.938691 1.000000 0.772410
1.000000 1.000000 0.770635
1.000000 1.000000 0.770635
