luts/darjeeling-limited.cube
# CineLUT — The Darjeeling Limited (2007)
# Gerado por generate_luts.py
LUT_3D_SIZE 33
0.072938 0.000000 0.000000
0.109211 0.000000 0.000000
0.147168 0.000000 0.000000
0.186615 0.000000 0.000000
0.227334 0.000000 0.000000
0.269105 0.000000 0.000000
0.311707 0.000000 0.000000
0.354926 0.000000 0.000000
0.398550 0.000000 0.000000
0.442374 0.000000 0.000000
0.486196 0.000000 0.000000
0.529820 0.000000 0.000000
0.573053 0.000000 0.000000
0.615706 0.000000 0.000000
0.657594 0.000000 0.000000
0.698535 0.000000 0.000000
0.738348 0.000000 0.000000
0.776859 0.000000 0.000000
0.813892 0.000000 0.000000
0.849277 0.000000 0.000000
0.882846 0.000000 0.000000
0.914430 0.000000 0.000000
0.943865 0.000000 0.000000
0.970989 0.000000 0.000000
0.995639 0.000000 0.000000
1.000000 0.000000 0.000000
1.000000 0.000000 0.000000
1.000000 0.000000 0.000000
1.000000 0.000000 0.000000
1.000000 0.000000 0.000000
1.000000 0.000000 0.000000
1.000000 0.000000 0.000000
1.000000 0.000000 0.000000
0.071767 0.012220 0.000000
0.107946 0.011655 0.000000
0.145821 0.011105 0.000000
0.185196 0.010566 0.000000
0.225855 0.010036 0.000000
0.267575 0.009514 0.000000
0.310136 0.008998 0.000000
0.353322 0.008488 0.000000
0.396923 0.007983 0.000000
0.440731 0.007483 0.000000
0.484547 0.006988 0.000000
0.528172 0.006497 0.000000
0.571414 0.006009 0.000000
0.614085 0.005526 0.000000
0.655998 0.005045 0.000000
0.696971 0.004568 0.000000
0.736825 0.004094 0.000000
0.775384 0.003623 0.000000
0.812473 0.003155 0.000000
0.847921 0.002690 0.000000
0.881559 0.002227 0.000000
0.913221 0.001767 0.000000
0.942740 0.001309 0.000000
0.969956 0.000854 0.000000
0.994705 0.000401 0.000000
1.000000 0.000000 0.000000
1.000000 0.000000 0.000000
1.000000 0.000000 0.000000
1.000000 0.000000 0.000000
1.000000 0.000000 0.000000
1.000000 0.000000 0.000000
1.000000 0.000000 0.000000
1.000000 0.000000 0.000000
0.069873 0.035826 0.000000
0.105898 0.035208 0.000000
0.143639 0.034607 0.000000
0.182899 0.034017 0.000000
0.223459 0.033437 0.000000
0.265096 0.032865 0.000000
0.307589 0.032300 0.000000
0.350721 0.031741 0.000000
0.394282 0.031188 0.000000
0.438065 0.030640 0.000000
0.481869 0.030097 0.000000
0.525496 0.029558 0.000000
0.568753 0.029023 0.000000
0.611451 0.028492 0.000000
0.653404 0.027964 0.000000
0.694430 0.027440 0.000000
0.734349 0.026919 0.000000
0.772985 0.026402 0.000000
0.810163 0.025887 0.000000
0.845713 0.025375 0.000000
0.879464 0.024866 0.000000
0.911251 0.024359 0.000000
0.940907 0.023855 0.000000
0.968271 0.023354 0.000000
0.993180 0.022855 0.000000
1.000000 0.022358 0.000000
1.000000 0.021864 0.000000
1.000000 0.021650 0.000000
1.000000 0.021650 0.000000
1.000000 0.021650 0.000000
1.000000 0.021650 0.000000
1.000000 0.021650 0.000000
1.000000 0.021650 0.000000
0.067987 0.061458 0.000000
0.103859 0.060792 0.000000
0.141465 0.060142 0.000000
0.180608 0.059505 0.000000
0.221068 0.058879 0.000000
0.262621 0.058261 0.000000
0.305044 0.057650 0.000000
0.348123 0.057046 0.000000
0.391644 0.056448 0.000000
0.435401 0.055855 0.000000
0.479192 0.055267 0.000000
0.522819 0.054684 0.000000
0.566090 0.054104 0.000000
0.608815 0.053529 0.000000
0.650807 0.052958 0.000000
0.691885 0.052390 0.000000
0.731868 0.051825 0.000000
0.770581 0.051264 0.000000
0.807848 0.050706 0.000000
0.843498 0.050151 0.000000
0.877362 0.049598 0.000000
0.909272 0.049048 0.000000
0.939065 0.048501 0.000000
0.966576 0.047957 0.000000
0.991644 0.047415 0.000000
1.000000 0.046875 0.000000
1.000000 0.046338 0.000000
1.000000 0.046105 0.000000
1.000000 0.046105 0.000000
1.000000 0.046105 0.000000
1.000000 0.046105 0.000000
1.000000 0.046105 0.000000
1.000000 0.046105 0.000000
0.066111 0.088969 0.000000
0.101827 0.088257 0.000000
0.139298 0.087563 0.000000
0.178324 0.086883 0.000000
0.218683 0.086213 0.000000
0.260150 0.085553 0.000000
0.302504 0.084900 0.000000
0.345527 0.084254 0.000000
0.389007 0.083614 0.000000
0.432737 0.082979 0.000000
0.476515 0.082350 0.000000
0.520142 0.081726 0.000000
0.563426 0.081106 0.000000
0.606177 0.080490 0.000000
0.648208 0.079878 0.000000
0.689337 0.079269 0.000000
0.729383 0.078664 0.000000
0.768171 0.078062 0.000000
0.805526 0.077464 0.000000
0.841276 0.076868 0.000000
0.875252 0.076276 0.000000
0.907286 0.075686 0.000000
0.937213 0.075099 0.000000
0.964871 0.074515 0.000000
0.990097 0.073933 0.000000
1.000000 0.073353 0.000000
1.000000 0.072776 0.000000
1.000000 0.072526 0.000000
1.000000 0.072526 0.000000
1.000000 0.072526 0.000000
1.000000 0.072526 0.000000
1.000000 0.072526 0.000000
1.000000 0.072526 0.000000
0.064243 0.118211 0.000000
0.099803 0.117457 0.000000
0.137138 0.116723 0.000000
0.176045 0.116002 0.000000
0.216303 0.115293 0.000000
0.257684 0.114593 0.000000
0.299967 0.113901 0.000000
0.342934 0.113217 0.000000
0.386373 0.112538 0.000000
0.430075 0.111866 0.000000
0.473838 0.111199 0.000000
0.517465 0.110537 0.000000
0.560761 0.109879 0.000000
0.603536 0.109225 0.000000
0.645605 0.108576 0.000000
0.686784 0.107930 0.000000
0.726894 0.107288 0.000000
0.765757 0.106649 0.000000
0.803199 0.106013 0.000000
0.839048 0.105381 0.000000
0.873134 0.104751 0.000000
0.905291 0.104125 0.000000
0.935353 0.103501 0.000000
0.963156 0.102880 0.000000
0.988540 0.102261 0.000000
1.000000 0.101645 0.000000
1.000000 0.101031 0.000000
1.000000 0.100765 0.000000
1.000000 0.100765 0.000000
1.000000 0.100765 0.000000
1.000000 0.100765 0.000000
1.000000 0.100765 0.000000
1.000000 0.100765 0.000000
0.062385 0.149035 0.000000
0.097788 0.148243 0.000000
0.134985 0.147472 0.000000
0.173773 0.146715 0.000000
0.213928 0.145969 0.000000
0.255223 0.145234 0.000000
0.297434 0.144507 0.000000
0.340345 0.143787 0.000000
0.383740 0.143074 0.000000
0.427414 0.142366 0.000000
0.471162 0.141665 0.000000
0.514787 0.140968 0.000000
0.558094 0.140276 0.000000
0.600894 0.139588 0.000000
0.643000 0.138904 0.000000
0.684229 0.138224 0.000000
0.724400 0.137548 0.000000
0.763337 0.136875 0.000000
0.800866 0.136206 0.000000
0.836813 0.135540 0.000000
0.871009 0.134876 0.000000
0.903288 0.134216 0.000000
0.933483 0.133558 0.000000
0.961432 0.132904 0.000000
0.986972 0.132251 0.000000
1.000000 0.131601 0.000000
1.000000 0.130954 0.000000
1.000000 0.130674 0.000000
1.000000 0.130674 0.000000
1.000000 0.130674 0.000000
1.000000 0.130674 0.000000
1.000000 0.130674 0.000000
1.000000 0.130674 0.000000
0.060535 0.181293 0.000000
0.095780 0.180468 0.000000
0.132840 0.179662 0.000000
0.171508 0.178873 0.000000
0.211559 0.178095 0.000000
0.252766 0.177327 0.000000
0.294905 0.176568 0.000000
0.337758 0.175816 0.000000
0.381110 0.175071 0.000000
0.424754 0.174333 0.000000
0.468487 0.173600 0.000000
0.512109 0.172872 0.000000
0.555427 0.172149 0.000000
0.598250 0.171430 0.000000
0.640392 0.170715 0.000000
0.681670 0.170004 0.000000
0.721902 0.169297 0.000000
0.760913 0.168594 0.000000
0.798526 0.167894 0.000000
0.834571 0.167197 0.000000
0.868877 0.166503 0.000000
0.901277 0.165812 0.000000
0.931605 0.165124 0.000000
0.959698 0.164439 0.000000
0.985394 0.163756 0.000000
1.000000 0.163076 0.000000
1.000000 0.162398 0.000000
1.000000 0.162104 0.000000
1.000000 0.162104 0.000000
1.000000 0.162104 0.000000
1.000000 0.162104 0.000000
1.000000 0.162104 0.000000
1.000000 0.162104 0.000000
0.058695 0.214838 0.000000
0.093781 0.213982 0.000000
0.130701 0.213147 0.000000
0.169248 0.212328 0.000000
0.209195 0.211521 0.000000
0.250314 0.210725 0.000000
0.292380 0.209937 0.000000
0.335174 0.209157 0.000000
0.378482 0.208384 0.000000
0.422096 0.207617 0.000000
0.465812 0.206856 0.000000
0.509431 0.206100 0.000000
0.552758 0.205349 0.000000
0.595605 0.204603 0.000000
0.637782 0.203861 0.000000
0.679107 0.203122 0.000000
0.719400 0.202388 0.000000
0.758483 0.201657 0.000000
0.796182 0.200929 0.000000
0.832323 0.200205 0.000000
0.866737 0.199483 0.000000
0.899257 0.198765 0.000000
0.929718 0.198050 0.000000
0.957954 0.197337 0.000000
0.983805 0.196627 0.000000
1.000000 0.195919 0.000000
1.000000 0.195214 0.000000
1.000000 0.194909 0.000000
1.000000 0.194909 0.000000
1.000000 0.194909 0.000000
1.000000 0.194909 0.000000
1.000000 0.194909 0.000000
1.000000 0.194909 0.000000
0.056864 0.249522 0.000000
0.091790 0.248639 0.000000
0.128570 0.247778 0.000000
0.166995 0.246933 0.000000
0.206837 0.246101 0.000000
0.247867 0.245279 0.000000
0.289859 0.244466 0.000000
0.332594 0.243661 0.000000
0.375857 0.242863 0.000000
0.419439 0.242072 0.000000
0.463137 0.241286 0.000000
0.506752 0.240506 0.000000
0.550089 0.239730 0.000000
0.592957 0.238959 0.000000
0.635169 0.238192 0.000000
0.676541 0.237430 0.000000
0.716894 0.236671 0.000000
0.756049 0.235915 0.000000
0.793831 0.235164 0.000000
0.830068 0.234415 0.000000
0.864590 0.233669 0.000000
0.897230 0.232927 0.000000
0.927821 0.232187 0.000000
0.956200 0.231450 0.000000
0.982206 0.230716 0.000000
1.000000 0.229984 0.000000
1.000000 0.229255 0.000000
1.000000 0.228939 0.000000
1.000000 0.228939 0.000000
1.000000 0.228939 0.000000
1.000000 0.228939 0.000000
1.000000 0.228939 0.000000
1.000000 0.228939 0.000000
0.055042 0.285197 0.000000
0.089807 0.284291 0.000000
0.126447 0.283407 0.000000
0.164749 0.282540 0.000000
0.204485 0.281685 0.000000
0.245425 0.280841 0.000000
0.287342 0.280007 0.000000
0.330016 0.279180 0.000000
0.373233 0.278361 0.000000
0.416784 0.277548 0.000000
0.460464 0.276741 0.000000
0.504074 0.275939 0.000000
0.547419 0.275143 0.000000
0.590308 0.274351 0.000000
0.632553 0.273563 0.000000
0.673972 0.272779 0.000000
0.714384 0.271999 0.000000
0.753609 0.271222 0.000000
0.791475 0.270449 0.000000
0.827807 0.269680 0.000000
0.862436 0.268913 0.000000
0.895195 0.268149 0.000000
0.925916 0.267389 0.000000
0.954438 0.266631 0.000000
0.980596 0.265875 0.000000
1.000000 0.265122 0.000000
1.000000 0.264372 0.000000
1.000000 0.264047 0.000000
1.000000 0.264047 0.000000
1.000000 0.264047 0.000000
1.000000 0.264047 0.000000
1.000000 0.264047 0.000000
1.000000 0.264047 0.000000
0.053229 0.321714 0.000000
0.087833 0.320789 0.000000
0.124331 0.319886 0.000000
0.162510 0.319000 0.000000
0.202139 0.318127 0.000000
0.242987 0.317265 0.000000
0.284828 0.316412 0.000000
0.327442 0.315567 0.000000
0.370612 0.314730 0.000000
0.414130 0.313899 0.000000
0.457791 0.313074 0.000000
0.501395 0.312254 0.000000
0.544747 0.311439 0.000000
0.587657 0.310629 0.000000
0.629935 0.309823 0.000000
0.671400 0.309022 0.000000
0.711869 0.308224 0.000000
0.751165 0.307430 0.000000
0.789113 0.306639 0.000000
0.825539 0.305851 0.000000
0.860275 0.305067 0.000000
0.893151 0.304285 0.000000
0.924003 0.303506 0.000000
0.952665 0.302730 0.000000
0.978977 0.301957 0.000000
1.000000 0.301186 0.000000
1.000000 0.300418 0.000000
1.000000 0.300085 0.000000
1.000000 0.300085 0.000000
1.000000 0.300085 0.000000
1.000000 0.300085 0.000000
1.000000 0.300085 0.000000
1.000000 0.300085 0.000000
0.051425 0.358926 0.000000
0.085867 0.357985 0.000000
0.122222 0.357067 0.000000
0.160277 0.356165 0.000000
0.199798 0.355277 0.000000
0.240554 0.354400 0.000000
0.282319 0.353533 0.000000
0.324871 0.352673 0.000000
0.367994 0.351821 0.000000
0.411478 0.350975 0.000000
0.455119 0.350136 0.000000
0.498716 0.349301 0.000000
0.542075 0.348472 0.000000
0.585004 0.347647 0.000000
0.627315 0.346827 0.000000
0.668824 0.346010 0.000000
0.709350 0.345198 0.000000
0.748716 0.344389 0.000000
0.786745 0.343583 0.000000
0.823265 0.342781 0.000000
0.858106 0.341982 0.000000
0.891100 0.341186 0.000000
0.922080 0.340392 0.000000
0.950883 0.339601 0.000000
0.977347 0.338813 0.000000
1.000000 0.338028 0.000000
1.000000 0.337244 0.000000
1.000000 0.336905 0.000000
1.000000 0.336905 0.000000
1.000000 0.336905 0.000000
1.000000 0.336905 0.000000
1.000000 0.336905 0.000000
1.000000 0.336905 0.000000
0.049631 0.396684 0.000000
0.083909 0.395731 0.000000
0.120122 0.394802 0.000000
0.158050 0.393889 0.000000
0.197463 0.392989 0.000000
0.238127 0.392101 0.000000
0.279814 0.391222 0.000000
0.322303 0.390351 0.000000
0.365378 0.389487 0.000000
0.408828 0.388630 0.000000
0.452448 0.387779 0.000000
0.496038 0.386933 0.000000
0.539402 0.386093 0.000000
0.582350 0.385257 0.000000
0.624692 0.384425 0.000000
0.666245 0.383597 0.000000
0.706828 0.382773 0.000000
0.746262 0.381953 0.000000
0.784372 0.381135 0.000000
0.820985 0.380322 0.000000
0.855931 0.379511 0.000000
0.889041 0.378703 0.000000
0.920149 0.377898 0.000000
0.949092 0.377096 0.000000
0.975706 0.376296 0.000000
0.999833 0.375498 0.000000
1.000000 0.374703 0.000000
1.000000 0.374359 0.000000
1.000000 0.374359 0.000000
1.000000 0.374359 0.000000
1.000000 0.374359 0.000000
1.000000 0.374359 0.000000
1.000000 0.374359 0.000000
0.047847 0.434841 0.000000
0.081960 0.433880 0.000000
0.118028 0.432943 0.000000
0.155831 0.432022 0.000000
0.195134 0.431114 0.000000
0.235704 0.430218 0.000000
0.277313 0.429331 0.000000
0.319739 0.428452 0.000000
0.362764 0.427580 0.000000
0.406179 0.426715 0.000000
0.449777 0.425856 0.000000
0.493359 0.425002 0.000000
0.536729 0.424154 0.000000
0.579694 0.423309 0.000000
0.622067 0.422469 0.000000
0.663663 0.421633 0.000000
0.704302 0.420801 0.000000
0.743803 0.419972 0.000000
0.781993 0.419147 0.000000
0.818698 0.418325 0.000000
0.853748 0.417506 0.000000
0.886974 0.416689 0.000000
0.918209 0.415876 0.000000
0.947291 0.415065 0.000000
0.974056 0.414257 0.000000
0.998344 0.413451 0.000000
1.000000 0.412647 0.000000
1.000000 0.412299 0.000000
1.000000 0.412299 0.000000
1.000000 0.412299 0.000000
1.000000 0.412299 0.000000
1.000000 0.412299 0.000000
1.000000 0.412299 0.000000
0.046071 0.473249 0.000000
0.080020 0.472284 0.000000
0.115943 0.471342 0.000000
0.153618 0.470416 0.000000
0.192811 0.469504 0.000000
0.233287 0.468603 0.000000
0.274817 0.467712 0.000000
0.317178 0.466828 0.000000
0.360153 0.465952 0.000000
0.403532 0.465082 0.000000
0.447108 0.464219 0.000000
0.490681 0.463360 0.000000
0.534054 0.462506 0.000000
0.577037 0.461657 0.000000
0.619440 0.460812 0.000000
0.661078 0.459971 0.000000
0.701771 0.459134 0.000000
0.741340 0.458301 0.000000
0.779609 0.457470 0.000000
0.816406 0.456643 0.000000
0.851558 0.455818 0.000000
0.884899 0.454997 0.000000
0.916261 0.454178 0.000000
0.945481 0.453362 0.000000
0.972396 0.452548 0.000000
0.996845 0.451737 0.000000
1.000000 0.450928 0.000000
1.000000 0.450577 0.000000
1.000000 0.450577 0.000000
1.000000 0.450577 0.000000
1.000000 0.450577 0.000000
1.000000 0.450577 0.000000
1.000000 0.450577 0.000000
0.044306 0.511760 0.000000
0.078088 0.510794 0.000000
0.113865 0.509851 0.000000
0.151412 0.508924 0.000000
0.190493 0.508011 0.000000
0.230874 0.507110 0.000000
0.272325 0.506217 0.000000
0.314621 0.505332 0.000000
0.357545 0.504455 0.000000
0.400887 0.503584 0.000000
0.444440 0.502719 0.000000
0.488003 0.501859 0.000000
0.531380 0.501003 0.000000
0.574378 0.500153 0.000000
0.616810 0.499306 0.000000
0.658490 0.498464 0.000000
0.699237 0.497625 0.000000
0.738872 0.496789 0.000000
0.777220 0.495957 0.000000
0.814107 0.495127 0.000000
0.849361 0.494301 0.000000
0.882816 0.493477 0.000000
0.914304 0.492656 0.000000
0.943661 0.491838 0.000000
0.970725 0.491022 0.000000
0.995335 0.490208 0.000000
1.000000 0.489397 0.000000
1.000000 0.489045 0.000000
1.000000 0.489045 0.000000
1.000000 0.489045 0.000000
1.000000 0.489045 0.000000
1.000000 0.489045 0.000000
1.000000 0.489045 0.000000
0.042549 0.550226 0.000000
0.076165 0.549263 0.000000
0.111794 0.548322 0.000000
0.149213 0.547398 0.000000
0.188182 0.546488 0.000000
0.228467 0.545588 0.000000
0.269837 0.544698 0.000000
0.312067 0.543816 0.000000
0.354939 0.542940 0.000000
0.398243 0.542071 0.000000
0.441772 0.541208 0.000000
0.485325 0.540350 0.000000
0.528704 0.539497 0.000000
0.571718 0.538648 0.000000
0.614178 0.537803 0.000000
0.655899 0.536961 0.000000
0.696699 0.536124 0.000000
0.736400 0.535290 0.000000
0.774825 0.534459 0.000000
0.811801 0.533631 0.000000
0.847158 0.532805 0.000000
0.880726 0.531983 0.000000
0.912339 0.531163 0.000000
0.941833 0.530345 0.000000
0.969045 0.529530 0.000000
0.993814 0.528717 0.000000
1.000000 0.527907 0.000000
1.000000 0.527555 0.000000
1.000000 0.527555 0.000000
1.000000 0.527555 0.000000
1.000000 0.527555 0.000000
1.000000 0.527555 0.000000
1.000000 0.527555 0.000000
0.040803 0.588498 0.000000
0.074250 0.587542 0.000000
0.109732 0.586608 0.000000
0.147021 0.585690 0.000000
0.185877 0.584786 0.000000
0.226065 0.583892 0.000000
0.267353 0.583007 0.000000
0.309516 0.582131 0.000000
0.352336 0.581261 0.000000
0.395602 0.580397 0.000000
0.439106 0.579539 0.000000
0.482647 0.578686 0.000000
0.526028 0.577838 0.000000
0.569057 0.576994 0.000000
0.611544 0.576154 0.000000
0.653305 0.575317 0.000000
0.694158 0.574484 0.000000
0.733923 0.573655 0.000000
0.772425 0.572828 0.000000
0.809490 0.572005 0.000000
0.844947 0.571184 0.000000
0.878628 0.570365 0.000000
0.910365 0.569550 0.000000
0.939995 0.568736 0.000000
0.967354 0.567925 0.000000
0.992282 0.567116 0.000000
1.000000 0.566309 0.000000
1.000000 0.565960 0.000000
1.000000 0.565960 0.000000
1.000000 0.565960 0.000000
1.000000 0.565960 0.000000
1.000000 0.565960 0.000000
1.000000 0.565960 0.000000
0.039066 0.626430 0.000000
0.072345 0.625483 0.000000
0.107677 0.624559 0.000000
0.144835 0.623652 0.000000
0.183578 0.622757 0.000000
0.223668 0.621873 0.000000
0.264874 0.620997 0.000000
0.306969 0.620129 0.000000
0.349736 0.619268 0.000000
0.392962 0.618413 0.000000
0.436441 0.617564 0.000000
0.479969 0.616719 0.000000
0.523351 0.615879 0.000000
0.566394 0.615044 0.000000
0.608908 0.614212 0.000000
0.650708 0.613383 0.000000
0.691613 0.612558 0.000000
0.731442 0.611736 0.000000
0.770020 0.610918 0.000000
0.807173 0.610101 0.000000
0.842730 0.609288 0.000000
0.876523 0.608477 0.000000
0.908383 0.607669 0.000000
0.938148 0.606863 0.000000
0.965654 0.606059 0.000000
0.990740 0.605257 0.000000
1.000000 0.604457 0.000000
1.000000 0.604110 0.000000
1.000000 0.604110 0.000000
1.000000 0.604110 0.000000
1.000000 0.604110 0.000000
1.000000 0.604110 0.000000
1.000000 0.604110 0.000000
0.037339 0.663872 0.000000
0.070448 0.662940 0.000000
0.105631 0.662029 0.000000
0.142657 0.661135 0.000000
0.181286 0.660253 0.000000
0.221277 0.659382 0.000000
0.262399 0.658519 0.000000
0.304426 0.657663 0.000000
0.347139 0.656815 0.000000
0.390325 0.655972 0.000000
0.433777 0.655134 0.000000
0.477292 0.654302 0.000000
0.520674 0.653473 0.000000
0.563730 0.652649 0.000000
0.606270 0.651828 0.000000
0.648109 0.651011 0.000000
0.689064 0.650197 0.000000
0.728956 0.649386 0.000000
0.767609 0.648578 0.000000
0.804850 0.647773 0.000000
0.840506 0.646970 0.000000
0.874410 0.646170 0.000000
0.906393 0.645372 0.000000
0.936292 0.644576 0.000000
0.963944 0.643783 0.000000
0.989187 0.642991 0.000000
1.000000 0.642201 0.000000
1.000000 0.641859 0.000000
1.000000 0.641859 0.000000
1.000000 0.641859 0.000000
1.000000 0.641859 0.000000
1.000000 0.641859 0.000000
1.000000 0.641859 0.000000
0.035621 0.700677 0.000000
0.068559 0.699763 0.000000
0.103592 0.698870 0.000000
0.140486 0.697992 0.000000
0.178999 0.697127 0.000000
0.218891 0.696272 0.000000
0.259929 0.695425 0.000000
0.301887 0.694585 0.000000
0.344544 0.693752 0.000000
0.387689 0.692925 0.000000
0.431114 0.692102 0.000000
0.474616 0.691285 0.000000
0.517997 0.690471 0.000000
0.561065 0.689662 0.000000
0.603630 0.688856 0.000000
0.645506 0.688053 0.000000
0.686511 0.687253 0.000000
0.726466 0.686457 0.000000
0.765194 0.685663 0.000000
0.802521 0.684872 0.000000
0.838276 0.684083 0.000000
0.872289 0.683296 0.000000
0.904395 0.682512 0.000000
0.934427 0.681729 0.000000
0.962224 0.680949 0.000000
0.987624 0.680171 0.000000
1.000000 0.679394 0.000000
1.000000 0.679057 0.000000
1.000000 0.679057 0.000000
1.000000 0.679057 0.000000
1.000000 0.679057 0.000000
1.000000 0.679057 0.000000
1.000000 0.679057 0.000000
0.033914 0.736697 0.000000
0.066680 0.735804 0.000000
0.101561 0.734932 0.000000
0.138322 0.734075 0.000000
0.176719 0.733230 0.000000
0.216510 0.732394 0.000000
0.257463 0.731567 0.000000
0.299351 0.730747 0.000000
0.341953 0.729933 0.000000
0.385056 0.729124 0.000000
0.428452 0.728320 0.000000
0.471939 0.727521 0.000000
0.515319 0.726725 0.000000
0.558399 0.725934 0.000000
0.600988 0.725146 0.000000
0.642901 0.724361 0.000000
0.683955 0.723579 0.000000
0.723972 0.722800 0.000000
0.762773 0.722023 0.000000
0.800186 0.721249 0.000000
0.836038 0.720477 0.000000
0.870161 0.719707 0.000000
0.902388 0.718940 0.000000
0.932553 0.718174 0.000000
0.960494 0.717410 0.000000
0.986050 0.716648 0.000000
1.000000 0.715888 0.000000
1.000000 0.715558 0.000000
1.000000 0.715558 0.000000
1.000000 0.715558 0.000000
1.000000 0.715558 0.000000
1.000000 0.715558 0.000000
1.000000 0.715558 0.000000
0.032216 0.771784 0.000000
0.064810 0.770917 0.000000
0.099539 0.770069 0.000000
0.136165 0.769236 0.000000
0.174445 0.768414 0.000000
0.214135 0.767602 0.000000
0.255002 0.766798 0.000000
0.296819 0.766000 0.000000
0.339364 0.765208 0.000000
0.382425 0.764421 0.000000
0.425792 0.763639 0.000000
0.469264 0.762862 0.000000
0.512641 0.762088 0.000000
0.555731 0.761318 0.000000
0.598344 0.760551 0.000000
0.640293 0.759787 0.000000
0.681396 0.759025 0.000000
0.721473 0.758267 0.000000
0.760347 0.757511 0.000000
0.797845 0.756757 0.000000
0.833794 0.756005 0.000000
0.868026 0.755256 0.000000
0.900373 0.754508 0.000000
0.930670 0.753762 0.000000
0.958755 0.753018 0.000000
0.984465 0.752276 0.000000
1.000000 0.751535 0.000000
1.000000 0.751214 0.000000
1.000000 0.751214 0.000000
1.000000 0.751214 0.000000
1.000000 0.751214 0.000000
1.000000 0.751214 0.000000
1.000000 0.751214 0.000000
0.030528 0.805790 0.000000
0.062949 0.804952 0.000000
0.097524 0.804132 0.000000
0.134016 0.803327 0.000000
0.172177 0.802532 0.000000
0.211766 0.801747 0.000000
0.252546 0.800968 0.000000
0.294291 0.800197 0.000000
0.336779 0.799430 0.000000
0.379796 0.798669 0.000000
0.423134 0.797913 0.000000
0.466589 0.797160 0.000000
0.509963 0.796411 0.000000
0.553063 0.795665 0.000000
0.595698 0.794922 0.000000
0.637683 0.794183 0.000000
0.678833 0.793445 0.000000
0.718970 0.792711 0.000000
0.757917 0.791978 0.000000
0.795498 0.791248 0.000000
0.831544 0.790520 0.000000
0.865883 0.789793 0.000000
0.898350 0.789069 0.000000
0.928779 0.788346 0.000000
0.957006 0.787625 0.000000
0.982871 0.786905 0.000000
1.000000 0.786187 0.000000
1.000000 0.785875 0.000000
1.000000 0.785875 0.000000
1.000000 0.785875 0.000000
1.000000 0.785875 0.000000
1.000000 0.785875 0.000000
1.000000 0.785875 0.000000
0.028850 0.838567 0.000000
0.061096 0.837761 0.000000
0.095518 0.836974 0.000000
0.131874 0.836199 0.000000
0.169916 0.835435 0.000000
0.209402 0.834680 0.000000
0.250095 0.833931 0.000000
0.291766 0.833189 0.000000
0.334196 0.832452 0.000000
0.377169 0.831720 0.000000
0.420476 0.830991 0.000000
0.463914 0.830267 0.000000
0.507285 0.829546 0.000000
0.550394 0.828828 0.000000
0.593051 0.828113 0.000000
0.635069 0.827401 0.000000
0.676267 0.826691 0.000000
0.716463 0.825983 0.000000
0.755481 0.825278 0.000000
0.793146 0.824574 0.000000
0.829287 0.823872 0.000000
0.863734 0.823172 0.000000
0.896319 0.822474 0.000000
0.926878 0.821777 0.000000
0.955247 0.821082 0.000000
0.981265 0.820388 0.000000
1.000000 0.819695 0.000000
1.000000 0.819395 0.000000
1.000000 0.819395 0.000000
1.000000 0.819395 0.000000
1.000000 0.819395 0.000000
1.000000 0.819395 0.000000
1.000000 0.819395 0.000000
0.027182 0.869968 0.000000
0.059253 0.869198 0.000000
0.093520 0.868446 0.000000
0.129739 0.867706 0.000000
0.167661 0.866976 0.000000
0.207043 0.866254 0.000000
0.247648 0.865539 0.000000
0.289246 0.864829 0.000000
0.331617 0.864125 0.000000
0.374545 0.863424 0.000000
0.417820 0.862728 0.000000
0.461241 0.862035 0.000000
0.504606 0.861346 0.000000
0.547723 0.860659 0.000000
0.590401 0.859975 0.000000
0.632454 0.859293 0.000000
0.673697 0.858613 0.000000
0.713952 0.857936 0.000000
0.753040 0.857261 0.000000
0.790788 0.856587 0.000000
0.827023 0.855915 0.000000
0.861576 0.855244 0.000000
0.894280 0.854576 0.000000
0.924969 0.853908 0.000000
0.953479 0.853242 0.000000
0.979650 0.852577 0.000000
1.000000 0.851913 0.000000
