luts/fantastic-mr-fox.cube
# CineLUT — Fantastic Mr. Fox (2009)
# Gerado por generate_luts.py
LUT_3D_SIZE 33
0.079253 0.008178 0.000000
0.118271 0.007826 0.000000
0.157587 0.007486 0.000000
0.197267 0.007153 0.000000
0.237288 0.006827 0.000000
0.277589 0.006506 0.000000
0.318092 0.006189 0.000000
0.358713 0.005876 0.000000
0.399361 0.005566 0.000000
0.439944 0.005259 0.000000
0.480370 0.004955 0.000000
0.520547 0.004654 0.000000
0.560385 0.004354 0.000000
0.599792 0.004057 0.000000
0.638680 0.003762 0.000000
0.676960 0.003469 0.000000
0.714544 0.003177 0.000000
0.751348 0.002887 0.000000
0.787285 0.002599 0.000000
0.822273 0.002312 0.000000
0.856228 0.002026 0.000000
0.889069 0.001742 0.000000
0.920715 0.001459 0.000000
0.951086 0.001177 0.000000
0.980103 0.000896 0.000000
1.000000 0.000617 0.000000
1.000000 0.000377 0.000000
1.000000 0.000377 0.000000
1.000000 0.000377 0.000000
1.000000 0.000377 0.000000
1.000000 0.000377 0.000000
1.000000 0.000377 0.000000
1.000000 0.000377 0.000000
0.078350 0.031718 0.000000
0.117329 0.031352 0.000000
0.156611 0.030998 0.000000
0.196262 0.030652 0.000000
0.236257 0.030312 0.000000
0.276537 0.029978 0.000000
0.317024 0.029649 0.000000
0.357631 0.029323 0.000000
0.398269 0.029001 0.000000
0.438845 0.028682 0.000000
0.479268 0.028365 0.000000
0.519446 0.028052 0.000000
0.559287 0.027740 0.000000
0.598700 0.027431 0.000000
0.637597 0.027124 0.000000
0.675889 0.026818 0.000000
0.713489 0.026515 0.000000
0.750311 0.026213 0.000000
0.786269 0.025913 0.000000
0.821281 0.025614 0.000000
0.855263 0.025317 0.000000
0.888133 0.025021 0.000000
0.919811 0.024726 0.000000
0.950217 0.024433 0.000000
0.979272 0.024140 0.000000
1.000000 0.023849 0.000000
1.000000 0.023600 0.000000
1.000000 0.023600 0.000000
1.000000 0.023600 0.000000
1.000000 0.023600 0.000000
1.000000 0.023600 0.000000
1.000000 0.023600 0.000000
1.000000 0.023600 0.000000
0.077254 0.061561 0.000000
0.116185 0.061179 0.000000
0.155425 0.060809 0.000000
0.195040 0.060448 0.000000
0.235005 0.060094 0.000000
0.275259 0.059745 0.000000
0.315725 0.059401 0.000000
0.356315 0.059061 0.000000
0.396941 0.058724 0.000000
0.437509 0.058391 0.000000
0.477928 0.058061 0.000000
0.518105 0.057733 0.000000
0.557950 0.057408 0.000000
0.597371 0.057085 0.000000
0.636279 0.056764 0.000000
0.674586 0.056445 0.000000
0.712204 0.056128 0.000000
0.749048 0.055813 0.000000
0.785032 0.055499 0.000000
0.820073 0.055187 0.000000
0.854087 0.054876 0.000000
0.886994 0.054567 0.000000
0.918711 0.054259 0.000000
0.949159 0.053953 0.000000
0.978260 0.053647 0.000000
1.000000 0.053343 0.000000
1.000000 0.053082 0.000000
1.000000 0.053082 0.000000
1.000000 0.053082 0.000000
1.000000 0.053082 0.000000
1.000000 0.053082 0.000000
1.000000 0.053082 0.000000
1.000000 0.053082 0.000000
0.076169 0.092324 0.000000
0.115052 0.091927 0.000000
0.154251 0.091543 0.000000
0.193831 0.091168 0.000000
0.233765 0.090800 0.000000
0.273994 0.090438 0.000000
0.314438 0.090081 0.000000
0.355012 0.089728 0.000000
0.395626 0.089378 0.000000
0.436186 0.089032 0.000000
0.476601 0.088689 0.000000
0.516778 0.088349 0.000000
0.556626 0.088011 0.000000
0.596054 0.087675 0.000000
0.634973 0.087342 0.000000
0.673295 0.087011 0.000000
0.710931 0.086681 0.000000
0.747797 0.086354 0.000000
0.783806 0.086028 0.000000
0.818876 0.085703 0.000000
0.852922 0.085380 0.000000
0.885863 0.085059 0.000000
0.917619 0.084739 0.000000
0.948110 0.084420 0.000000
0.977256 0.084103 0.000000
1.000000 0.083787 0.000000
1.000000 0.083515 0.000000
1.000000 0.083515 0.000000
1.000000 0.083515 0.000000
1.000000 0.083515 0.000000
1.000000 0.083515 0.000000
1.000000 0.083515 0.000000
1.000000 0.083515 0.000000
0.075093 0.123984 0.000000
0.113928 0.123575 0.000000
0.153086 0.123178 0.000000
0.192630 0.122790 0.000000
0.232534 0.122410 0.000000
0.272738 0.122036 0.000000
0.313161 0.121666 0.000000
0.353719 0.121301 0.000000
0.394319 0.120940 0.000000
0.434871 0.120582 0.000000
0.475282 0.120227 0.000000
0.515459 0.119875 0.000000
0.555310 0.119526 0.000000
0.594746 0.119179 0.000000
0.633676 0.118834 0.000000
0.672011 0.118491 0.000000
0.709666 0.118151 0.000000
0.746553 0.117812 0.000000
0.782587 0.117475 0.000000
0.817685 0.117139 0.000000
0.851763 0.116805 0.000000
0.884739 0.116473 0.000000
0.916534 0.116142 0.000000
0.947066 0.115812 0.000000
0.976256 0.115484 0.000000
1.000000 0.115156 0.000000
1.000000 0.114876 0.000000
1.000000 0.114876 0.000000
1.000000 0.114876 0.000000
1.000000 0.114876 0.000000
1.000000 0.114876 0.000000
1.000000 0.114876 0.000000
1.000000 0.114876 0.000000
0.074023 0.156482 0.000000
0.112811 0.156061 0.000000
0.151928 0.155652 0.000000
0.191436 0.155253 0.000000
0.231310 0.154862 0.000000
0.271488 0.154476 0.000000
0.311890 0.154096 0.000000
0.352431 0.153720 0.000000
0.393020 0.153348 0.000000
0.433563 0.152979 0.000000
0.473969 0.152614 0.000000
0.514146 0.152252 0.000000
0.554000 0.151892 0.000000
0.593443 0.151534 0.000000
0.632384 0.151179 0.000000
0.670734 0.150826 0.000000
0.708406 0.150475 0.000000
0.745314 0.150126 0.000000
0.781373 0.149779 0.000000
0.816499 0.149433 0.000000
0.850608 0.149089 0.000000
0.883619 0.148747 0.000000
0.915452 0.148406 0.000000
0.946025 0.148066 0.000000
0.975260 0.147727 0.000000
1.000000 0.147390 0.000000
1.000000 0.147101 0.000000
1.000000 0.147101 0.000000
1.000000 0.147101 0.000000
1.000000 0.147101 0.000000
1.000000 0.147101 0.000000
1.000000 0.147101 0.000000
1.000000 0.147101 0.000000
0.072959 0.189743 0.000000
0.111699 0.189311 0.000000
0.150775 0.188892 0.000000
0.190248 0.188483 0.000000
0.230092 0.188081 0.000000
0.270244 0.187686 0.000000
0.310625 0.187296 0.000000
0.351149 0.186910 0.000000
0.391725 0.186528 0.000000
0.432260 0.186150 0.000000
0.472662 0.185775 0.000000
0.512838 0.185403 0.000000
0.552696 0.185034 0.000000
0.592145 0.184668 0.000000
0.631096 0.184303 0.000000
0.669460 0.183941 0.000000
0.707150 0.183581 0.000000
0.744079 0.183222 0.000000
0.780163 0.182866 0.000000
0.815316 0.182511 0.000000
0.849457 0.182158 0.000000
0.882503 0.181807 0.000000
0.914373 0.181456 0.000000
0.944987 0.181108 0.000000
0.974266 0.180760 0.000000
1.000000 0.180414 0.000000
1.000000 0.180117 0.000000
1.000000 0.180117 0.000000
1.000000 0.180117 0.000000
1.000000 0.180117 0.000000
1.000000 0.180117 0.000000
1.000000 0.180117 0.000000
1.000000 0.180117 0.000000
0.071899 0.223688 0.000000
0.110593 0.223246 0.000000
0.149627 0.222818 0.000000
0.189065 0.222400 0.000000
0.228878 0.221989 0.000000
0.269004 0.221585 0.000000
0.309365 0.221186 0.000000
0.349872 0.220792 0.000000
0.390435 0.220401 0.000000
0.430962 0.220015 0.000000
0.471359 0.219632 0.000000
0.511534 0.219251 0.000000
0.551395 0.218874 0.000000
0.590851 0.218499 0.000000
0.629812 0.218126 0.000000
0.668190 0.217756 0.000000
0.705898 0.217387 0.000000
0.742848 0.217021 0.000000
0.778955 0.216656 0.000000
0.814136 0.216293 0.000000
0.848308 0.215932 0.000000
0.881388 0.215573 0.000000
0.913295 0.215214 0.000000
0.943950 0.214858 0.000000
0.973273 0.214502 0.000000
1.000000 0.214148 0.000000
1.000000 0.213844 0.000000
1.000000 0.213844 0.000000
1.000000 0.213844 0.000000
1.000000 0.213844 0.000000
1.000000 0.213844 0.000000
1.000000 0.213844 0.000000
1.000000 0.213844 0.000000
0.070844 0.258235 0.000000
0.109490 0.257785 0.000000
0.148484 0.257348 0.000000
0.187886 0.256922 0.000000
0.227668 0.256503 0.000000
0.267769 0.256091 0.000000
0.308108 0.255685 0.000000
0.348599 0.255283 0.000000
0.389149 0.254885 0.000000
0.429667 0.254491 0.000000
0.470060 0.254101 0.000000
0.510234 0.253713 0.000000
0.550098 0.253328 0.000000
0.589560 0.252946 0.000000
0.628532 0.252566 0.000000
0.666924 0.252188 0.000000
0.704648 0.251813 0.000000
0.741619 0.251439 0.000000
0.777751 0.251067 0.000000
0.812959 0.250697 0.000000
0.847161 0.250329 0.000000
0.880275 0.249962 0.000000
0.912220 0.249597 0.000000
0.942915 0.249233 0.000000
0.972282 0.248871 0.000000
1.000000 0.248510 0.000000
1.000000 0.248200 0.000000
1.000000 0.248200 0.000000
1.000000 0.248200 0.000000
1.000000 0.248200 0.000000
1.000000 0.248200 0.000000
1.000000 0.248200 0.000000
1.000000 0.248200 0.000000
0.069793 0.293300 0.000000
0.108392 0.292842 0.000000
0.147344 0.292399 0.000000
0.186710 0.291966 0.000000
0.226463 0.291540 0.000000
0.266537 0.291122 0.000000
0.306855 0.290709 0.000000
0.347329 0.290300 0.000000
0.387867 0.289896 0.000000
0.428376 0.289496 0.000000
0.468764 0.289099 0.000000
0.508937 0.288705 0.000000
0.548803 0.288313 0.000000
0.588272 0.287925 0.000000
0.627254 0.287539 0.000000
0.665659 0.287155 0.000000
0.703401 0.286773 0.000000
0.740392 0.286393 0.000000
0.776548 0.286015 0.000000
0.811783 0.285639 0.000000
0.846016 0.285265 0.000000
0.879164 0.284892 0.000000
0.911146 0.284521 0.000000
0.941882 0.284151 0.000000
0.971292 0.283782 0.000000
0.999298 0.283415 0.000000
1.000000 0.283100 0.000000
1.000000 0.283100 0.000000
1.000000 0.283100 0.000000
1.000000 0.283100 0.000000
1.000000 0.283100 0.000000
1.000000 0.283100 0.000000
1.000000 0.283100 0.000000
0.068746 0.328799 0.000000
0.107297 0.328335 0.000000
0.146208 0.327886 0.000000
0.185539 0.327447 0.000000
0.225260 0.327016 0.000000
0.265309 0.326592 0.000000
0.305606 0.326173 0.000000
0.346062 0.325759 0.000000
0.386587 0.325350 0.000000
0.427088 0.324944 0.000000
0.467470 0.324542 0.000000
0.507642 0.324142 0.000000
0.547512 0.323746 0.000000
0.586987 0.323352 0.000000
0.625979 0.322961 0.000000
0.664397 0.322571 0.000000
0.702156 0.322184 0.000000
0.739167 0.321799 0.000000
0.775347 0.321416 0.000000
0.810609 0.321035 0.000000
0.844873 0.320656 0.000000
0.878054 0.320278 0.000000
0.910073 0.319901 0.000000
0.940849 0.319526 0.000000
0.970302 0.319153 0.000000
0.998355 0.318780 0.000000
1.000000 0.318461 0.000000
1.000000 0.318461 0.000000
1.000000 0.318461 0.000000
1.000000 0.318461 0.000000
1.000000 0.318461 0.000000
1.000000 0.318461 0.000000
1.000000 0.318461 0.000000
0.067702 0.364648 0.000000
0.106205 0.364179 0.000000
0.145075 0.363725 0.000000
0.184370 0.363282 0.000000
0.224061 0.362846 0.000000
0.264084 0.362417 0.000000
0.304359 0.361994 0.000000
0.344799 0.361576 0.000000
0.385311 0.361162 0.000000
0.425802 0.360752 0.000000
0.466180 0.360345 0.000000
0.506351 0.359941 0.000000
0.546222 0.359541 0.000000
0.585704 0.359143 0.000000
0.624705 0.358747 0.000000
0.663137 0.358353 0.000000
0.700912 0.357962 0.000000
0.737944 0.357573 0.000000
0.774147 0.357186 0.000000
0.809437 0.356800 0.000000
0.843730 0.356416 0.000000
0.876945 0.356034 0.000000
0.909000 0.355654 0.000000
0.939816 0.355275 0.000000
0.969313 0.354897 0.000000
0.997412 0.354520 0.000000
1.000000 0.354197 0.000000
1.000000 0.354197 0.000000
1.000000 0.354197 0.000000
1.000000 0.354197 0.000000
1.000000 0.354197 0.000000
1.000000 0.354197 0.000000
1.000000 0.354197 0.000000
0.066661 0.400762 0.000000
0.105117 0.400290 0.000000
0.143945 0.399832 0.000000
0.183205 0.399385 0.000000
0.222865 0.398946 0.000000
0.262862 0.398514 0.000000
0.303116 0.398087 0.000000
0.343538 0.397666 0.000000
0.384037 0.397248 0.000000
0.424519 0.396835 0.000000
0.464892 0.396425 0.000000
0.505061 0.396018 0.000000
0.544935 0.395614 0.000000
0.584423 0.395212 0.000000
0.623434 0.394813 0.000000
0.661879 0.394417 0.000000
0.699671 0.394022 0.000000
0.736722 0.393630 0.000000
0.772949 0.393239 0.000000
0.808265 0.392850 0.000000
0.842589 0.392463 0.000000
0.875837 0.392078 0.000000
0.907929 0.391694 0.000000
0.938784 0.391311 0.000000
0.968323 0.390931 0.000000
0.996469 0.390551 0.000000
1.000000 0.390225 0.000000
1.000000 0.390225 0.000000
1.000000 0.390225 0.000000
1.000000 0.390225 0.000000
1.000000 0.390225 0.000000
1.000000 0.390225 0.000000
1.000000 0.390225 0.000000
0.065623 0.437057 0.000000
0.104031 0.436582 0.000000
0.142819 0.436122 0.000000
0.182042 0.435673 0.000000
0.221671 0.435231 0.000000
0.261642 0.434797 0.000000
0.301875 0.434368 0.000000
0.342280 0.433944 0.000000
0.382765 0.433524 0.000000
0.423238 0.433108 0.000000
0.463606 0.432696 0.000000
0.503774 0.432286 0.000000
0.543650 0.431880 0.000000
0.583143 0.431476 0.000000
0.622164 0.431075 0.000000
0.660622 0.430676 0.000000
0.698430 0.430279 0.000000
0.735502 0.429885 0.000000
0.771751 0.429492 0.000000
0.807095 0.429101 0.000000
0.841448 0.428711 0.000000
0.874729 0.428324 0.000000
0.906857 0.427937 0.000000
0.937752 0.427553 0.000000
0.967334 0.427169 0.000000
0.995525 0.426787 0.000000
1.000000 0.426459 0.000000
1.000000 0.426459 0.000000
1.000000 0.426459 0.000000
1.000000 0.426459 0.000000
1.000000 0.426459 0.000000
1.000000 0.426459 0.000000
1.000000 0.426459 0.000000
0.064588 0.473449 0.000000
0.102949 0.472973 0.000000
0.141695 0.472512 0.000000
0.180882 0.472061 0.000000
0.220481 0.471618 0.000000
0.260426 0.471182 0.000000
0.300636 0.470752 0.000000
0.341023 0.470326 0.000000
0.381496 0.469905 0.000000
0.421960 0.469488 0.000000
0.462322 0.469074 0.000000
0.502488 0.468664 0.000000
0.542367 0.468256 0.000000
0.581866 0.467851 0.000000
0.620896 0.467448 0.000000
0.659367 0.467048 0.000000
0.697191 0.466650 0.000000
0.734283 0.466254 0.000000
0.770555 0.465860 0.000000
0.805925 0.465467 0.000000
0.840308 0.465076 0.000000
0.873622 0.464687 0.000000
0.905786 0.464300 0.000000
0.936721 0.463914 0.000000
0.966345 0.463529 0.000000
0.994582 0.463146 0.000000
1.000000 0.462817 0.000000
1.000000 0.462817 0.000000
1.000000 0.462817 0.000000
1.000000 0.462817 0.000000
1.000000 0.462817 0.000000
1.000000 0.462817 0.000000
1.000000 0.462817 0.000000
0.063556 0.509854 0.000000
0.101869 0.509378 0.000000
0.140573 0.508916 0.000000
0.179725 0.508465 0.000000
0.219292 0.508022 0.000000
0.259211 0.507586 0.000000
0.299400 0.507155 0.000000
0.339770 0.506729 0.000000
0.380229 0.506308 0.000000
0.420683 0.505891 0.000000
0.461040 0.505476 0.000000
0.501204 0.505066 0.000000
0.541085 0.504657 0.000000
0.580590 0.504252 0.000000
0.619629 0.503849 0.000000
0.658112 0.503448 0.000000
0.695953 0.503050 0.000000
0.733064 0.502653 0.000000
0.769360 0.502259 0.000000
0.804756 0.501866 0.000000
0.839168 0.501475 0.000000
0.872515 0.501085 0.000000
0.904716 0.500697 0.000000
0.935689 0.500311 0.000000
0.965356 0.499926 0.000000
0.993638 0.499542 0.000000
1.000000 0.499212 0.000000
1.000000 0.499212 0.000000
1.000000 0.499212 0.000000
1.000000 0.499212 0.000000
1.000000 0.499212 0.000000
1.000000 0.499212 0.000000
1.000000 0.499212 0.000000
0.062527 0.546189 0.000000
0.100792 0.545713 0.000000
0.139455 0.545252 0.000000
0.178570 0.544802 0.000000
0.218106 0.544360 0.000000
0.257999 0.543924 0.000000
0.298166 0.543494 0.000000
0.338518 0.543069 0.000000
0.378964 0.542649 0.000000
0.419409 0.542232 0.000000
0.459759 0.541818 0.000000
0.499922 0.541408 0.000000
0.539805 0.541001 0.000000
0.579315 0.540596 0.000000
0.618363 0.540193 0.000000
0.656859 0.539793 0.000000
0.694716 0.539395 0.000000
0.731847 0.538999 0.000000
0.768165 0.538605 0.000000
0.803587 0.538213 0.000000
0.838029 0.537822 0.000000
0.871409 0.537433 0.000000
0.903645 0.537046 0.000000
0.934657 0.536660 0.000000
0.964366 0.536275 0.000000
0.992694 0.535892 0.000000
1.000000 0.535563 0.000000
1.000000 0.535563 0.000000
1.000000 0.535563 0.000000
1.000000 0.535563 0.000000
1.000000 0.535563 0.000000
1.000000 0.535563 0.000000
1.000000 0.535563 0.000000
0.061500 0.582369 0.000000
0.099717 0.581896 0.000000
0.138338 0.581437 0.000000
0.177417 0.580988 0.000000
0.216923 0.580548 0.000000
0.256789 0.580114 0.000000
0.296934 0.579686 0.000000
0.337268 0.579262 0.000000
0.377700 0.578843 0.000000
0.418136 0.578428 0.000000
0.458481 0.578016 0.000000
0.498642 0.577608 0.000000
0.538526 0.577202 0.000000
0.578042 0.576799 0.000000
0.617099 0.576398 0.000000
0.655607 0.575999 0.000000
0.693480 0.575603 0.000000
0.730630 0.575208 0.000000
0.766971 0.574816 0.000000
0.802419 0.574425 0.000000
0.836890 0.574036 0.000000
0.870302 0.573648 0.000000
0.902574 0.573262 0.000000
0.933626 0.572877 0.000000
0.963377 0.572494 0.000000
0.991749 0.572112 0.000000
1.000000 0.571784 0.000000
1.000000 0.571784 0.000000
1.000000 0.571784 0.000000
1.000000 0.571784 0.000000
1.000000 0.571784 0.000000
1.000000 0.571784 0.000000
1.000000 0.571784 0.000000
0.060476 0.618312 0.000000
0.098645 0.617842 0.000000
0.137225 0.617386 0.000000
0.176267 0.616940 0.000000
0.215741 0.616502 0.000000
0.255581 0.616071 0.000000
0.295704 0.615646 0.000000
0.336020 0.615226 0.000000
0.376439 0.614809 0.000000
0.416865 0.614397 0.000000
0.457204 0.613988 0.000000
0.497363 0.613581 0.000000
0.537248 0.613178 0.000000
0.576769 0.612777 0.000000
0.615835 0.612379 0.000000
0.654357 0.611983 0.000000
0.692245 0.611589 0.000000
0.729414 0.611197 0.000000
0.765778 0.610807 0.000000
0.801251 0.610418 0.000000
0.835752 0.610031 0.000000
0.869196 0.609646 0.000000
0.901504 0.609262 0.000000
0.932594 0.608880 0.000000
0.962386 0.608499 0.000000
0.990804 0.608119 0.000000
1.000000 0.607793 0.000000
1.000000 0.607793 0.000000
1.000000 0.607793 0.000000
1.000000 0.607793 0.000000
1.000000 0.607793 0.000000
1.000000 0.607793 0.000000
1.000000 0.607793 0.000000
0.059455 0.653935 0.000000
0.097576 0.653468 0.000000
0.136113 0.653016 0.000000
0.175119 0.652575 0.000000
0.214562 0.652141 0.000000
0.254375 0.651714 0.000000
0.294475 0.651293 0.000000
0.334774 0.650876 0.000000
0.375179 0.650463 0.000000
0.415595 0.650054 0.000000
0.455928 0.649649 0.000000
0.496085 0.649246 0.000000
0.535972 0.648846 0.000000
0.575498 0.648449 0.000000
0.614573 0.648054 0.000000
0.653106 0.647661 0.000000
0.691011 0.647271 0.000000
0.728199 0.646882 0.000000
0.764585 0.646495 0.000000
0.800084 0.646110 0.000000
0.834613 0.645726 0.000000
0.868090 0.645345 0.000000
0.900433 0.644964 0.000000
0.931561 0.644585 0.000000
0.961396 0.644207 0.000000
0.989858 0.643831 0.000000
1.000000 0.643507 0.000000
1.000000 0.643507 0.000000
1.000000 0.643507 0.000000
1.000000 0.643507 0.000000
1.000000 0.643507 0.000000
1.000000 0.643507 0.000000
1.000000 0.643507 0.000000
0.058436 0.689154 0.000000
0.096508 0.688693 0.000000
0.135004 0.688246 0.000000
0.173974 0.687810 0.000000
0.213385 0.687381 0.000000
0.253171 0.686959 0.000000
0.293249 0.686542 0.000000
0.333530 0.686130 0.000000
0.373921 0.685722 0.000000
0.414327 0.685318 0.000000
0.454654 0.684917 0.000000
0.494808 0.684519 0.000000
0.534697 0.684123 0.000000
0.574229 0.683731 0.000000
0.613312 0.683340 0.000000
0.651857 0.682952 0.000000
0.689777 0.682566 0.000000
0.726984 0.682181 0.000000
0.763392 0.681799 0.000000
0.798917 0.681418 0.000000
0.833475 0.681038 0.000000
0.866984 0.680660 0.000000
0.899362 0.680284 0.000000
0.930529 0.679909 0.000000
0.960405 0.679535 0.000000
0.988912 0.679163 0.000000
1.000000 0.678843 0.000000
1.000000 0.678843 0.000000
1.000000 0.678843 0.000000
1.000000 0.678843 0.000000
1.000000 0.678843 0.000000
1.000000 0.678843 0.000000
1.000000 0.678843 0.000000
0.057419 0.723888 0.000000
0.095443 0.723433 0.000000
0.133897 0.722993 0.000000
0.172830 0.722562 0.000000
0.212210 0.722140 0.000000
0.251969 0.721724 0.000000
0.292025 0.721313 0.000000
0.332288 0.720906 0.000000
0.372664 0.720504 0.000000
0.413060 0.720105 0.000000
0.453381 0.719710 0.000000
0.493533 0.719317 0.000000
0.533423 0.718927 0.000000
0.572960 0.718540 0.000000
0.612051 0.718155 0.000000
0.650609 0.717772 0.000000
0.688544 0.717391 0.000000
0.725769 0.717012 0.000000
0.762200 0.716634 0.000000
0.797750 0.716258 0.000000
0.832337 0.715884 0.000000
0.865878 0.715511 0.000000
0.898291 0.715140 0.000000
0.929496 0.714770 0.000000
0.959413 0.714402 0.000000
0.987965 0.714034 0.000000
1.000000 0.713719 0.000000
1.000000 0.713719 0.000000
1.000000 0.713719 0.000000
1.000000 0.713719 0.000000
1.000000 0.713719 0.000000
1.000000 0.713719 0.000000
1.000000 0.713719 0.000000
0.056404 0.758054 0.000000
0.094380 0.757607 0.000000
0.132792 0.757174 0.000000
0.171688 0.756750 0.000000
0.211037 0.756335 0.000000
0.250769 0.755926 0.000000
0.290802 0.755521 0.000000
0.331047 0.755122 0.000000
0.371409 0.754726 0.000000
0.411795 0.754334 0.000000
0.452110 0.753945 0.000000
0.492259 0.753559 0.000000
0.532151 0.753175 0.000000
0.571692 0.752794 0.000000
0.610792 0.752415 0.000000
0.649361 0.752039 0.000000
0.687311 0.751664 0.000000
0.724556 0.751291 0.000000
0.761008 0.750920 0.000000
0.796584 0.750550 0.000000
0.831199 0.750182 0.000000
0.864771 0.749815 0.000000
0.897220 0.749450 0.000000
0.928463 0.749086 0.000000
0.958421 0.748723 0.000000
0.987017 0.748362 0.000000
1.000000 0.748051 0.000000
1.000000 0.748051 0.000000
1.000000 0.748051 0.000000
1.000000 0.748051 0.000000
1.000000 0.748051 0.000000
1.000000 0.748051 0.000000
1.000000 0.748051 0.000000
0.055392 0.791570 0.000000
0.093320 0.791132 0.000000
0.131689 0.790707 0.000000
0.170549 0.790292 0.000000
0.209865 0.789884 0.000000
0.249571 0.789483 0.000000
0.289581 0.789087 0.000000
0.329808 0.788695 0.000000
0.370156 0.788307 0.000000
0.410531 0.787922 0.000000
0.450840 0.787541 0.000000
0.490987 0.787162 0.000000
0.530879 0.786786 0.000000
0.570425 0.786412 0.000000
0.609533 0.786040 0.000000
0.648114 0.785671 0.000000
0.686079 0.785303 0.000000
0.723342 0.784937 0.000000
0.759816 0.784573 0.000000
0.795417 0.784210 0.000000
0.830061 0.783849 0.000000
0.863665 0.783489 0.000000
0.896148 0.783131 0.000000
0.927429 0.782774 0.000000
0.957429 0.782418 0.000000
0.986069 0.782063 0.000000
1.000000 0.781758 0.000000
1.000000 0.781758 0.000000
1.000000 0.781758 0.000000
1.000000 0.781758 0.000000
1.000000 0.781758 0.000000
1.000000 0.781758 0.000000
1.000000 0.781758 0.000000
0.054382 0.824354 0.000000
0.092261 0.823926 0.000000
0.130588 0.823511 0.000000
0.169411 0.823105 0.000000
0.208696 0.822706 0.000000
0.248374 0.822314 0.000000
0.288362 0.821927 0.000000
0.328570 0.821543 0.000000
0.368904 0.821164 0.000000
0.409269 0.820788 0.000000
0.449571 0.820415 0.000000
0.489715 0.820044 0.000000
0.529608 0.819677 0.000000
0.569159 0.819311 0.000000
0.608275 0.818948 0.000000
0.646867 0.818586 0.000000
0.684848 0.818227 0.000000
0.722129 0.817869 0.000000
0.758625 0.817512 0.000000
0.794251 0.817158 0.000000
0.828923 0.816804 0.000000
0.862558 0.816452 0.000000
0.895076 0.816102 0.000000
0.926395 0.815752 0.000000
0.956436 0.815404 0.000000
0.985120 0.815057 0.000000
1.000000 0.814759 0.000000
1.000000 0.814759 0.000000
1.000000 0.814759 0.000000
1.000000 0.814759 0.000000
1.000000 0.814759 0.000000
1.000000 0.814759 0.000000
1.000000 0.814759 0.000000
0.053375 0.856325 0.000000
0.091205 0.855908 0.000000
0.129489 0.855503 0.000000
0.168276 0.855108 0.000000
0.207528 0.854720 0.000000
0.247179 0.854337 0.000000
0.287144 0.853959 0.000000
0.327334 0.853586 0.000000
0.367653 0.853216 0.000000
0.408008 0.852850 0.000000
0.448303 0.852486 0.000000
0.488444 0.852125 0.000000
0.528339 0.851766 0.000000
0.567893 0.851410 0.000000
0.607017 0.851056 0.000000
0.645621 0.850703 0.000000
0.683617 0.850353 0.000000
0.720916 0.850004 0.000000
0.757434 0.849656 0.000000
0.793085 0.849310 0.000000
0.827785 0.848966 0.000000
0.861452 0.848623 0.000000
0.894004 0.848281 0.000000
0.925360 0.847940 0.000000
0.955442 0.847600 0.000000
0.984170 0.847262 0.000000
1.000000 0.846971 0.000000
1.000000 0.846971 0.000000
1.000000 0.846971 0.000000
1.000000 0.846971 0.000000
1.000000 0.846971 0.000000
1.000000 0.846971 0.000000
1.000000 0.846971 0.000000
0.052369 0.887401 0.000000
0.090151 0.886996 0.000000
0.128393 0.886603 0.000000
0.167142 0.886219 0.000000
0.206362 0.885842 0.000000
0.245986 0.885471 0.000000
0.285928 0.885104 0.000000
0.326099 0.884741 0.000000
0.366404 0.884382 0.000000
0.406748 0.884026 0.000000
0.447037 0.883672 0.000000
0.487175 0.883322 0.000000
0.527070 0.882973 0.000000
0.566629 0.882627 0.000000
0.605761 0.882283 0.000000
0.644376 0.881940 0.000000
0.682386 0.881600 0.000000
0.719704 0.881261 0.000000
0.756243 0.880923 0.000000
0.791918 0.880587 0.000000
0.826647 0.880252 0.000000
0.860345 0.879918 0.000000
0.892931 0.879586 0.000000
0.924325 0.879255 0.000000
0.954448 0.878925 0.000000
0.983219 0.878596 0.000000
1.000000 0.878313 0.000000
