luts/fantastic-mr-fox.cube
# CineLUT — Fantastic Mr. Fox (2009)
# Gerado por generate_luts.py
LUT_3D_SIZE 5
0.079253 0.008178 0.000000
0.399361 0.005566 0.000000
0.714544 0.003177 0.000000
0.980103 0.000896 0.000000
1.000000 0.000377 0.000000
0.070844 0.258235 0.000000
0.389149 0.254885 0.000000
0.704648 0.251813 0.000000
0.972282 0.248871 0.000000
1.000000 0.248200 0.000000
0.062527 0.546189 0.000000
0.378964 0.542649 0.000000
0.694716 0.539395 0.000000
0.964366 0.536275 0.000000
1.000000 0.535563 0.000000
0.054382 0.824354 0.000000
0.368904 0.821164 0.000000
0.684848 0.818227 0.000000
0.956436 0.815404 0.000000
1.000000 0.814759 0.000000
0.048007 1.000000 0.000000
0.360968 1.000000 0.000000
0.677021 1.000000 0.000000
0.950100 1.000000 0.000000
1.000000 1.000000 0.000000
0.078861 0.007825 0.108374
0.398886 0.005214 0.105377
0.714086 0.002827 0.102632
0.979742 0.000548 0.100007
1.000000 0.000029 0.099409
0.070456 0.257783 0.099683
0.388676 0.254434 0.096714
0.704188 0.251362 0.093994
0.971917 0.248421 0.091394
1.000000 0.247750 0.090801
0.062143 0.545711 0.091076
0.378491 0.542171 0.088135
0.694254 0.538917 0.085442
0.963997 0.535797 0.082867
1.000000 0.535084 0.082280
0.054003 0.823924 0.082638
0.368433 0.820733 0.079726
0.684384 0.817795 0.077059
0.956062 0.814971 0.074510
1.000000 0.814326 0.073929
0.047631 1.000000 0.076026
0.360498 1.000000 0.073137
0.676556 1.000000 0.070492
0.949723 1.000000 0.067963
1.000000 1.000000 0.067387
0.078227 0.007254 0.313501
0.398120 0.004647 0.310071
0.713345 0.002262 0.306923
0.979159 0.000000 0.303907
1.000000 0.000000 0.303219
0.069829 0.257052 0.303534
0.387911 0.253704 0.300116
0.703444 0.250633 0.296980
0.971326 0.247693 0.293977
1.000000 0.247023 0.293292
0.061523 0.544939 0.293609
0.377728 0.541398 0.290205
0.693508 0.538145 0.287082
0.963398 0.535024 0.284091
1.000000 0.534312 0.283408
0.053389 0.823228 0.283824
0.367671 0.820036 0.280434
0.683635 0.817096 0.277324
0.955456 0.814271 0.274346
1.000000 0.813626 0.273666
0.047023 1.000000 0.276117
0.359738 1.000000 0.272739
0.675804 1.000000 0.269639
0.949112 1.000000 0.266672
1.000000 1.000000 0.265995
0.077550 0.006644 0.551542
0.397300 0.004039 0.548003
0.712552 0.001657 0.544751
0.978534 0.000000 0.541632
1.000000 0.000000 0.540920
0.069159 0.256269 0.541246
0.387092 0.252923 0.537705
0.702647 0.249853 0.534450
0.970693 0.246915 0.531329
1.000000 0.246244 0.530616
0.060860 0.544112 0.530946
0.376911 0.540571 0.527403
0.692708 0.537318 0.524146
0.962757 0.534197 0.521023
1.000000 0.533484 0.520310
0.052733 0.822483 0.520745
0.366856 0.819289 0.517200
0.682832 0.816348 0.513942
0.954808 0.813521 0.510818
1.000000 0.812875 0.510105
0.046372 1.000000 0.512677
0.358925 1.000000 0.509131
0.675000 1.000000 0.505873
0.948458 1.000000 0.502749
1.000000 1.000000 0.502035
0.076844 0.006009 0.793624
0.396444 0.003407 0.790366
0.711724 0.001028 0.787366
0.977881 0.000000 0.784484
1.000000 0.000000 0.783826
0.068461 0.255454 0.784127
0.386239 0.252109 0.780849
0.701816 0.249040 0.777832
0.970032 0.246103 0.774934
1.000000 0.245433 0.774271
0.060169 0.543250 0.774578
0.376060 0.539709 0.771281
0.691874 0.536455 0.768247
0.962089 0.533334 0.765333
1.000000 0.532621 0.764666
0.052050 0.821706 0.765073
0.366007 0.818510 0.761758
0.681995 0.815567 0.758707
0.954131 0.812739 0.755777
1.000000 0.812093 0.755108
0.045695 1.000000 0.757521
0.358077 1.000000 0.754193
0.674160 1.000000 0.751130
0.947775 1.000000 0.748188
1.000000 1.000000 0.747516
