luts/fantastic-mr-fox.cube
# CineLUT — Fantastic Mr. Fox (2009)
# Gerado por generate_luts.py
LUT_3D_SIZE 9
0.079253 0.008178 0.000000
0.237288 0.006827 0.000000
0.399361 0.005566 0.000000
0.560385 0.004354 0.000000
0.714544 0.003177 0.000000
0.856228 0.002026 0.000000
0.980103 0.000896 0.000000
1.000000 0.000377 0.000000
1.000000 0.000377 0.000000
0.075093 0.123984 0.000000
0.232534 0.122410 0.000000
0.394319 0.120940 0.000000
0.555310 0.119526 0.000000
0.709666 0.118151 0.000000
0.851763 0.116805 0.000000
0.976256 0.115484 0.000000
1.000000 0.114876 0.000000
1.000000 0.114876 0.000000
0.070844 0.258235 0.000000
0.227668 0.256503 0.000000
0.389149 0.254885 0.000000
0.550098 0.253328 0.000000
0.704648 0.251813 0.000000
0.847161 0.250329 0.000000
0.972282 0.248871 0.000000
1.000000 0.248200 0.000000
1.000000 0.248200 0.000000
0.066661 0.400762 0.000000
0.222865 0.398946 0.000000
0.384037 0.397248 0.000000
0.544935 0.395614 0.000000
0.699671 0.394022 0.000000
0.842589 0.392463 0.000000
0.968323 0.390931 0.000000
1.000000 0.390225 0.000000
1.000000 0.390225 0.000000
0.062527 0.546189 0.000000
0.218106 0.544360 0.000000
0.378964 0.542649 0.000000
0.539805 0.541001 0.000000
0.694716 0.539395 0.000000
0.838029 0.537822 0.000000
0.964366 0.536275 0.000000
1.000000 0.535563 0.000000
1.000000 0.535563 0.000000
0.058436 0.689154 0.000000
0.213385 0.687381 0.000000
0.373921 0.685722 0.000000
0.534697 0.684123 0.000000
0.689777 0.682566 0.000000
0.833475 0.681038 0.000000
0.960405 0.679535 0.000000
1.000000 0.678843 0.000000
1.000000 0.678843 0.000000
0.054382 0.824354 0.000000
0.208696 0.822706 0.000000
0.368904 0.821164 0.000000
0.529608 0.819677 0.000000
0.684848 0.818227 0.000000
0.828923 0.816804 0.000000
0.956436 0.815404 0.000000
1.000000 0.814759 0.000000
1.000000 0.814759 0.000000
0.050365 0.946546 0.000000
0.204036 0.945092 0.000000
0.363909 0.943729 0.000000
0.524535 0.942415 0.000000
0.679926 0.941133 0.000000
0.824370 0.939874 0.000000
0.952457 0.938634 0.000000
1.000000 0.938063 0.000000
1.000000 0.938063 0.000000
0.048007 1.000000 0.000000
0.201296 1.000000 0.000000
0.360968 1.000000 0.000000
0.521543 1.000000 0.000000
0.677021 1.000000 0.000000
0.821678 1.000000 0.000000
0.950100 1.000000 0.000000
1.000000 1.000000 0.000000
1.000000 1.000000 0.000000
0.079145 0.008081 0.027197
0.237165 0.006730 0.025801
0.399231 0.005470 0.024499
0.560254 0.004258 0.023248
0.714419 0.003081 0.022031
0.856113 0.001930 0.020842
0.980004 0.000801 0.019674
1.000000 0.000281 0.019137
1.000000 0.000281 0.019137
0.074986 0.123872 0.023329
0.232412 0.122298 0.021942
0.394190 0.120828 0.020648
0.555179 0.119414 0.019404
0.709540 0.118039 0.018195
0.851648 0.116693 0.017013
0.976157 0.115372 0.015853
1.000000 0.114764 0.015320
1.000000 0.114764 0.015320
0.070738 0.258111 0.019383
0.227546 0.256380 0.018005
0.389020 0.254762 0.016720
0.549967 0.253204 0.015484
0.704522 0.251689 0.014283
0.847046 0.250206 0.013109
0.972182 0.248748 0.011957
1.000000 0.248077 0.011427
1.000000 0.248077 0.011427
0.066555 0.400632 0.015502
0.222743 0.398816 0.014133
0.383907 0.397118 0.012856
0.544804 0.395484 0.011629
0.699544 0.393892 0.010436
0.842473 0.392333 0.009270
0.968223 0.390801 0.008125
1.000000 0.390095 0.007599
1.000000 0.390095 0.007599
0.062422 0.546058 0.011672
0.217985 0.544229 0.010313
0.378834 0.542518 0.009044
0.539674 0.540870 0.007825
0.694590 0.539264 0.006640
0.837912 0.537691 0.005482
0.964265 0.536144 0.004345
1.000000 0.535432 0.003822
1.000000 0.535432 0.003822
0.058331 0.689027 0.007886
0.213264 0.687254 0.006536
0.373792 0.685595 0.005276
0.534566 0.683996 0.004065
0.689650 0.682438 0.002888
0.833358 0.680911 0.001738
0.960303 0.679408 0.000609
1.000000 0.678716 0.000089
1.000000 0.678716 0.000089
0.054278 0.824236 0.004141
0.208575 0.822589 0.002799
0.368775 0.821046 0.001548
0.529477 0.819558 0.000345
0.684721 0.818108 0.000000
0.828806 0.816686 0.000000
0.956333 0.815286 0.000000
1.000000 0.814640 0.000000
1.000000 0.814640 0.000000
0.050261 0.946442 0.000433
0.203916 0.944988 0.000000
0.363781 0.943625 0.000000
0.524404 0.942311 0.000000
0.679799 0.941028 0.000000
0.824252 0.939769 0.000000
0.952354 0.938529 0.000000
1.000000 0.937957 0.000000
1.000000 0.937957 0.000000
0.047904 1.000000 0.000000
0.201176 1.000000 0.000000
0.360839 1.000000 0.000000
0.521412 1.000000 0.000000
0.676894 1.000000 0.000000
0.821560 1.000000 0.000000
0.949997 1.000000 0.000000
1.000000 1.000000 0.000000
1.000000 1.000000 0.000000
0.078861 0.007825 0.108374
0.236840 0.006474 0.106825
0.398886 0.005214 0.105377
0.559908 0.004004 0.103986
0.714086 0.002827 0.102632
0.855809 0.001677 0.101308
0.979742 0.000548 0.100007
1.000000 0.000029 0.099409
1.000000 0.000029 0.099409
0.074703 0.123573 0.104076
0.232088 0.121999 0.102533
0.393846 0.120530 0.101092
0.554833 0.119116 0.099707
0.709207 0.117742 0.098359
0.851342 0.116397 0.097041
0.975893 0.115076 0.095747
1.000000 0.114468 0.095151
1.000000 0.114468 0.095151
0.070456 0.257783 0.099683
0.227223 0.256051 0.098147
0.388676 0.254434 0.096714
0.549620 0.252877 0.095335
0.704188 0.251362 0.093994
0.846739 0.249878 0.092682
0.971917 0.248421 0.091394
1.000000 0.247750 0.090801
1.000000 0.247750 0.090801
0.066275 0.400288 0.095355
0.222421 0.398472 0.093827
0.383564 0.396774 0.092400
0.544457 0.395140 0.091028
0.699210 0.393548 0.089693
0.842165 0.391990 0.088388
0.967956 0.390457 0.087106
1.000000 0.389752 0.086516
1.000000 0.389752 0.086516
0.062143 0.545711 0.091076
0.217664 0.543882 0.089555
0.378491 0.542171 0.088135
0.539327 0.540523 0.086769
0.694254 0.538917 0.085442
0.837604 0.537344 0.084143
0.963997 0.535797 0.082867
1.000000 0.535084 0.082280
1.000000 0.535084 0.082280
0.058054 0.688691 0.086838
0.212944 0.686918 0.085325
0.373449 0.685259 0.083912
0.534219 0.683660 0.082553
0.689314 0.682102 0.081232
0.833048 0.680574 0.079939
0.960033 0.679071 0.078670
1.000000 0.678379 0.078086
1.000000 0.678379 0.078086
0.054003 0.823924 0.082638
0.208256 0.822276 0.081132
0.368433 0.820733 0.079726
0.529130 0.819245 0.078374
0.684384 0.817795 0.077059
0.828494 0.816372 0.075773
0.956062 0.814971 0.074510
1.000000 0.814326 0.073929
1.000000 0.814326 0.073929
0.049987 0.946166 0.078472
0.203598 0.944712 0.076973
0.363439 0.943349 0.075574
0.524056 0.942033 0.074229
0.679462 0.940750 0.072921
0.823940 0.939491 0.071642
0.952080 0.938251 0.070385
1.000000 0.937679 0.069807
1.000000 0.937679 0.069807
0.047631 1.000000 0.076026
0.200858 1.000000 0.074532
0.360498 1.000000 0.073137
0.521065 1.000000 0.071796
0.676556 1.000000 0.070492
0.821247 1.000000 0.069216
0.949723 1.000000 0.067963
1.000000 1.000000 0.067387
1.000000 1.000000 0.067387
0.078551 0.007546 0.205135
0.236487 0.006196 0.203455
0.398512 0.004937 0.201886
0.559531 0.003727 0.200376
0.713724 0.002551 0.198907
0.855478 0.001401 0.197469
0.979457 0.000273 0.196056
1.000000 0.000000 0.195406
1.000000 0.000000 0.195406
0.074395 0.123248 0.200474
0.231736 0.121675 0.198799
0.393472 0.120206 0.197235
0.554456 0.118793 0.195729
0.708844 0.117419 0.194265
0.851010 0.116074 0.192832
0.975607 0.114754 0.191423
1.000000 0.114146 0.190775
1.000000 0.114146 0.190775
0.070150 0.257426 0.195704
0.226872 0.255695 0.194034
0.388303 0.254077 0.192475
0.549243 0.252521 0.190975
0.703825 0.251006 0.189515
0.846406 0.249523 0.188086
0.971629 0.248065 0.186683
1.000000 0.247395 0.186037
1.000000 0.247395 0.186037
0.065970 0.399913 0.190997
0.222071 0.398098 0.189333
0.383191 0.396400 0.187779
0.544080 0.394766 0.186283
0.698846 0.393174 0.184829
0.841830 0.391616 0.183405
0.967666 0.390083 0.182006
1.000000 0.389378 0.181362
1.000000 0.389378 0.181362
0.061840 0.545334 0.186336
0.217315 0.543505 0.184678
0.378119 0.541794 0.183129
0.538949 0.540145 0.181638
0.693890 0.538540 0.180188
0.837268 0.536967 0.178769
0.963705 0.535420 0.177375
1.000000 0.534707 0.176733
1.000000 0.534707 0.176733
0.057753 0.688326 0.181714
0.212596 0.686552 0.180061
0.373077 0.684893 0.178517
0.533842 0.683294 0.177032
0.688949 0.681735 0.175587
0.832711 0.680208 0.174172
0.959739 0.678704 0.172783
1.000000 0.678012 0.172144
1.000000 0.678012 0.172144
0.053703 0.823584 0.177125
0.207909 0.821936 0.175478
0.368061 0.820392 0.173939
0.528753 0.818904 0.172459
0.684018 0.817453 0.171019
0.828156 0.816030 0.169609
0.955766 0.814629 0.168225
1.000000 0.813984 0.167588
1.000000 0.813984 0.167588
0.049689 0.945866 0.172566
0.203251 0.944411 0.170925
0.363068 0.943048 0.169391
0.523679 0.941732 0.167916
0.679095 0.940449 0.166481
0.823600 0.939189 0.165077
0.951783 0.937948 0.163697
1.000000 0.937376 0.163063
1.000000 0.937376 0.163063
0.047334 1.000000 0.169886
0.200512 1.000000 0.168248
0.360127 1.000000 0.166718
0.520687 1.000000 0.165246
0.676189 1.000000 0.163814
0.820907 1.000000 0.162413
0.949425 1.000000 0.161036
1.000000 1.000000 0.160403
1.000000 1.000000 0.160403
0.078227 0.007254 0.313501
0.236117 0.005905 0.311728
0.398120 0.004647 0.310071
0.559137 0.003437 0.308475
0.713345 0.002262 0.306923
0.855131 0.001113 0.305402
0.979159 0.000000 0.303907
1.000000 0.000000 0.303219
1.000000 0.000000 0.303219
0.074072 0.122908 0.308578
0.231367 0.121336 0.306808
0.393080 0.119867 0.305154
0.554061 0.118455 0.303562
0.708464 0.117081 0.302012
0.850662 0.115737 0.300494
0.975306 0.114416 0.299002
1.000000 0.113809 0.298316
1.000000 0.113809 0.298316
0.069829 0.257052 0.303534
0.226504 0.255321 0.301768
0.387911 0.253704 0.300116
0.548848 0.252148 0.298527
0.703444 0.250633 0.296980
0.846056 0.249150 0.295466
0.971326 0.247693 0.293977
1.000000 0.247023 0.293292
1.000000 0.247023 0.293292
0.065651 0.399521 0.298551
0.221704 0.397705 0.296787
0.382800 0.396008 0.295139
0.543685 0.394374 0.293553
0.698464 0.392783 0.292010
0.841479 0.391224 0.290498
0.967361 0.389692 0.289012
1.000000 0.388987 0.288329
1.000000 0.388987 0.288329
0.061523 0.544939 0.293609
0.216949 0.543110 0.291850
0.377728 0.541398 0.290205
0.538554 0.539750 0.288622
0.693508 0.538145 0.287082
0.836915 0.536572 0.285573
0.963398 0.535024 0.284091
1.000000 0.534312 0.283408
1.000000 0.534312 0.283408
0.057437 0.687943 0.288702
0.212231 0.686169 0.286946
0.372687 0.684509 0.285305
0.533446 0.682910 0.283725
0.688566 0.681351 0.282188
0.832357 0.679824 0.280683
0.959431 0.678320 0.279203
1.000000 0.677628 0.278522
1.000000 0.677628 0.278522
0.053389 0.823228 0.283824
0.207545 0.821580 0.282072
0.367671 0.820036 0.280434
0.528357 0.818547 0.278858
0.683635 0.817096 0.277324
0.827801 0.815673 0.275822
0.955456 0.814271 0.274346
1.000000 0.813626 0.273666
1.000000 0.813626 0.273666
0.049377 0.945552 0.278973
0.202889 0.944097 0.277224
0.362678 0.942733 0.275590
0.523283 0.941416 0.274017
0.678711 0.940132 0.272486
0.823244 0.938872 0.270988
0.951472 0.937630 0.269515
1.000000 0.937058 0.268837
1.000000 0.937058 0.268837
0.047023 1.000000 0.276117
0.200151 1.000000 0.274371
0.359738 1.000000 0.272739
0.520291 1.000000 0.271168
0.675804 1.000000 0.269639
0.820550 1.000000 0.268143
0.949112 1.000000 0.266672
1.000000 1.000000 0.265995
1.000000 1.000000 0.265995
0.077893 0.006953 0.430129
0.235735 0.005605 0.428305
0.397715 0.004347 0.426599
0.558729 0.003138 0.424956
0.712953 0.001963 0.423357
0.854773 0.000815 0.421790
0.978850 0.000000 0.420250
1.000000 0.000000 0.419541
1.000000 0.000000 0.419541
0.073740 0.122557 0.425063
0.230986 0.120985 0.423240
0.392675 0.119517 0.421535
0.553653 0.118105 0.419894
0.708072 0.116732 0.418296
0.850302 0.115388 0.416730
0.974996 0.114068 0.415191
1.000000 0.113461 0.414482
1.000000 0.113461 0.414482
0.069498 0.256665 0.419865
0.226124 0.254935 0.418044
0.387507 0.253318 0.416340
0.548440 0.251762 0.414700
0.703051 0.250248 0.413104
0.845695 0.248766 0.411539
0.971014 0.247309 0.410001
1.000000 0.246638 0.409293
1.000000 0.246638 0.409293
0.065322 0.399116 0.414725
0.221325 0.397300 0.412904
0.382396 0.395603 0.411202
0.543277 0.393969 0.409564
0.698070 0.392378 0.407968
0.841117 0.390820 0.406405
0.967047 0.389288 0.404869
1.000000 0.388582 0.404161
1.000000 0.388582 0.404161
0.061195 0.544531 0.409622
0.216571 0.542701 0.407803
0.377325 0.540990 0.406102
0.538146 0.539342 0.404465
0.693113 0.537736 0.402871
0.836551 0.536163 0.401309
0.963082 0.534616 0.399774
1.000000 0.533903 0.399067
1.000000 0.533903 0.399067
0.057111 0.687547 0.404548
0.211854 0.685773 0.402731
0.372284 0.684113 0.401032
0.533038 0.682514 0.399396
0.688170 0.680955 0.397803
0.831992 0.679427 0.396243
0.959113 0.677923 0.394709
1.000000 0.677230 0.394003
1.000000 0.677230 0.394003
0.053065 0.822861 0.399498
0.207170 0.821211 0.397683
0.367269 0.819667 0.395986
0.527948 0.818178 0.394351
0.683238 0.816727 0.392760
0.827435 0.815303 0.391202
0.955136 0.813901 0.389670
1.000000 0.813255 0.388964
1.000000 0.813255 0.388964
0.049055 0.945228 0.394470
0.202514 0.943771 0.392657
0.362277 0.942407 0.390961
0.522874 0.941090 0.389328
0.678314 0.939805 0.387739
0.822876 0.938544 0.386182
0.951150 0.937302 0.384651
1.000000 0.936730 0.383947
1.000000 0.936730 0.383947
0.046702 1.000000 0.391508
0.199777 1.000000 0.389696
0.359336 1.000000 0.388001
0.519882 1.000000 0.386369
0.675407 1.000000 0.384781
0.820182 1.000000 0.383225
0.948789 1.000000 0.381695
1.000000 1.000000 0.380991
1.000000 1.000000 0.380991
0.077550 0.006644 0.551542
0.235343 0.005297 0.549714
0.397300 0.004039 0.548003
0.558311 0.002831 0.546356
0.712552 0.001657 0.544751
0.854405 0.000509 0.543179
0.978534 0.000000 0.541632
1.000000 0.000000 0.540920
1.000000 0.000000 0.540920
0.073398 0.122197 0.546463
0.230595 0.120626 0.544633
0.392260 0.119158 0.542923
0.553235 0.117747 0.541274
0.707669 0.116374 0.539669
0.849933 0.115031 0.538096
0.974677 0.113711 0.536549
1.000000 0.113104 0.535836
1.000000 0.113104 0.535836
0.069159 0.256269 0.541246
0.225735 0.254539 0.539416
0.387092 0.252923 0.537705
0.548022 0.251367 0.536056
0.702647 0.249853 0.534450
0.845324 0.248371 0.532877
0.970693 0.246915 0.531329
1.000000 0.246244 0.530616
1.000000 0.246244 0.530616
0.064984 0.398700 0.536080
0.220937 0.396885 0.534250
0.381982 0.395188 0.532537
0.542858 0.393554 0.530888
0.697666 0.391963 0.529282
0.840745 0.390405 0.527708
0.966724 0.388873 0.526160
1.000000 0.388168 0.525447
1.000000 0.388168 0.525447
0.060860 0.544112 0.530946
0.216184 0.542283 0.529115
0.376911 0.540571 0.527403
0.537727 0.538923 0.525753
0.692708 0.537318 0.524146
0.836178 0.535744 0.522572
0.962757 0.534197 0.521023
1.000000 0.533484 0.520310
1.000000 0.533484 0.520310
0.056777 0.687141 0.525836
0.211468 0.685367 0.524005
0.371871 0.683707 0.522292
0.532619 0.682107 0.520642
0.687765 0.680548 0.519035
0.831618 0.679020 0.517460
0.958787 0.677516 0.515911
1.000000 0.676823 0.515198
1.000000 0.676823 0.515198
0.052733 0.822483 0.520745
0.206785 0.820834 0.518913
0.366856 0.819289 0.517200
0.527529 0.817800 0.515550
0.682832 0.816348 0.513942
0.827059 0.814923 0.512367
0.954808 0.813521 0.510818
1.000000 0.812875 0.510105
1.000000 0.812875 0.510105
0.048725 0.944895 0.515670
0.202131 0.943438 0.513838
0.361865 0.942072 0.512124
0.522455 0.940755 0.510473
0.677907 0.939470 0.508866
0.822499 0.938208 0.507291
0.950819 0.936966 0.505742
1.000000 0.936393 0.505028
1.000000 0.936393 0.505028
0.046372 1.000000 0.512677
0.199394 1.000000 0.510845
0.358925 1.000000 0.509131
0.519463 1.000000 0.507481
0.675000 1.000000 0.505873
0.819804 1.000000 0.504298
0.948458 1.000000 0.502749
1.000000 1.000000 0.502035
1.000000 1.000000 0.502035
0.077200 0.006329 0.674028
0.234944 0.004982 0.672246
0.396876 0.003726 0.670578
0.557884 0.002518 0.668971
0.712141 0.001345 0.667405
0.854030 0.000198 0.665870
0.978210 0.000000 0.664360
1.000000 0.000000 0.663664
1.000000 0.000000 0.663664
0.073050 0.121830 0.669075
0.230197 0.120259 0.667290
0.391837 0.118792 0.665619
0.552808 0.117381 0.664010
0.707258 0.116009 0.662441
0.849556 0.114666 0.660904
0.974352 0.113347 0.659391
1.000000 0.112740 0.658694
1.000000 0.112740 0.658694
0.068813 0.255865 0.663982
0.225337 0.254135 0.662194
0.386669 0.252519 0.660521
0.547594 0.250964 0.658909
0.702236 0.249450 0.657338
0.844946 0.247968 0.655798
0.970365 0.246512 0.654283
1.000000 0.245842 0.653586
1.000000 0.245842 0.653586
0.064640 0.398276 0.658933
0.220540 0.396461 0.657142
0.381560 0.394764 0.655467
0.542431 0.393130 0.653852
0.697253 0.391540 0.652279
0.840365 0.389982 0.650737
0.966395 0.388450 0.649219
1.000000 0.387744 0.648520
1.000000 0.387744 0.648520
0.060517 0.543685 0.653909
0.215789 0.541855 0.652116
0.376489 0.540144 0.650438
0.537299 0.538496 0.648821
0.692294 0.536890 0.647245
0.835797 0.535317 0.645701
0.962426 0.533769 0.644181
1.000000 0.533057 0.643482
1.000000 0.533057 0.643482
0.056437 0.686727 0.648902
0.211074 0.684953 0.647106
0.371449 0.683292 0.645426
0.532191 0.681692 0.643807
0.687350 0.680133 0.642229
0.831235 0.678604 0.640683
0.958453 0.677100 0.639161
1.000000 0.676407 0.638461
1.000000 0.676407 0.638461
0.052395 0.822098 0.643908
0.206392 0.820448 0.642110
0.366435 0.818903 0.640427
0.527102 0.817413 0.638806
0.682417 0.815961 0.637226
0.826675 0.814536 0.635678
0.954473 0.813134 0.634154
1.000000 0.812487 0.633453
1.000000 0.812487 0.633453
0.048388 0.944555 0.638924
0.201739 0.943097 0.637123
0.361444 0.941731 0.635438
0.522027 0.940413 0.633815
0.677491 0.939127 0.632233
0.822114 0.937865 0.630683
0.950482 0.936622 0.629158
1.000000 0.936049 0.628455
1.000000 0.936049 0.628455
0.046037 1.000000 0.635983
0.199003 1.000000 0.634180
0.358504 1.000000 0.632494
0.519035 1.000000 0.630870
0.674583 1.000000 0.629287
0.819418 1.000000 0.627735
0.948119 1.000000 0.626209
1.000000 1.000000 0.625506
1.000000 1.000000 0.625506
0.076844 0.006009 0.793624
0.234537 0.004663 0.791941
0.396444 0.003407 0.790366
0.557450 0.002200 0.788847
0.711724 0.001028 0.787366
0.853648 0.000000 0.785914
0.977881 0.000000 0.784484
1.000000 0.000000 0.783826
1.000000 0.000000 0.783826
0.072696 0.121456 0.788945
0.229791 0.119886 0.787257
0.391406 0.118419 0.785677
0.552374 0.117009 0.784153
0.706840 0.115637 0.782668
0.849173 0.114295 0.781212
0.974020 0.112977 0.779778
1.000000 0.112370 0.779118
1.000000 0.112370 0.779118
0.068461 0.255454 0.784127
0.224933 0.253725 0.782434
0.386239 0.252109 0.780849
0.547160 0.250554 0.779321
0.701816 0.249040 0.777832
0.844561 0.247559 0.776371
0.970032 0.246103 0.774934
1.000000 0.245433 0.774271
1.000000 0.245433 0.774271
0.064290 0.397845 0.779344
0.220137 0.396030 0.777646
0.381130 0.394333 0.776056
0.541996 0.392699 0.774524
0.696833 0.391109 0.773030
0.839978 0.389551 0.771566
0.966059 0.388019 0.770124
1.000000 0.387314 0.769460
1.000000 0.387314 0.769460
0.060169 0.543250 0.774578
0.215386 0.541420 0.772875
0.376060 0.539709 0.771281
0.536864 0.538061 0.769745
0.691874 0.536455 0.768247
0.835409 0.534882 0.766778
0.962089 0.533334 0.765333
1.000000 0.532621 0.764666
1.000000 0.532621 0.764666
0.056090 0.686305 0.769823
0.210673 0.684531 0.768115
0.371020 0.682870 0.766517
0.531756 0.681270 0.764976
0.686929 0.679710 0.763474
0.830846 0.678182 0.762001
0.958114 0.676677 0.760552
1.000000 0.675984 0.759884
1.000000 0.675984 0.759884
0.052050 0.821706 0.765073
0.205992 0.820056 0.763361
0.366007 0.818510 0.761758
0.526666 0.817020 0.760213
0.681995 0.815567 0.758707
0.826284 0.814142 0.757231
0.954131 0.812739 0.755777
1.000000 0.812093 0.755108
1.000000 0.812093 0.755108
0.048045 0.944209 0.760326
0.201340 0.942750 0.758609
0.361016 0.941383 0.757002
0.521592 0.940065 0.755454
0.677068 0.938778 0.753944
0.821722 0.937516 0.752463
0.950139 0.936272 0.751006
1.000000 0.935699 0.750335
1.000000 0.935699 0.750335
0.045695 1.000000 0.757521
0.198605 1.000000 0.755802
0.358077 1.000000 0.754193
0.518600 1.000000 0.752642
0.674160 1.000000 0.751130
0.819025 1.000000 0.749647
0.947775 1.000000 0.748188
1.000000 1.000000 0.747516
1.000000 1.000000 0.747516
