luts/grand-budapest-hotel.cube
# CineLUT — The Grand Budapest Hotel (2014)
# Gerado por generate_luts.py
LUT_3D_SIZE 33
0.021093 0.000000 0.014488
0.048320 0.000000 0.014240
0.078243 0.000000 0.013999
0.110658 0.000000 0.013762
0.145303 0.000000 0.013529
0.181910 0.000000 0.013299
0.220215 0.000000 0.013070
0.259958 0.000000 0.012844
0.300888 0.000000 0.012619
0.342757 0.000000 0.012396
0.385323 0.000000 0.012175
0.428348 0.000000 0.011954
0.471599 0.000000 0.011735
0.514847 0.000000 0.011517
0.557865 0.000000 0.011301
0.600431 0.000000 0.011085
0.642323 0.000000 0.010870
0.683326 0.000000 0.010656
0.723223 0.000000 0.010443
0.761803 0.000000 0.010231
0.798854 0.000000 0.010020
0.834168 0.000000 0.009809
0.867538 0.000000 0.009600
0.898759 0.000000 0.009391
0.927629 0.000000 0.009183
0.953944 0.000000 0.008975
0.977506 0.000000 0.008768
0.998114 0.000000 0.008562
1.000000 0.000000 0.008357
1.000000 0.000000 0.008305
1.000000 0.000000 0.008305
1.000000 0.000000 0.008305
1.000000 0.000000 0.008305
0.021093 0.000000 0.014488
0.048320 0.000000 0.014240
0.078243 0.000000 0.013999
0.110658 0.000000 0.013762
0.145303 0.000000 0.013529
0.181910 0.000000 0.013299
0.220215 0.000000 0.013070
0.259958 0.000000 0.012844
0.300888 0.000000 0.012619
0.342757 0.000000 0.012396
0.385323 0.000000 0.012175
0.428348 0.000000 0.011954
0.471599 0.000000 0.011735
0.514847 0.000000 0.011517
0.557865 0.000000 0.011301
0.600431 0.000000 0.011085
0.642323 0.000000 0.010870
0.683326 0.000000 0.010656
0.723223 0.000000 0.010443
0.761803 0.000000 0.010231
0.798854 0.000000 0.010020
0.834168 0.000000 0.009809
0.867538 0.000000 0.009600
0.898759 0.000000 0.009391
0.927629 0.000000 0.009183
0.953944 0.000000 0.008975
0.977506 0.000000 0.008768
0.998114 0.000000 0.008562
1.000000 0.000000 0.008357
1.000000 0.000000 0.008305
1.000000 0.000000 0.008305
1.000000 0.000000 0.008305
1.000000 0.000000 0.008305
0.020698 0.009768 0.014108
0.047866 0.009528 0.013861
0.077737 0.009295 0.013621
0.110105 0.009066 0.013385
0.144709 0.008841 0.013152
0.181280 0.008618 0.012922
0.219553 0.008397 0.012695
0.259270 0.008179 0.012469
0.300178 0.007962 0.012245
0.342029 0.007746 0.012022
0.384582 0.007532 0.011801
0.427598 0.007319 0.011582
0.470844 0.007107 0.011363
0.514091 0.006897 0.011146
0.557113 0.006687 0.010930
0.599686 0.006479 0.010714
0.641590 0.006271 0.010500
0.682608 0.006065 0.010287
0.722525 0.005859 0.010075
0.761128 0.005654 0.009863
0.798207 0.005450 0.009652
0.833552 0.005247 0.009442
0.866958 0.005044 0.009233
0.898219 0.004843 0.009025
0.927131 0.004642 0.008817
0.953493 0.004441 0.008610
0.977106 0.004242 0.008404
0.997769 0.004043 0.008199
1.000000 0.003845 0.007994
1.000000 0.003795 0.007942
1.000000 0.003795 0.007942
1.000000 0.003795 0.007942
1.000000 0.003795 0.007942
0.020184 0.023976 0.013617
0.047276 0.023713 0.013370
0.077080 0.023457 0.013131
0.109388 0.023206 0.012896
0.143938 0.022958 0.012664
0.180462 0.022713 0.012435
0.218695 0.022471 0.012208
0.258377 0.022230 0.011983
0.299256 0.021992 0.011760
0.341084 0.021755 0.011538
0.383619 0.021519 0.011318
0.426623 0.021285 0.011099
0.469863 0.021052 0.010881
0.513109 0.020821 0.010664
0.556135 0.020590 0.010449
0.598718 0.020360 0.010234
0.640637 0.020132 0.010021
0.681675 0.019904 0.009808
0.721618 0.019678 0.009597
0.760251 0.019452 0.009386
0.797365 0.019227 0.009176
0.832752 0.019003 0.008967
0.866203 0.018780 0.008759
0.897515 0.018558 0.008551
0.926483 0.018336 0.008344
0.952906 0.018115 0.008138
0.976584 0.017895 0.007932
0.997318 0.017675 0.007728
1.000000 0.017456 0.007524
1.000000 0.017401 0.007472
1.000000 0.017401 0.007472
1.000000 0.017401 0.007472
1.000000 0.017401 0.007472
0.019647 0.040280 0.013102
0.046659 0.039993 0.012857
0.076391 0.039715 0.012618
0.108636 0.039441 0.012384
0.143130 0.039172 0.012153
0.179604 0.038905 0.011924
0.217794 0.038641 0.011698
0.257440 0.038379 0.011474
0.298288 0.038119 0.011252
0.340091 0.037860 0.011031
0.382608 0.037603 0.010811
0.425599 0.037348 0.010593
0.468832 0.037094 0.010376
0.512077 0.036841 0.010161
0.555108 0.036590 0.009946
0.597700 0.036339 0.009732
0.639635 0.036090 0.009520
0.680695 0.035841 0.009308
0.720664 0.035594 0.009097
0.759329 0.035347 0.008887
0.796481 0.035102 0.008678
0.831910 0.034857 0.008469
0.865409 0.034613 0.008262
0.896774 0.034370 0.008055
0.925801 0.034127 0.007849
0.952288 0.033886 0.007643
0.976035 0.033645 0.007439
0.996843 0.033405 0.007235
1.000000 0.033165 0.007031
1.000000 0.033105 0.006980
1.000000 0.033105 0.006980
1.000000 0.033105 0.006980
1.000000 0.033105 0.006980
0.019095 0.058505 0.012574
0.046024 0.058195 0.012329
0.075683 0.057895 0.012091
0.107862 0.057599 0.011858
0.142298 0.057308 0.011628
0.178721 0.057020 0.011400
0.216866 0.056734 0.011175
0.256474 0.056451 0.010952
0.297290 0.056170 0.010730
0.339068 0.055891 0.010510
0.381565 0.055613 0.010291
0.424544 0.055337 0.010074
0.467770 0.055063 0.009858
0.511013 0.054789 0.009643
0.554048 0.054517 0.009429
0.596651 0.054246 0.009216
0.638602 0.053976 0.009004
0.679683 0.053707 0.008793
0.719679 0.053439 0.008583
0.758377 0.053173 0.008374
0.795567 0.052907 0.008166
0.831040 0.052641 0.007958
0.864589 0.052377 0.007751
0.896009 0.052114 0.007545
0.925096 0.051851 0.007340
0.951648 0.051590 0.007135
0.975466 0.051328 0.006931
0.996351 0.051068 0.006728
1.000000 0.050809 0.006526
1.000000 0.050743 0.006475
1.000000 0.050743 0.006475
1.000000 0.050743 0.006475
1.000000 0.050743 0.006475
0.018533 0.078545 0.012035
0.045377 0.078213 0.011791
0.074960 0.077891 0.011554
0.107072 0.077575 0.011321
0.141448 0.077263 0.011092
0.177818 0.076954 0.010866
0.215918 0.076648 0.010641
0.255486 0.076345 0.010419
0.296270 0.076044 0.010198
0.338022 0.075744 0.009979
0.380500 0.075446 0.009761
0.423464 0.075150 0.009545
0.466682 0.074856 0.009329
0.509924 0.074562 0.009115
0.552964 0.074271 0.008902
0.595577 0.073980 0.008690
0.637544 0.073690 0.008479
0.678647 0.073402 0.008269
0.718671 0.073114 0.008060
0.757403 0.072828 0.007851
0.794632 0.072542 0.007644
0.830149 0.072258 0.007437
0.863748 0.071974 0.007231
0.895224 0.071691 0.007026
0.924373 0.071409 0.006821
0.950992 0.071128 0.006618
0.974883 0.070847 0.006415
0.995845 0.070567 0.006212
1.000000 0.070288 0.006011
1.000000 0.070218 0.005960
1.000000 0.070218 0.005960
1.000000 0.070218 0.005960
1.000000 0.070218 0.005960
0.017962 0.100310 0.011488
0.044719 0.099958 0.011245
0.074225 0.099615 0.011009
0.106268 0.099279 0.010778
0.140584 0.098947 0.010549
0.176900 0.098619 0.010324
0.214953 0.098294 0.010100
0.254482 0.097971 0.009879
0.295233 0.097650 0.009659
0.336958 0.097332 0.009440
0.379415 0.097015 0.009224
0.422365 0.096700 0.009008
0.465576 0.096386 0.008794
0.508816 0.096074 0.008580
0.551859 0.095763 0.008368
0.594483 0.095453 0.008157
0.636466 0.095145 0.007947
0.677592 0.094838 0.007737
0.717644 0.094532 0.007529
0.756409 0.094226 0.007321
0.793678 0.093922 0.007115
0.829241 0.093619 0.006909
0.862891 0.093316 0.006704
0.894424 0.093015 0.006499
0.923635 0.092714 0.006296
0.950323 0.092414 0.006093
0.974287 0.092115 0.005891
0.995328 0.091817 0.005689
1.000000 0.091520 0.005488
1.000000 0.091445 0.005437
1.000000 0.091445 0.005437
1.000000 0.091445 0.005437
1.000000 0.091445 0.005437
0.017385 0.123714 0.010936
0.044054 0.123342 0.010694
0.073481 0.122981 0.010459
0.105455 0.122625 0.010228
0.139708 0.122275 0.010001
0.175970 0.121928 0.009776
0.213975 0.121584 0.009553
0.253463 0.121243 0.009333
0.294180 0.120904 0.009114
0.335878 0.120567 0.008896
0.378314 0.120233 0.008680
0.421250 0.119900 0.008465
0.464452 0.119568 0.008252
0.507691 0.119238 0.008039
0.550739 0.118909 0.007828
0.593373 0.118582 0.007618
0.635372 0.118255 0.007408
0.676520 0.117930 0.007200
0.716600 0.117606 0.006992
0.755400 0.117284 0.006786
0.792709 0.116962 0.006580
0.828318 0.116641 0.006375
0.862020 0.116321 0.006171
0.893610 0.116002 0.005967
0.922884 0.115683 0.005764
0.949641 0.115366 0.005562
0.973680 0.115049 0.005361
0.994801 0.114734 0.005160
1.000000 0.114419 0.004960
1.000000 0.114339 0.004910
1.000000 0.114339 0.004910
1.000000 0.114339 0.004910
1.000000 0.114339 0.004910
0.016802 0.148668 0.010378
0.043382 0.148277 0.010137
0.072730 0.147898 0.009903
0.104632 0.147525 0.009673
0.138822 0.147156 0.009447
0.175029 0.146792 0.009223
0.212986 0.146431 0.009001
0.252432 0.146073 0.008782
0.293115 0.145717 0.008564
0.334785 0.145363 0.008347
0.377200 0.145011 0.008132
0.420121 0.144661 0.007918
0.463315 0.144313 0.007705
0.506551 0.143966 0.007494
0.549603 0.143621 0.007283
0.592247 0.143277 0.007074
0.634264 0.142934 0.006865
0.675434 0.142592 0.006658
0.715543 0.142251 0.006451
0.754377 0.141912 0.006245
0.791727 0.141573 0.006040
0.827382 0.141236 0.005836
0.861136 0.140899 0.005633
0.892784 0.140564 0.005430
0.922122 0.140229 0.005228
0.948949 0.139895 0.005027
0.973063 0.139562 0.004827
0.994266 0.139230 0.004627
1.000000 0.138898 0.004428
1.000000 0.138814 0.004377
1.000000 0.138814 0.004377
1.000000 0.138814 0.004377
1.000000 0.138814 0.004377
0.016215 0.175078 0.009817
0.042704 0.174670 0.009577
0.071972 0.174273 0.009344
0.103803 0.173884 0.009115
0.137929 0.173500 0.008890
0.174079 0.173119 0.008667
0.211987 0.172742 0.008446
0.251391 0.172368 0.008227
0.292039 0.171996 0.008010
0.333681 0.171627 0.007794
0.376074 0.171259 0.007580
0.418980 0.170893 0.007367
0.462165 0.170529 0.007155
0.505399 0.170167 0.006945
0.548455 0.169806 0.006735
0.591109 0.169446 0.006526
0.633142 0.169088 0.006319
0.674335 0.168731 0.006112
0.714472 0.168375 0.005906
0.753342 0.168020 0.005701
0.790732 0.167666 0.005497
0.826434 0.167313 0.005294
0.860241 0.166961 0.005092
0.891947 0.166610 0.004890
0.921350 0.166260 0.004689
0.948247 0.165911 0.004488
0.972437 0.165562 0.004289
0.993722 0.165215 0.004090
1.000000 0.164868 0.003891
1.000000 0.164780 0.003841
1.000000 0.164780 0.003841
1.000000 0.164780 0.003841
1.000000 0.164780 0.003841
0.015625 0.202846 0.009253
0.042022 0.202423 0.009013
0.071209 0.202011 0.008781
0.102966 0.201607 0.008553
0.137028 0.201207 0.008329
0.173121 0.200812 0.008107
0.210979 0.200420 0.007887
0.250341 0.200032 0.007669
0.290953 0.199645 0.007453
0.332566 0.199261 0.007238
0.374937 0.198879 0.007025
0.417828 0.198499 0.006813
0.461004 0.198121 0.006602
0.504235 0.197744 0.006392
0.547295 0.197369 0.006184
0.589960 0.196995 0.005976
0.632009 0.196622 0.005769
0.673224 0.196251 0.005563
0.713391 0.195880 0.005359
0.752295 0.195511 0.005155
0.789726 0.195143 0.004951
0.825475 0.194776 0.004749
0.859335 0.194410 0.004547
0.891100 0.194045 0.004346
0.920568 0.193681 0.004146
0.947535 0.193317 0.003947
0.971802 0.192955 0.003748
0.993170 0.192593 0.003550
1.000000 0.192232 0.003352
1.000000 0.192141 0.003303
1.000000 0.192141 0.003303
1.000000 0.192141 0.003303
1.000000 0.192141 0.003303
0.015032 0.231873 0.008685
0.041337 0.231435 0.008447
0.070440 0.231010 0.008216
0.102124 0.230591 0.007989
0.136120 0.230178 0.007766
0.172156 0.229770 0.007545
0.209963 0.229365 0.007326
0.249282 0.228963 0.007109
0.289858 0.228563 0.006893
0.331442 0.228166 0.006680
0.373791 0.227771 0.006467
0.416665 0.227377 0.006256
0.459832 0.226986 0.006046
0.503061 0.226596 0.005837
0.546125 0.226208 0.005630
0.588800 0.225821 0.005423
0.630865 0.225435 0.005217
0.672103 0.225051 0.005012
0.712299 0.224668 0.004808
0.751238 0.224286 0.004605
0.788710 0.223905 0.004403
0.824506 0.223525 0.004201
0.858420 0.223146 0.004001
0.890244 0.222768 0.003801
0.919777 0.222391 0.003601
0.946816 0.222014 0.003403
0.971160 0.221639 0.003205
0.992611 0.221265 0.003008
1.000000 0.220891 0.002811
1.000000 0.220796 0.002761
1.000000 0.220796 0.002761
1.000000 0.220796 0.002761
1.000000 0.220796 0.002761
0.014436 0.262052 0.008116
0.040647 0.261601 0.007879
0.069668 0.261163 0.007649
0.101277 0.260732 0.007423
0.135207 0.260307 0.007200
0.171184 0.259887 0.006980
0.208941 0.259470 0.006762
0.248216 0.259056 0.006546
0.288755 0.258644 0.006332
0.330310 0.258235 0.006119
0.372635 0.257828 0.005908
0.415494 0.257423 0.005697
0.458652 0.257020 0.005488
0.501878 0.256619 0.005281
0.544945 0.256219 0.005074
0.587630 0.255820 0.004868
0.629712 0.255423 0.004663
0.670973 0.255027 0.004459
0.711197 0.254632 0.004256
0.750171 0.254239 0.004054
0.787685 0.253846 0.003852
0.823529 0.253454 0.003652
0.857495 0.253064 0.003452
0.889380 0.252674 0.003253
0.918978 0.252286 0.003054
0.946089 0.251898 0.002857
0.970510 0.251511 0.002660
0.992044 0.251125 0.002464
1.000000 0.250740 0.002268
1.000000 0.250642 0.002219
1.000000 0.250642 0.002219
1.000000 0.250642 0.002219
1.000000 0.250642 0.002219
0.013839 0.293273 0.007545
0.039955 0.292811 0.007309
0.068892 0.292362 0.007080
0.100426 0.291920 0.006855
0.134289 0.291485 0.006633
0.170207 0.291053 0.006414
0.207912 0.290626 0.006197
0.247143 0.290201 0.005982
0.287645 0.289780 0.005769
0.329170 0.289360 0.005557
0.371472 0.288943 0.005346
0.414315 0.288528 0.005137
0.457463 0.288114 0.004929
0.500686 0.287702 0.004722
0.543756 0.287292 0.004516
0.586451 0.286883 0.004311
0.628549 0.286476 0.004107
0.669833 0.286070 0.003904
0.710086 0.285665 0.003702
0.749096 0.285261 0.003501
0.786651 0.284858 0.003300
0.822542 0.284456 0.003101
0.856563 0.284056 0.002902
0.888507 0.283656 0.002704
0.918171 0.283257 0.002506
0.945354 0.282859 0.002309
0.969854 0.282462 0.002113
0.991472 0.282066 0.001918
1.000000 0.281670 0.001723
1.000000 0.281570 0.001674
1.000000 0.281570 0.001674
1.000000 0.281570 0.001674
1.000000 0.281570 0.001674
0.013240 0.325422 0.006973
0.039261 0.324951 0.006738
0.068112 0.324492 0.006510
0.099571 0.324042 0.006286
0.133366 0.323597 0.006065
0.169224 0.323157 0.005847
0.206878 0.322720 0.005631
0.246064 0.322286 0.005417
0.286529 0.321856 0.005204
0.328023 0.321427 0.004993
0.370302 0.321001 0.004784
0.413128 0.320577 0.004576
0.456266 0.320155 0.004368
0.499485 0.319734 0.004162
0.542559 0.319315 0.003957
0.585264 0.318897 0.003753
0.627378 0.318481 0.003550
0.668684 0.318066 0.003348
0.708967 0.317652 0.003147
0.748012 0.317240 0.002947
0.785608 0.316828 0.002747
0.821547 0.316417 0.002548
0.855622 0.316008 0.002350
0.887627 0.315599 0.002153
0.917357 0.315192 0.001957
0.944612 0.314785 0.001761
0.969190 0.314379 0.001566
0.990893 0.313974 0.001371
1.000000 0.313570 0.001177
1.000000 0.313467 0.001128
1.000000 0.313467 0.001128
1.000000 0.313467 0.001128
1.000000 0.313467 0.001128
0.012639 0.358383 0.006399
0.038564 0.357904 0.006166
0.067330 0.357438 0.005938
0.098712 0.356979 0.005716
0.132439 0.356527 0.005496
0.168237 0.356079 0.005279
0.205838 0.355635 0.005064
0.244980 0.355194 0.004851
0.285406 0.354756 0.004639
0.326869 0.354320 0.004429
0.369125 0.353886 0.004220
0.411934 0.353455 0.004013
0.455061 0.353025 0.003807
0.498277 0.352597 0.003602
0.541355 0.352171 0.003398
0.584069 0.351746 0.003195
0.626199 0.351322 0.002993
0.667528 0.350900 0.002791
0.707839 0.350478 0.002591
0.746920 0.350058 0.002392
0.784558 0.349639 0.002193
0.820545 0.349221 0.001995
0.854674 0.348805 0.001798
0.886739 0.348389 0.001602
0.916536 0.347974 0.001406
0.943863 0.347559 0.001211
0.968520 0.347146 0.001017
0.990307 0.346734 0.000824
1.000000 0.346322 0.000631
1.000000 0.346218 0.000582
1.000000 0.346218 0.000582
1.000000 0.346218 0.000582
1.000000 0.346218 0.000582
0.012038 0.392035 0.005825
0.037866 0.391549 0.005593
0.066545 0.391077 0.005366
0.097850 0.390613 0.005145
0.131509 0.390154 0.004926
0.167246 0.389700 0.004710
0.204794 0.389250 0.004496
0.243890 0.388803 0.004283
0.284278 0.388359 0.004073
0.325710 0.387918 0.003864
0.367941 0.387478 0.003656
0.410733 0.387041 0.003450
0.453850 0.386605 0.003245
0.497063 0.386171 0.003040
0.540143 0.385739 0.002837
0.582866 0.385308 0.002635
0.625013 0.384878 0.002434
0.666364 0.384450 0.002234
0.706705 0.384023 0.002035
0.745820 0.383597 0.001836
0.783500 0.383172 0.001638
0.819535 0.382748 0.001442
0.853718 0.382325 0.001245
0.885844 0.381903 0.001050
0.915708 0.381482 0.000855
0.943108 0.381062 0.000661
0.967844 0.380643 0.000468
0.989716 0.380225 0.000276
1.000000 0.379807 0.000084
1.000000 0.379701 0.000035
1.000000 0.379701 0.000035
1.000000 0.379701 0.000035
1.000000 0.379701 0.000035
0.011436 0.426253 0.005251
0.037166 0.425763 0.005019
0.065758 0.425286 0.004794
0.096985 0.424818 0.004573
0.130575 0.424355 0.004355
0.166251 0.423896 0.004140
0.203745 0.423442 0.003927
0.242795 0.422991 0.003716
0.283145 0.422542 0.003506
0.324545 0.422096 0.003298
0.366752 0.421652 0.003092
0.409526 0.421211 0.002886
0.452633 0.420771 0.002682
0.495841 0.420332 0.002479
0.538924 0.419896 0.002277
0.581657 0.419460 0.002075
0.623820 0.419026 0.001875
0.665194 0.418594 0.001676
0.705563 0.418162 0.001478
0.744714 0.417732 0.001280
0.782436 0.417302 0.001083
0.818519 0.416874 0.000887
0.852756 0.416447 0.000692
0.884942 0.416021 0.000498
0.914873 0.415595 0.000304
0.942346 0.415171 0.000111
0.967161 0.414747 0.000000
0.989119 0.414324 0.000000
1.000000 0.413902 0.000000
1.000000 0.413795 0.000000
1.000000 0.413795 0.000000
1.000000 0.413795 0.000000
1.000000 0.413795 0.000000
0.010833 0.460911 0.004676
0.036465 0.460418 0.004445
0.064970 0.459939 0.004221
0.096118 0.459467 0.004001
0.129638 0.459001 0.003784
0.165252 0.458540 0.003570
0.202692 0.458083 0.003358
0.241696 0.457629 0.003148
0.282006 0.457178 0.002939
0.323375 0.456729 0.002732
0.365557 0.456282 0.002527
0.408313 0.455838 0.002322
0.451409 0.455395 0.002119
0.494613 0.454954 0.001917
0.537699 0.454514 0.001716
0.580441 0.454076 0.001515
0.622620 0.453639 0.001316
0.664016 0.453204 0.001118
0.704414 0.452769 0.000921
0.743600 0.452336 0.000724
0.781364 0.451904 0.000528
0.817495 0.451473 0.000333
0.851787 0.451043 0.000139
0.884034 0.450613 0.000000
0.914032 0.450185 0.000000
0.941578 0.449757 0.000000
0.966473 0.449331 0.000000
0.988516 0.448905 0.000000
1.000000 0.448480 0.000000
1.000000 0.448372 0.000000
1.000000 0.448372 0.000000
1.000000 0.448372 0.000000
1.000000 0.448372 0.000000
0.010230 0.495879 0.004101
0.035763 0.495385 0.003871
0.064179 0.494904 0.003648
0.095249 0.494431 0.003429
0.128698 0.493964 0.003213
0.164250 0.493502 0.003000
0.201636 0.493044 0.002789
0.240592 0.492589 0.002580
0.280863 0.492136 0.002373
0.322200 0.491686 0.002166
0.364357 0.491238 0.001962
0.407095 0.490793 0.001758
0.450179 0.490349 0.001556
0.493379 0.489906 0.001355
0.536467 0.489465 0.001155
0.579219 0.489026 0.000955
0.621413 0.488588 0.000757
0.662832 0.488151 0.000560
0.703259 0.487715 0.000363
0.742480 0.487281 0.000168
0.780286 0.486847 0.000000
0.816465 0.486415 0.000000
0.850812 0.485983 0.000000
0.883119 0.485552 0.000000
0.913184 0.485123 0.000000
0.940804 0.484694 0.000000
0.965778 0.484265 0.000000
0.987907 0.483838 0.000000
1.000000 0.483411 0.000000
1.000000 0.483303 0.000000
1.000000 0.483303 0.000000
1.000000 0.483303 0.000000
1.000000 0.483303 0.000000
0.009627 0.531023 0.003525
0.035060 0.530529 0.003297
0.063387 0.530049 0.003075
0.094378 0.529577 0.002857
0.127755 0.529111 0.002643
0.163245 0.528649 0.002430
0.200576 0.528191 0.002220
0.239485 0.527736 0.002012
0.279716 0.527284 0.001806
0.321020 0.526835 0.001601
0.363151 0.526387 0.001397
0.405871 0.525942 0.001194
0.448944 0.525498 0.000993
0.492140 0.525056 0.000793
0.535230 0.524616 0.000594
0.577991 0.524177 0.000395
0.620200 0.523739 0.000198
0.661641 0.523302 0.000002
0.702097 0.522867 0.000000
0.741354 0.522432 0.000000
0.779201 0.521999 0.000000
0.815429 0.521567 0.000000
0.849830 0.521135 0.000000
0.882199 0.520705 0.000000
0.912331 0.520275 0.000000
0.940024 0.519846 0.000000
0.965078 0.519418 0.000000
0.987294 0.518991 0.000000
1.000000 0.518564 0.000000
1.000000 0.518456 0.000000
1.000000 0.518456 0.000000
1.000000 0.518456 0.000000
1.000000 0.518456 0.000000
0.009024 0.566207 0.002951
0.034357 0.565716 0.002723
0.062594 0.565238 0.002502
0.093504 0.564768 0.002286
0.126811 0.564304 0.002072
0.162237 0.563845 0.001861
0.199512 0.563389 0.001652
0.238374 0.562937 0.001445
0.278565 0.562487 0.001239
0.319836 0.562039 0.001035
0.361942 0.561594 0.000832
0.404643 0.561151 0.000631
0.447704 0.560709 0.000431
0.490895 0.560269 0.000231
0.533987 0.559830 0.000033
0.576756 0.559393 0.000000
0.618982 0.558957 0.000000
0.660445 0.558523 0.000000
0.700929 0.558089 0.000000
0.740222 0.557656 0.000000
0.778111 0.557225 0.000000
0.814387 0.556794 0.000000
0.848842 0.556365 0.000000
0.881272 0.555936 0.000000
0.911472 0.555508 0.000000
0.939239 0.555081 0.000000
0.964373 0.554654 0.000000
0.986674 0.554228 0.000000
1.000000 0.553803 0.000000
1.000000 0.553696 0.000000
1.000000 0.553696 0.000000
1.000000 0.553696 0.000000
1.000000 0.553696 0.000000
0.008421 0.601293 0.002376
0.033653 0.600807 0.002150
0.061800 0.600333 0.001930
0.092630 0.599867 0.001714
0.125864 0.599407 0.001502
0.161226 0.598952 0.001292
0.198446 0.598500 0.001084
0.237259 0.598051 0.000878
0.277410 0.597605 0.000673
0.318648 0.597162 0.000470
0.360727 0.596720 0.000268
0.403410 0.596280 0.000068
0.446459 0.595842 0.000000
0.489645 0.595406 0.000000
0.532739 0.594971 0.000000
0.575517 0.594537 0.000000
0.617758 0.594105 0.000000
0.659243 0.593674 0.000000
0.699756 0.593243 0.000000
0.739084 0.592814 0.000000
0.777014 0.592386 0.000000
0.813339 0.591959 0.000000
0.847849 0.591533 0.000000
0.880340 0.591107 0.000000
0.910607 0.590683 0.000000
0.938448 0.590259 0.000000
0.963662 0.589835 0.000000
0.986050 0.589413 0.000000
1.000000 0.588991 0.000000
1.000000 0.588884 0.000000
1.000000 0.588884 0.000000
1.000000 0.588884 0.000000
1.000000 0.588884 0.000000
0.007819 0.636141 0.001802
0.032949 0.635661 0.001577
0.061005 0.635193 0.001358
0.091754 0.634733 0.001144
0.124915 0.634279 0.000932
0.160214 0.633829 0.000723
0.197377 0.633383 0.000516
0.236142 0.632940 0.000311
0.276252 0.632499 0.000108
0.317455 0.632061 0.000000
0.359509 0.631625 0.000000
0.402172 0.631190 0.000000
0.445209 0.630758 0.000000
0.488390 0.630327 0.000000
0.531485 0.629897 0.000000
0.574272 0.629468 0.000000
0.616528 0.629041 0.000000
0.658035 0.628615 0.000000
0.698577 0.628190 0.000000
0.737940 0.627766 0.000000
0.775912 0.627343 0.000000
0.812285 0.626921 0.000000
0.846850 0.626499 0.000000
0.879402 0.626079 0.000000
0.909736 0.625659 0.000000
0.937651 0.625240 0.000000
0.962946 0.624821 0.000000
0.985420 0.624404 0.000000
1.000000 0.623987 0.000000
1.000000 0.623881 0.000000
1.000000 0.623881 0.000000
1.000000 0.623881 0.000000
1.000000 0.623881 0.000000
0.007217 0.670607 0.001229
0.032244 0.670135 0.001005
0.060210 0.669675 0.000787
0.090876 0.669223 0.000574
0.123965 0.668776 0.000363
0.159199 0.668334 0.000155
0.196305 0.667895 0.000000
0.235021 0.667459 0.000000
0.275090 0.667026 0.000000
0.316260 0.666594 0.000000
0.358286 0.666165 0.000000
0.400930 0.665738 0.000000
0.443955 0.665312 0.000000
0.487130 0.664888 0.000000
0.530227 0.664465 0.000000
0.573022 0.664044 0.000000
0.615293 0.663623 0.000000
0.656822 0.663204 0.000000
0.697393 0.662785 0.000000
0.736791 0.662368 0.000000
0.774805 0.661952 0.000000
0.811225 0.661536 0.000000
0.845845 0.661121 0.000000
0.878458 0.660707 0.000000
0.908861 0.660294 0.000000
0.936850 0.659882 0.000000
0.962224 0.659470 0.000000
0.984785 0.659058 0.000000
1.000000 0.658648 0.000000
1.000000 0.658544 0.000000
1.000000 0.658544 0.000000
1.000000 0.658544 0.000000
1.000000 0.658544 0.000000
0.006615 0.704546 0.000656
0.031540 0.704083 0.000433
0.059414 0.703633 0.000217
0.089998 0.703190 0.000004
0.123013 0.702753 0.000000
0.158182 0.702320 0.000000
0.195231 0.701890 0.000000
0.233898 0.701463 0.000000
0.273925 0.701039 0.000000
0.315060 0.700616 0.000000
0.357060 0.700196 0.000000
0.399684 0.699777 0.000000
0.442696 0.699360 0.000000
0.485866 0.698945 0.000000
0.528964 0.698531 0.000000
0.571767 0.698118 0.000000
0.614054 0.697706 0.000000
0.655604 0.697295 0.000000
0.696203 0.696885 0.000000
0.735636 0.696476 0.000000
0.773692 0.696068 0.000000
0.810161 0.695660 0.000000
0.844835 0.695254 0.000000
0.877509 0.694848 0.000000
0.907979 0.694443 0.000000
0.936042 0.694039 0.000000
0.961498 0.693635 0.000000
