luts/grand-budapest-hotel.cube
# CineLUT — The Grand Budapest Hotel (2014)
# Gerado por generate_luts.py
LUT_3D_SIZE 9
0.021093 0.000000 0.014488
0.145303 0.000000 0.013529
0.300888 0.000000 0.012619
0.471599 0.000000 0.011735
0.642323 0.000000 0.010870
0.798854 0.000000 0.010020
0.927629 0.000000 0.009183
1.000000 0.000000 0.008357
1.000000 0.000000 0.008305
0.019647 0.040280 0.013102
0.143130 0.039172 0.012153
0.298288 0.038119 0.011252
0.468832 0.037094 0.010376
0.639635 0.036090 0.009520
0.796481 0.035102 0.008678
0.925801 0.034127 0.007849
1.000000 0.033165 0.007031
1.000000 0.033105 0.006980
0.017385 0.123714 0.010936
0.139708 0.122275 0.010001
0.294180 0.120904 0.009114
0.464452 0.119568 0.008252
0.635372 0.118255 0.007408
0.792709 0.116962 0.006580
0.922884 0.115683 0.005764
1.000000 0.114419 0.004960
1.000000 0.114339 0.004910
0.015032 0.231873 0.008685
0.136120 0.230178 0.007766
0.289858 0.228563 0.006893
0.459832 0.226986 0.006046
0.630865 0.225435 0.005217
0.788710 0.223905 0.004403
0.919777 0.222391 0.003601
1.000000 0.220891 0.002811
1.000000 0.220796 0.002761
0.012639 0.358383 0.006399
0.132439 0.356527 0.005496
0.285406 0.354756 0.004639
0.455061 0.353025 0.003807
0.626199 0.351322 0.002993
0.784558 0.349639 0.002193
0.916536 0.347974 0.001406
1.000000 0.346322 0.000631
1.000000 0.346218 0.000582
0.010230 0.495879 0.004101
0.128698 0.493964 0.003213
0.280863 0.492136 0.002373
0.450179 0.490349 0.001556
0.621413 0.488588 0.000757
0.780286 0.486847 0.000000
0.913184 0.485123 0.000000
1.000000 0.483411 0.000000
1.000000 0.483303 0.000000
0.007819 0.636141 0.001802
0.124915 0.634279 0.000932
0.276252 0.632499 0.000108
0.445209 0.630758 0.000000
0.616528 0.629041 0.000000
0.775912 0.627343 0.000000
0.909736 0.625659 0.000000
1.000000 0.623987 0.000000
1.000000 0.623881 0.000000
0.005415 0.770247 0.000000
0.121106 0.768553 0.000000
0.271586 0.766932 0.000000
0.440167 0.765345 0.000000
0.611559 0.763780 0.000000
0.771450 0.762229 0.000000
0.906201 0.760690 0.000000
1.000000 0.759161 0.000000
1.000000 0.759065 0.000000
0.003026 0.888675 0.000000
0.117278 0.887270 0.000000
0.266877 0.885924 0.000000
0.435063 0.884604 0.000000
0.606517 0.883300 0.000000
0.766907 0.882007 0.000000
0.902585 0.880722 0.000000
1.000000 0.879444 0.000000
1.000000 0.879363 0.000000
0.020800 0.000000 0.116348
0.144863 0.000000 0.114931
0.300363 0.000000 0.113583
0.471041 0.000000 0.112268
0.641781 0.000000 0.110977
0.798375 0.000000 0.109705
0.927260 0.000000 0.108448
1.000000 0.000000 0.107204
1.000000 0.000000 0.107126
0.019357 0.039956 0.114299
0.142692 0.038849 0.112889
0.297763 0.037797 0.111547
0.468274 0.036774 0.110239
0.639092 0.035772 0.108954
0.796001 0.034785 0.107688
0.925430 0.033812 0.106437
1.000000 0.032852 0.105199
1.000000 0.032791 0.105121
0.017098 0.123293 0.111075
0.139273 0.121855 0.109676
0.293657 0.120486 0.108344
0.463894 0.119151 0.107045
0.634828 0.117839 0.105770
0.792227 0.116547 0.104514
0.922510 0.115270 0.103272
1.000000 0.114006 0.102044
1.000000 0.113926 0.101967
0.014750 0.231378 0.107699
0.135688 0.229684 0.106311
0.289337 0.228069 0.104990
0.459274 0.226493 0.103702
0.630320 0.224943 0.102437
0.788226 0.223413 0.101191
0.919400 0.221900 0.099960
1.000000 0.220401 0.098742
1.000000 0.220307 0.098666
0.012362 0.357841 0.104240
0.132010 0.355985 0.102863
0.284887 0.354214 0.101553
0.454504 0.352484 0.100276
0.625653 0.350781 0.099022
0.784071 0.349099 0.097787
0.916155 0.347434 0.096567
1.000000 0.345782 0.095360
1.000000 0.345678 0.095284
0.009958 0.495319 0.100727
0.128272 0.493405 0.099363
0.280346 0.491577 0.098064
0.449622 0.489789 0.096799
0.620866 0.488028 0.095556
0.779797 0.486288 0.094332
0.912799 0.484563 0.093123
1.000000 0.482852 0.091927
1.000000 0.482744 0.091852
0.007551 0.635597 0.097181
0.124493 0.633735 0.095829
0.275736 0.631954 0.094543
0.444652 0.630213 0.093289
0.615980 0.628496 0.092058
0.775421 0.626797 0.090845
0.909348 0.625113 0.089648
1.000000 0.623440 0.088463
1.000000 0.623335 0.088389
0.005152 0.769752 0.093614
0.120687 0.768057 0.092275
0.271072 0.766436 0.091000
0.439610 0.764848 0.089759
0.611010 0.763282 0.088540
0.770956 0.761730 0.087339
0.905809 0.760191 0.086153
1.000000 0.758661 0.084980
1.000000 0.758564 0.084907
0.002768 0.888265 0.090034
0.116862 0.886859 0.088709
0.266365 0.885512 0.087447
0.434507 0.884191 0.086218
0.605967 0.882885 0.085011
0.766411 0.881591 0.083822
0.902189 0.880305 0.082648
1.000000 0.879025 0.081488
1.000000 0.878944 0.081415
0.020503 0.000000 0.253130
0.144417 0.000000 0.251399
0.299829 0.000000 0.249750
0.470472 0.000000 0.248139
0.641229 0.000000 0.246555
0.797888 0.000000 0.244991
0.926886 0.000000 0.243443
1.000000 0.000000 0.241910
1.000000 0.000000 0.241814
0.019062 0.039626 0.250627
0.142248 0.038521 0.248900
0.297230 0.037471 0.247254
0.467706 0.036450 0.245647
0.638540 0.035449 0.244067
0.795512 0.034464 0.242507
0.925053 0.033493 0.240963
1.000000 0.032534 0.239434
1.000000 0.032473 0.239337
0.016808 0.122865 0.246675
0.138831 0.121428 0.244955
0.293125 0.120060 0.243315
0.463326 0.118727 0.241714
0.634275 0.117417 0.240140
0.791736 0.116125 0.238586
0.922130 0.114849 0.237048
1.000000 0.113587 0.235525
1.000000 0.113507 0.235429
0.014464 0.230874 0.242521
0.135249 0.229181 0.240808
0.288807 0.227567 0.239175
0.458707 0.225992 0.237580
0.629765 0.224443 0.236012
0.787733 0.222914 0.234465
0.919016 0.221402 0.232933
1.000000 0.219903 0.231416
1.000000 0.219809 0.231321
0.012081 0.357289 0.238246
0.131575 0.355434 0.236540
0.284358 0.353663 0.234914
0.453937 0.351934 0.233327
0.625098 0.350231 0.231766
0.783576 0.348550 0.230225
0.915767 0.346885 0.228700
1.000000 0.345234 0.227190
1.000000 0.345130 0.227095
0.009681 0.494751 0.233888
0.127840 0.492836 0.232190
0.279819 0.491008 0.230571
0.449055 0.489220 0.228991
0.620309 0.487460 0.227437
0.779299 0.485719 0.225903
0.912408 0.483995 0.224385
1.000000 0.482283 0.222882
1.000000 0.482176 0.222787
0.007280 0.635044 0.229468
0.124064 0.633181 0.227778
0.275211 0.631400 0.226167
0.444086 0.629658 0.224594
0.615422 0.627941 0.223047
0.774920 0.626241 0.221520
0.908952 0.624557 0.220010
1.000000 0.622884 0.218514
1.000000 0.622779 0.218420
0.004886 0.769249 0.225001
0.120261 0.767553 0.223319
0.270549 0.765931 0.221716
0.439045 0.764342 0.220151
0.610452 0.762775 0.218611
0.770453 0.761223 0.217092
0.905409 0.759683 0.215590
1.000000 0.758152 0.214102
1.000000 0.758055 0.214008
0.002507 0.887848 0.220498
0.116440 0.886440 0.218824
0.265845 0.885092 0.217229
0.433942 0.883769 0.215672
0.605407 0.882463 0.214140
0.765906 0.881167 0.212629
0.901786 0.879880 0.211134
0.999902 0.878599 0.209654
1.000000 0.878518 0.209561
0.020213 0.000000 0.406469
0.143981 0.000000 0.404580
0.299307 0.000000 0.402777
0.469918 0.000000 0.401014
0.640690 0.000000 0.399279
0.797412 0.000000 0.397565
0.926519 0.000000 0.395867
1.000000 0.000000 0.394183
1.000000 0.000000 0.394077
0.018775 0.039305 0.403735
0.141814 0.038202 0.401848
0.296710 0.037153 0.400046
0.467151 0.036133 0.398285
0.638000 0.035134 0.396552
0.795035 0.034150 0.394839
0.924684 0.033181 0.393142
1.000000 0.032223 0.391460
1.000000 0.032163 0.391354
0.016525 0.122448 0.399411
0.138400 0.121012 0.397526
0.292606 0.119645 0.395727
0.462772 0.118313 0.393968
0.633734 0.117004 0.392237
0.791257 0.115714 0.390527
0.921758 0.114439 0.388833
1.000000 0.113178 0.387153
1.000000 0.113098 0.387047
0.014185 0.230382 0.394854
0.134821 0.228690 0.392972
0.288289 0.227078 0.391175
0.458153 0.225503 0.389419
0.629224 0.223955 0.387691
0.787251 0.222427 0.385983
0.918640 0.220915 0.384292
1.000000 0.219418 0.382614
1.000000 0.219323 0.382509
0.011806 0.356750 0.390153
0.131150 0.354895 0.388273
0.283843 0.353126 0.386479
0.453383 0.351396 0.384726
0.624555 0.349694 0.383001
0.783092 0.348013 0.381296
0.915387 0.346349 0.379607
1.000000 0.344698 0.377933
1.000000 0.344594 0.377827
0.009412 0.494195 0.385346
0.127418 0.492280 0.383470
0.279305 0.490452 0.381679
0.448502 0.488665 0.379929
0.619766 0.486904 0.378206
0.778812 0.485164 0.376504
0.912024 0.483439 0.374819
1.000000 0.481728 0.373148
1.000000 0.481620 0.373042
0.007015 0.634503 0.380458
0.123646 0.632640 0.378585
0.274699 0.630859 0.376797
0.443533 0.629116 0.375050
0.614878 0.627398 0.373331
0.774432 0.625699 0.371632
0.908565 0.624014 0.369950
1.000000 0.622341 0.368282
1.000000 0.622235 0.368177
0.004626 0.768757 0.375503
0.119846 0.767060 0.373634
0.270039 0.765438 0.371850
0.438492 0.763848 0.370106
0.609906 0.762280 0.368390
0.769962 0.760727 0.366695
0.905019 0.759186 0.365016
1.000000 0.757654 0.363352
1.000000 0.757558 0.363247
0.002252 0.887440 0.370494
0.116029 0.886031 0.368628
0.265337 0.884681 0.366847
0.433390 0.883357 0.365108
0.604861 0.882050 0.363395
0.765413 0.880753 0.361703
0.901392 0.879465 0.360028
0.999652 0.878182 0.358367
1.000000 0.878102 0.358262
0.019928 0.000000 0.564478
0.143553 0.000000 0.562575
0.298794 0.000000 0.560757
0.469371 0.000000 0.558978
0.640159 0.000000 0.557226
0.796944 0.000000 0.555493
0.926158 0.000000 0.553776
1.000000 0.000000 0.552071
1.000000 0.000000 0.551963
0.018493 0.038989 0.561724
0.141387 0.037887 0.559819
0.296197 0.036841 0.558000
0.466605 0.035822 0.556221
0.637468 0.034824 0.554468
0.794565 0.033843 0.552734
0.924321 0.032874 0.551016
1.000000 0.031918 0.549311
1.000000 0.031858 0.549203
0.016246 0.122037 0.557359
0.137976 0.120603 0.555454
0.292096 0.119237 0.553633
0.462226 0.117906 0.551853
0.633201 0.116598 0.550099
0.790784 0.115309 0.548364
0.921391 0.114036 0.546644
1.000000 0.112776 0.544938
1.000000 0.112696 0.544830
0.013911 0.229899 0.552750
0.134400 0.228208 0.550843
0.287780 0.226596 0.549022
0.457607 0.225022 0.547240
0.628690 0.223474 0.545484
0.786776 0.221947 0.543749
0.918269 0.220436 0.542028
1.000000 0.218940 0.540321
1.000000 0.218845 0.540213
0.011537 0.356220 0.547984
0.130732 0.354366 0.546076
0.283335 0.352596 0.544253
0.452837 0.350868 0.542470
0.624021 0.349166 0.540714
0.782615 0.347485 0.538977
0.915013 0.345821 0.537255
1.000000 0.344171 0.535547
1.000000 0.344067 0.535439
0.009147 0.493648 0.543101
0.127003 0.491734 0.541191
0.278799 0.489905 0.539368
0.447957 0.488118 0.537584
0.619230 0.486357 0.535826
0.778333 0.484617 0.534088
0.911647 0.482892 0.532366
1.000000 0.481181 0.530656
1.000000 0.481073 0.530549
0.006755 0.633971 0.538123
0.123234 0.632107 0.536212
0.274195 0.630326 0.534387
0.442989 0.628583 0.532603
0.614341 0.626865 0.530844
0.773950 0.625165 0.529105
0.908184 0.623480 0.527382
1.000000 0.621806 0.525672
1.000000 0.621701 0.525564
0.004371 0.768273 0.533065
0.119438 0.766575 0.531154
0.269537 0.764952 0.529328
0.437948 0.763361 0.527542
0.609369 0.761792 0.525783
0.769478 0.760239 0.524044
0.904634 0.758697 0.522320
1.000000 0.757165 0.520609
1.000000 0.757068 0.520501
0.002002 0.887038 0.527939
0.115624 0.885627 0.526027
0.264837 0.884277 0.524200
0.432846 0.882952 0.522414
0.604323 0.881643 0.520654
0.764926 0.880345 0.518914
0.901003 0.879055 0.517190
0.999405 0.877772 0.515478
1.000000 0.877691 0.515370
0.019647 0.000000 0.715999
0.143129 0.000000 0.714221
0.298287 0.000000 0.712520
0.468831 0.000000 0.710856
0.639634 0.000000 0.709214
0.796480 0.000000 0.707589
0.925800 0.000000 0.705978
1.000000 0.000000 0.704376
1.000000 0.000000 0.704275
0.018214 0.038677 0.713425
0.140966 0.037577 0.711643
0.295691 0.036532 0.709940
0.466065 0.035516 0.708272
0.636943 0.034519 0.706628
0.794100 0.033539 0.705000
0.923961 0.032572 0.703385
1.000000 0.031618 0.701781
1.000000 0.031558 0.701680
0.015972 0.121632 0.709339
0.137557 0.120199 0.707552
0.291591 0.118834 0.705844
0.461686 0.117504 0.704172
0.632675 0.116198 0.702522
0.790317 0.114910 0.700890
0.921028 0.113637 0.699270
1.000000 0.112378 0.697661
1.000000 0.112299 0.697560
0.013641 0.229421 0.705015
0.133984 0.227731 0.703222
0.287277 0.226119 0.701509
0.457068 0.224547 0.699831
0.628163 0.223000 0.698177
0.786307 0.221473 0.696540
0.917903 0.219964 0.694915
1.000000 0.218468 0.693302
1.000000 0.218373 0.693200
0.011271 0.355697 0.700532
0.130319 0.353843 0.698735
0.282834 0.352074 0.697016
0.452299 0.350345 0.695333
0.623492 0.348644 0.693674
0.782143 0.346964 0.692032
0.914643 0.345300 0.690403
1.000000 0.343650 0.688785
1.000000 0.343547 0.688682
0.008886 0.493107 0.695928
0.126593 0.491193 0.694125
0.278300 0.489365 0.692401
0.447418 0.487577 0.690713
0.618701 0.485817 0.689049
0.777859 0.484076 0.687402
0.911273 0.482352 0.685768
1.000000 0.480641 0.684145
1.000000 0.480533 0.684043
0.006498 0.633445 0.691224
0.122828 0.631581 0.689415
0.273697 0.629799 0.687686
0.442451 0.628056 0.685993
0.613811 0.626337 0.684324
0.773474 0.624637 0.682672
0.907807 0.622951 0.681033
1.000000 0.621277 0.679406
1.000000 0.621172 0.679303
0.004119 0.767794 0.686432
0.119035 0.766095 0.684618
0.269041 0.764471 0.682883
0.437411 0.762880 0.681185
0.608838 0.761310 0.679511
0.769000 0.759756 0.677855
0.904253 0.758213 0.676212
1.000000 0.756680 0.674579
1.000000 0.756584 0.674477
0.001755 0.886640 0.681563
0.115224 0.885228 0.679743
0.264343 0.883876 0.678004
0.432309 0.882550 0.676301
0.603791 0.881240 0.674622
0.764446 0.879941 0.672961
0.900619 0.878650 0.671313
0.999161 0.877366 0.669676
1.000000 0.877285 0.669573
0.019369 0.000000 0.850397
0.142710 0.000000 0.848879
0.297785 0.000000 0.847426
0.468297 0.000000 0.846001
0.639114 0.000000 0.844594
0.796021 0.000000 0.843200
0.925446 0.000000 0.841816
1.000000 0.000000 0.840439
1.000000 0.000000 0.840352
0.017939 0.038369 0.848199
0.140548 0.037271 0.846675
0.295190 0.036227 0.845216
0.465530 0.035212 0.843786
0.636422 0.034217 0.842374
0.793639 0.033238 0.840975
0.923605 0.032273 0.839586
1.000000 0.031320 0.838203
1.000000 0.031260 0.838116
0.015700 0.121231 0.844702
0.137143 0.119799 0.843169
0.291091 0.118435 0.841701
0.461152 0.117106 0.840263
0.632154 0.115801 0.838842
0.789855 0.114514 0.837435
0.920668 0.113243 0.836037
1.000000 0.111985 0.834647
1.000000 0.111906 0.834560
0.013374 0.228948 0.840988
0.133573 0.227258 0.839446
0.286779 0.225648 0.837969
0.456534 0.224076 0.836522
0.627641 0.222530 0.835093
0.785842 0.221004 0.833677
0.917540 0.219495 0.832271
1.000000 0.218000 0.830873
1.000000 0.217906 0.830784
0.011008 0.355178 0.837127
0.129910 0.353324 0.835575
0.282337 0.351556 0.834089
0.451765 0.349828 0.832633
0.622969 0.348127 0.831195
0.781676 0.346447 0.829770
0.914277 0.344784 0.828356
1.000000 0.343135 0.826949
1.000000 0.343031 0.826860
0.008627 0.492572 0.833148
0.126188 0.490658 0.831586
0.277805 0.488830 0.830091
0.446885 0.487042 0.828626
0.618177 0.485282 0.827179
0.777390 0.483541 0.825746
0.910903 0.481817 0.824322
1.000000 0.480106 0.822907
1.000000 0.479998 0.822818
0.006245 0.632924 0.829069
0.122425 0.631059 0.827497
0.273204 0.629277 0.825993
0.441918 0.627533 0.824518
0.613286 0.625814 0.823063
0.773002 0.624114 0.821621
0.907433 0.622428 0.820189
1.000000 0.620754 0.818765
1.000000 0.620648 0.818675
0.003870 0.767319 0.824901
0.118636 0.765620 0.823319
0.268550 0.763995 0.821805
0.436878 0.762403 0.820322
0.608312 0.760832 0.818857
0.768526 0.759277 0.817406
0.903876 0.757734 0.815966
1.000000 0.756200 0.814533
1.000000 0.756103 0.814443
0.001511 0.886246 0.820652
0.114829 0.884833 0.819060
0.263853 0.883480 0.817537
0.431778 0.882152 0.816044
0.603264 0.880841 0.814571
0.763970 0.879541 0.813111
0.900237 0.878249 0.811662
0.998919 0.876964 0.810221
1.000000 0.876882 0.810130
0.019094 0.000000 0.957433
0.142295 0.000000 0.956307
0.297287 0.000000 0.955226
0.467766 0.000000 0.954165
0.638598 0.000000 0.953114
0.795564 0.000000 0.952071
0.925093 0.000000 0.951033
1.000000 0.000000 0.949998
1.000000 0.000000 0.949933
0.017666 0.038064 0.955801
0.140135 0.036967 0.954667
0.294693 0.035925 0.953579
0.465000 0.034911 0.952510
0.635906 0.033918 0.951452
0.793182 0.032940 0.950401
0.923250 0.031977 0.949356
1.000000 0.031025 0.948314
1.000000 0.030965 0.948248
0.015431 0.120833 0.953194
0.136732 0.119402 0.952047
0.290596 0.118040 0.950947
0.460622 0.116712 0.949866
0.631636 0.115408 0.948796
0.789395 0.114122 0.947734
0.920310 0.112852 0.946677
1.000000 0.111596 0.945623
1.000000 0.111517 0.945557
0.013109 0.228479 0.950411
0.133164 0.226790 0.949250
0.286285 0.225181 0.948137
0.456004 0.223609 0.947043
0.627122 0.222064 0.945961
0.785380 0.220539 0.944887
0.917179 0.219031 0.943818
1.000000 0.217537 0.942753
1.000000 0.217443 0.942685
0.010748 0.354663 0.947501
0.129505 0.352810 0.946326
0.281845 0.351042 0.945200
0.451235 0.349314 0.944093
0.622450 0.347614 0.942998
0.781212 0.345935 0.941912
0.913912 0.344272 0.940830
1.000000 0.342623 0.939753
1.000000 0.342519 0.939685
0.008371 0.492041 0.944485
0.125786 0.490126 0.943296
0.277314 0.488298 0.942156
0.446356 0.486511 0.941037
0.617656 0.484750 0.939929
0.776924 0.483010 0.938830
0.910535 0.481286 0.937736
1.000000 0.479575 0.936646
1.000000 0.479467 0.936578
0.005994 0.632406 0.941376
0.122026 0.630541 0.940173
0.272715 0.628759 0.939019
0.441389 0.627015 0.937887
0.612765 0.625295 0.936766
0.772534 0.623595 0.935654
0.907062 0.621908 0.934548
1.000000 0.620234 0.933446
1.000000 0.620128 0.933376
0.003624 0.766848 0.938181
0.118240 0.765148 0.936964
0.268063 0.763522 0.935797
0.436350 0.761929 0.934651
0.607789 0.760358 0.933517
0.768055 0.758802 0.932392
0.903501 0.757258 0.931274
1.000000 0.755724 0.930159
1.000000 0.755627 0.930089
0.001270 0.885854 0.934906
0.114436 0.884440 0.933675
0.263368 0.883085 0.932494
0.431250 0.881757 0.931335
0.602741 0.880445 0.930188
0.763497 0.879143 0.929050
0.899859 0.877850 0.927919
0.998677 0.876564 0.926792
1.000000 0.876483 0.926721
0.018847 0.000000 1.000000
0.141922 0.000000 1.000000
0.296840 0.000000 1.000000
0.467290 0.000000 1.000000
0.638135 0.000000 1.000000
0.795155 0.000000 1.000000
0.924777 0.000000 1.000000
1.000000 0.000000 1.000000
1.000000 0.000000 1.000000
0.017421 0.037790 1.000000
0.139763 0.036694 1.000000
0.294247 0.035654 1.000000
0.464524 0.034641 1.000000
0.635442 0.033649 1.000000
0.792771 0.032673 1.000000
0.922932 0.031711 1.000000
1.000000 0.030761 1.000000
1.000000 0.030701 1.000000
0.015190 0.120476 1.000000
0.136363 0.119046 1.000000
0.290151 0.117685 1.000000
0.460146 0.116358 1.000000
0.631171 0.115055 1.000000
0.788982 0.113771 1.000000
0.919989 0.112502 1.000000
1.000000 0.111246 1.000000
1.000000 0.111167 1.000000
0.012872 0.228057 1.000000
0.132798 0.226370 1.000000
0.285841 0.224761 1.000000
0.455528 0.223190 1.000000
0.626656 0.221646 1.000000
0.784965 0.220122 1.000000
0.916854 0.218614 1.000000
1.000000 0.217121 1.000000
1.000000 0.217026 1.000000
0.010515 0.354201 1.000000
0.129141 0.352348 1.000000
0.281403 0.350581 1.000000
0.450760 0.348854 1.000000
0.621983 0.347154 1.000000
0.780795 0.345474 1.000000
0.913585 0.343812 1.000000
1.000000 0.342164 1.000000
1.000000 0.342060 1.000000
0.008142 0.491563 1.000000
0.125425 0.489649 1.000000
0.276874 0.487821 1.000000
0.445881 0.486034 1.000000
0.617189 0.484273 1.000000
0.776505 0.482533 1.000000
0.910204 0.480809 1.000000
1.000000 0.479098 1.000000
1.000000 0.478990 1.000000
0.005768 0.631941 1.000000
0.121668 0.630076 1.000000
0.272277 0.628293 1.000000
0.440914 0.626549 1.000000
0.612297 0.624829 1.000000
0.772113 0.623128 1.000000
0.906728 0.621441 1.000000
1.000000 0.619767 1.000000
1.000000 0.619661 1.000000
0.003403 0.766424 1.000000
0.117885 0.764724 1.000000
0.267626 0.763097 1.000000
0.435876 0.761504 1.000000
0.607320 0.759932 1.000000
0.767632 0.758375 1.000000
0.903164 0.756831 1.000000
1.000000 0.755296 1.000000
1.000000 0.755199 1.000000
0.001053 0.885502 1.000000
0.114084 0.884087 1.000000
0.262933 0.882731 1.000000
0.430776 0.881402 1.000000
0.602271 0.880088 1.000000
0.763072 0.878786 1.000000
0.899519 0.877492 1.000000
0.998460 0.876204 1.000000
1.000000 0.876123 1.000000
