luts/grand-budapest-hotel.cube
# CineLUT — The Grand Budapest Hotel (2014)
# Gerado por generate_luts.py
LUT_3D_SIZE 5
0.021093 0.000000 0.014488
0.300888 0.000000 0.012619
0.642323 0.000000 0.010870
0.927629 0.000000 0.009183
1.000000 0.000000 0.008305
0.017385 0.123714 0.010936
0.294180 0.120904 0.009114
0.635372 0.118255 0.007408
0.922884 0.115683 0.005764
1.000000 0.114339 0.004910
0.012639 0.358383 0.006399
0.285406 0.354756 0.004639
0.626199 0.351322 0.002993
0.916536 0.347974 0.001406
1.000000 0.346218 0.000582
0.007819 0.636141 0.001802
0.276252 0.632499 0.000108
0.616528 0.629041 0.000000
0.909736 0.625659 0.000000
1.000000 0.623881 0.000000
0.003026 0.888675 0.000000
0.266877 0.885924 0.000000
0.606517 0.883300 0.000000
0.902585 0.880722 0.000000
1.000000 0.879363 0.000000
0.020503 0.000000 0.253130
0.299829 0.000000 0.249750
0.641229 0.000000 0.246555
0.926886 0.000000 0.243443
1.000000 0.000000 0.241814
0.016808 0.122865 0.246675
0.293125 0.120060 0.243315
0.634275 0.117417 0.240140
0.922130 0.114849 0.237048
1.000000 0.113507 0.235429
0.012081 0.357289 0.238246
0.284358 0.353663 0.234914
0.625098 0.350231 0.231766
0.915767 0.346885 0.228700
1.000000 0.345130 0.227095
0.007280 0.635044 0.229468
0.275211 0.631400 0.226167
0.615422 0.627941 0.223047
0.908952 0.624557 0.220010
1.000000 0.622779 0.218420
0.002507 0.887848 0.220498
0.265845 0.885092 0.217229
0.605407 0.882463 0.214140
0.901786 0.879880 0.211134
1.000000 0.878518 0.209561
0.019928 0.000000 0.564478
0.298794 0.000000 0.560757
0.640159 0.000000 0.557226
0.926158 0.000000 0.553776
1.000000 0.000000 0.551963
0.016246 0.122037 0.557359
0.292096 0.119237 0.553633
0.633201 0.116598 0.550099
0.921391 0.114036 0.546644
1.000000 0.112696 0.544830
0.011537 0.356220 0.547984
0.283335 0.352596 0.544253
0.624021 0.349166 0.540714
0.915013 0.345821 0.537255
1.000000 0.344067 0.535439
0.006755 0.633971 0.538123
0.274195 0.630326 0.534387
0.614341 0.626865 0.530844
0.908184 0.623480 0.527382
1.000000 0.621701 0.525564
0.002002 0.887038 0.527939
0.264837 0.884277 0.524200
0.604323 0.881643 0.520654
0.901003 0.879055 0.517190
1.000000 0.877691 0.515370
0.019369 0.000000 0.850397
0.297785 0.000000 0.847426
0.639114 0.000000 0.844594
0.925446 0.000000 0.841816
1.000000 0.000000 0.840352
0.015700 0.121231 0.844702
0.291091 0.118435 0.841701
0.632154 0.115801 0.838842
0.920668 0.113243 0.836037
1.000000 0.111906 0.834560
0.011008 0.355178 0.837127
0.282337 0.351556 0.834089
0.622969 0.348127 0.831195
0.914277 0.344784 0.828356
1.000000 0.343031 0.826860
0.006245 0.632924 0.829069
0.273204 0.629277 0.825993
0.613286 0.625814 0.823063
0.907433 0.622428 0.820189
1.000000 0.620648 0.818675
0.001511 0.886246 0.820652
0.263853 0.883480 0.817537
0.603264 0.880841 0.814571
0.900237 0.878249 0.811662
1.000000 0.876882 0.810130
0.018847 0.000000 1.000000
0.296840 0.000000 1.000000
0.638135 0.000000 1.000000
0.924777 0.000000 1.000000
1.000000 0.000000 1.000000
0.015190 0.120476 1.000000
0.290151 0.117685 1.000000
0.631171 0.115055 1.000000
0.919989 0.112502 1.000000
1.000000 0.111167 1.000000
0.010515 0.354201 1.000000
0.281403 0.350581 1.000000
0.621983 0.347154 1.000000
0.913585 0.343812 1.000000
1.000000 0.342060 1.000000
0.005768 0.631941 1.000000
0.272277 0.628293 1.000000
0.612297 0.624829 1.000000
0.906728 0.621441 1.000000
1.000000 0.619661 1.000000
0.001053 0.885502 1.000000
0.262933 0.882731 1.000000
0.602271 0.880088 1.000000
0.899519 0.877492 1.000000
1.000000 0.876123 1.000000
