luts/joker.cube
# CineLUT — Joker (2019)
# Gerado por generate_luts.py
LUT_3D_SIZE 33
0.004120 0.024123 0.004120
0.004314 0.024139 0.004132
0.012806 0.024800 0.004665
0.023297 0.025541 0.005264
0.035384 0.026321 0.005894
0.048971 0.027129 0.006549
0.064001 0.027960 0.007225
0.080421 0.028811 0.007918
0.098182 0.029680 0.008628
0.117230 0.030567 0.009353
0.137510 0.031468 0.010092
0.158962 0.032385 0.010845
0.181525 0.033316 0.011611
0.205133 0.034260 0.012390
0.229719 0.035218 0.013182
0.255211 0.036188 0.013986
0.281537 0.037171 0.014802
0.308619 0.038166 0.015630
0.336381 0.039173 0.016469
0.364742 0.040192 0.017320
0.393620 0.041223 0.018182
0.422931 0.042265 0.019056
0.452587 0.043318 0.019940
0.482502 0.044382 0.020836
0.512586 0.045457 0.021742
0.542746 0.046543 0.022660
0.572891 0.047640 0.023588
0.602926 0.048748 0.024527
0.632755 0.049866 0.025476
0.662280 0.050995 0.026436
0.691403 0.052134 0.027407
0.720024 0.053283 0.028388
0.748042 0.054443 0.029379
0.007340 0.046160 0.007340
0.007543 0.046178 0.007354
0.016384 0.046949 0.007910
0.027248 0.047811 0.008534
0.039709 0.048717 0.009192
0.053665 0.049654 0.009875
0.069053 0.050617 0.010579
0.085819 0.051602 0.011301
0.103912 0.052607 0.012040
0.123276 0.053630 0.012794
0.143854 0.054670 0.013563
0.165588 0.055725 0.014346
0.188413 0.056795 0.015143
0.212265 0.057879 0.015952
0.237074 0.058977 0.016774
0.262768 0.060089 0.017608
0.289275 0.061213 0.018455
0.316518 0.062350 0.019313
0.344418 0.063499 0.020183
0.372895 0.064659 0.021065
0.401866 0.065832 0.021958
0.431246 0.067016 0.022862
0.460949 0.068212 0.023778
0.490886 0.069419 0.024704
0.520969 0.070636 0.025641
0.551103 0.071865 0.026590
0.581198 0.073104 0.027549
0.611158 0.074354 0.028518
0.640886 0.075614 0.029499
0.670286 0.076885 0.030490
0.699258 0.078166 0.031491
0.727702 0.079458 0.032503
0.755517 0.080759 0.033525
0.010625 0.070854 0.010625
0.010836 0.070875 0.010639
0.020014 0.071744 0.011218
0.031238 0.072715 0.011868
0.044060 0.073735 0.012552
0.058371 0.074789 0.013262
0.074104 0.075871 0.013993
0.091203 0.076977 0.014743
0.109614 0.078104 0.015510
0.129281 0.079250 0.016293
0.150146 0.080414 0.017090
0.172149 0.081594 0.017902
0.195225 0.082789 0.018728
0.219308 0.084000 0.019566
0.244329 0.085224 0.020417
0.270216 0.086462 0.021281
0.296894 0.087714 0.022157
0.324287 0.088978 0.023045
0.352316 0.090254 0.023945
0.380900 0.091542 0.024856
0.409955 0.092843 0.025779
0.439397 0.094155 0.026713
0.469139 0.095478 0.027658
0.499092 0.096813 0.028614
0.529166 0.098158 0.029581
0.559269 0.099514 0.030559
0.589308 0.100881 0.031548
0.619188 0.102258 0.032547
0.648812 0.103646 0.033558
0.678082 0.105044 0.034578
0.706900 0.106452 0.035609
0.735164 0.107871 0.036651
0.762774 0.109299 0.037703
0.013990 0.097973 0.013990
0.014209 0.097996 0.014005
0.023713 0.098954 0.014606
0.035288 0.100024 0.015279
0.048460 0.101147 0.015989
0.063115 0.102307 0.016725
0.079182 0.103497 0.017483
0.096604 0.104712 0.018260
0.115323 0.105949 0.019055
0.135283 0.107206 0.019865
0.156425 0.108482 0.020690
0.178686 0.109774 0.021530
0.202004 0.111083 0.022384
0.226310 0.112406 0.023251
0.251534 0.113745 0.024130
0.277604 0.115097 0.025023
0.304445 0.116462 0.025927
0.331980 0.117841 0.026844
0.360129 0.119232 0.027772
0.388812 0.120635 0.028712
0.417944 0.122050 0.029664
0.447441 0.123477 0.030627
0.477215 0.124915 0.031601
0.507177 0.126364 0.032586
0.537237 0.127824 0.033582
0.567303 0.129295 0.034589
0.597280 0.130776 0.035607
0.627075 0.132268 0.036635
0.656589 0.133769 0.037674
0.685725 0.135281 0.038724
0.714384 0.136803 0.039784
0.742465 0.138335 0.040854
0.769867 0.139876 0.041935
0.017440 0.127278 0.017440
0.017667 0.127303 0.017455
0.027490 0.128341 0.018078
0.039406 0.129500 0.018775
0.052920 0.130716 0.019510
0.067910 0.131971 0.020272
0.084302 0.133257 0.021056
0.102037 0.134570 0.021859
0.121055 0.135907 0.022680
0.141299 0.137264 0.023517
0.162709 0.138639 0.024370
0.185221 0.140033 0.025237
0.208771 0.141443 0.026118
0.233291 0.142869 0.027013
0.258710 0.144309 0.027920
0.284955 0.145764 0.028840
0.311951 0.147231 0.029773
0.339621 0.148712 0.030717
0.367883 0.150206 0.031674
0.396658 0.151712 0.032642
0.425861 0.153230 0.033621
0.455405 0.154759 0.034612
0.485205 0.156299 0.035615
0.515170 0.157851 0.036628
0.545210 0.159413 0.037652
0.575232 0.160986 0.038687
0.605143 0.162569 0.039733
0.634847 0.164163 0.040790
0.664246 0.165766 0.041857
0.693244 0.167380 0.042935
0.721740 0.169003 0.044023
0.749633 0.170635 0.045122
0.776822 0.172277 0.046231
0.020978 0.158534 0.020978
0.021213 0.158561 0.020994
0.031347 0.159671 0.021637
0.043596 0.160909 0.022358
0.057444 0.162208 0.023117
0.072761 0.163548 0.023904
0.089470 0.164921 0.024713
0.107510 0.166322 0.025542
0.126819 0.167746 0.026389
0.147339 0.169192 0.027253
0.169008 0.170658 0.028132
0.191764 0.172142 0.029026
0.215539 0.173642 0.029934
0.240265 0.175159 0.030855
0.265871 0.176690 0.031790
0.292284 0.178235 0.032737
0.319428 0.179794 0.033697
0.347225 0.181367 0.034669
0.375594 0.182951 0.035653
0.404454 0.184548 0.036648
0.433720 0.186157 0.037655
0.463307 0.187777 0.038674
0.493126 0.189409 0.039704
0.523088 0.191051 0.040744
0.553102 0.192704 0.041796
0.583075 0.194367 0.042859
0.612913 0.196041 0.043932
0.642521 0.197724 0.045017
0.671801 0.199417 0.046111
0.700655 0.201120 0.047217
0.728983 0.202832 0.048332
0.756684 0.204554 0.049458
0.783656 0.206285 0.050595
0.024605 0.191514 0.024605
0.024847 0.191543 0.024621
0.035286 0.192716 0.025285
0.047862 0.194025 0.026029
0.062035 0.195397 0.026811
0.077672 0.196813 0.027623
0.094691 0.198262 0.028457
0.113027 0.199741 0.029311
0.132620 0.201244 0.030184
0.153409 0.202769 0.031073
0.175330 0.204314 0.031979
0.198321 0.205877 0.032899
0.222314 0.207457 0.033833
0.247239 0.209053 0.034781
0.273026 0.210665 0.035742
0.299600 0.212291 0.036716
0.326885 0.213930 0.037702
0.354802 0.215582 0.038701
0.383271 0.217247 0.039711
0.412210 0.218924 0.040734
0.441533 0.220613 0.041768
0.471155 0.222313 0.042813
0.500987 0.224024 0.043870
0.530940 0.225746 0.044938
0.560923 0.227478 0.046016
0.590841 0.229220 0.047106
0.620602 0.230973 0.048206
0.650109 0.232735 0.049317
0.679264 0.234506 0.050439
0.707969 0.236287 0.051571
0.736125 0.238077 0.052714
0.763629 0.239876 0.053867
0.790380 0.241684 0.055030
0.028320 0.225999 0.028320
0.028570 0.226028 0.028337
0.039308 0.227258 0.029021
0.052203 0.228629 0.029787
0.066695 0.230065 0.030593
0.082644 0.231547 0.031428
0.099966 0.233063 0.032287
0.118592 0.234609 0.033166
0.138462 0.236181 0.034064
0.159512 0.237774 0.034979
0.181679 0.239388 0.035909
0.204898 0.241021 0.036855
0.229101 0.242671 0.037815
0.254219 0.244337 0.038789
0.280179 0.246018 0.039776
0.306908 0.247713 0.040776
0.334327 0.249422 0.041788
0.362358 0.251144 0.042813
0.390921 0.252878 0.043850
0.419932 0.254625 0.044899
0.449306 0.256383 0.045959
0.478958 0.258152 0.047031
0.508797 0.259932 0.048114
0.538736 0.261722 0.049208
0.568681 0.263522 0.050313
0.598539 0.265333 0.051429
0.628217 0.267153 0.052556
0.657617 0.268982 0.053693
0.686642 0.270821 0.054841
0.715194 0.272669 0.056000
0.743172 0.274525 0.057169
0.770475 0.276390 0.058348
0.796999 0.278264 0.059537
0.032124 0.261773 0.032124
0.032381 0.261804 0.032141
0.043412 0.263082 0.032845
0.056620 0.264506 0.033634
0.071425 0.265998 0.034462
0.087679 0.267536 0.035321
0.105296 0.269111 0.036204
0.124206 0.270715 0.037107
0.144345 0.272345 0.038029
0.165650 0.273998 0.038969
0.188055 0.275671 0.039924
0.211496 0.277363 0.040895
0.235904 0.279072 0.041880
0.261208 0.280798 0.042879
0.287335 0.282538 0.043892
0.314211 0.284293 0.044917
0.341758 0.286061 0.045956
0.369898 0.287842 0.047006
0.398548 0.289635 0.048069
0.427625 0.291441 0.049143
0.457044 0.293257 0.050229
0.486719 0.295084 0.051327
0.516561 0.296922 0.052436
0.546478 0.298770 0.053556
0.576380 0.300628 0.054686
0.606173 0.302496 0.055828
0.635762 0.304373 0.056981
0.665051 0.306259 0.058144
0.693941 0.308154 0.059318
0.722335 0.310058 0.060502
0.750130 0.311970 0.061697
0.777226 0.313890 0.062902
0.803521 0.315819 0.064117
0.036016 0.298630 0.036016
0.036280 0.298662 0.036033
0.047598 0.299980 0.036757
0.061113 0.301450 0.037566
0.076224 0.302989 0.038418
0.092777 0.304575 0.039299
0.110683 0.306197 0.040205
0.129870 0.307850 0.041133
0.150272 0.309530 0.042079
0.171825 0.311232 0.043043
0.194463 0.312955 0.044023
0.218119 0.314696 0.045018
0.242724 0.316455 0.046028
0.268207 0.318230 0.047052
0.294496 0.320020 0.048090
0.321513 0.321824 0.049140
0.349182 0.323641 0.050204
0.377423 0.325471 0.051279
0.406155 0.327313 0.052367
0.435292 0.329166 0.053467
0.464751 0.331031 0.054578
0.494444 0.332906 0.055701
0.524281 0.334792 0.056835
0.554173 0.336687 0.057980
0.584026 0.338592 0.059137
0.613748 0.340507 0.060304
0.643243 0.342430 0.061482
0.672415 0.344362 0.062670
0.701165 0.346303 0.063869
0.729395 0.348252 0.065079
0.757003 0.350209 0.066299
0.783888 0.352174 0.067529
0.809947 0.354146 0.068769
0.039994 0.336366 0.039994
0.040265 0.336399 0.040012
0.051865 0.337750 0.040754
0.065681 0.339257 0.041585
0.081092 0.340833 0.042459
0.097938 0.342458 0.043363
0.116127 0.344120 0.044292
0.135585 0.345813 0.045243
0.156243 0.347532 0.046213
0.178038 0.349274 0.047200
0.200901 0.351037 0.048204
0.224766 0.352818 0.049224
0.249563 0.354617 0.050258
0.275220 0.356432 0.051307
0.301663 0.358261 0.052368
0.328816 0.360104 0.053444
0.356601 0.361961 0.054532
0.384937 0.363829 0.055632
0.413744 0.365710 0.056744
0.442936 0.367602 0.057869
0.472429 0.369505 0.059005
0.502133 0.371418 0.060153
0.531961 0.373340 0.061312
0.561821 0.375273 0.062482
0.591621 0.377215 0.063663
0.621266 0.379165 0.064855
0.650662 0.381125 0.066058
0.679712 0.383092 0.067271
0.708317 0.385068 0.068495
0.736378 0.387052 0.069729
0.763794 0.389043 0.070974
0.790463 0.391042 0.072229
0.816282 0.393048 0.073494
0.044058 0.374781 0.044058
0.044335 0.374814 0.044076
0.056212 0.376192 0.044837
0.070324 0.377727 0.045689
0.086028 0.379333 0.046584
0.103162 0.380988 0.047510
0.121627 0.382681 0.048462
0.141349 0.384404 0.049435
0.162259 0.386154 0.050429
0.184289 0.387927 0.051440
0.207372 0.389720 0.052467
0.231440 0.391532 0.053511
0.256422 0.393361 0.054569
0.282246 0.395205 0.055641
0.308837 0.397064 0.056727
0.336120 0.398937 0.057826
0.364015 0.400823 0.058938
0.392442 0.402721 0.060063
0.421318 0.404630 0.061200
0.450559 0.406550 0.062349
0.480079 0.408481 0.063509
0.509790 0.410421 0.064681
0.539603 0.412372 0.065864
0.569425 0.414331 0.067059
0.599166 0.416299 0.068264
0.628730 0.418276 0.069481
0.658021 0.420261 0.070708
0.686944 0.422253 0.071945
0.715398 0.424254 0.073194
0.743286 0.426262 0.074452
0.770505 0.428277 0.075721
0.796953 0.430299 0.077000
0.822527 0.432328 0.078290
0.048206 0.413679 0.048206
0.048490 0.413713 0.048224
0.060639 0.415110 0.049004
0.075040 0.416665 0.049876
0.091033 0.418293 0.050792
0.108447 0.419970 0.051740
0.127183 0.421684 0.052714
0.147164 0.423429 0.053710
0.168318 0.425200 0.054726
0.190578 0.426995 0.055760
0.213874 0.428809 0.056811
0.238139 0.430642 0.057878
0.263301 0.432492 0.058959
0.289286 0.434357 0.060055
0.316020 0.436236 0.061165
0.343427 0.438129 0.062288
0.371426 0.440034 0.063423
0.399937 0.441951 0.064572
0.428877 0.443879 0.065732
0.458161 0.445818 0.066905
0.487703 0.447766 0.068089
0.517415 0.449725 0.069285
0.547207 0.451692 0.070492
0.576987 0.453668 0.071711
0.606663 0.455653 0.072940
0.636140 0.457645 0.074180
0.665322 0.459646 0.075431
0.694112 0.461654 0.076693
0.722411 0.463669 0.077965
0.750120 0.465691 0.079247
0.777137 0.467720 0.080540
0.803359 0.469755 0.081843
0.828684 0.471797 0.083156
0.052437 0.452870 0.052437
0.052727 0.452904 0.052456
0.065143 0.454312 0.053253
0.079828 0.455881 0.054145
0.096104 0.457521 0.055082
0.113794 0.459211 0.056052
0.132795 0.460938 0.057048
0.153028 0.462696 0.058066
0.174421 0.464480 0.059104
0.196904 0.466287 0.060161
0.220409 0.468113 0.061234
0.244865 0.469958 0.062324
0.270200 0.471819 0.063428
0.296341 0.473695 0.064547
0.323212 0.475585 0.065680
0.350736 0.477489 0.066826
0.378834 0.479404 0.067985
0.407423 0.481330 0.069157
0.436422 0.483267 0.070341
0.465744 0.485215 0.071537
0.495302 0.487172 0.072745
0.525010 0.489138 0.073964
0.554776 0.491112 0.075195
0.584508 0.493095 0.076436
0.614114 0.495086 0.077689
0.643498 0.497085 0.078953
0.672566 0.499091 0.080227
0.701218 0.501104 0.081512
0.729357 0.503123 0.082808
0.756882 0.505149 0.084113
0.783692 0.507182 0.085429
0.809684 0.509220 0.086756
0.834754 0.511264 0.088092
0.056749 0.492162 0.056749
0.057047 0.492197 0.056769
0.069725 0.493610 0.057584
0.084689 0.495183 0.058496
0.101241 0.496829 0.059453
0.119201 0.498523 0.060444
0.138461 0.500255 0.061461
0.158941 0.502017 0.062501
0.180567 0.503805 0.063561
0.203269 0.505615 0.064640
0.226976 0.507444 0.065736
0.251617 0.509292 0.066848
0.277120 0.511155 0.067975
0.303411 0.513033 0.069117
0.330413 0.514924 0.070272
0.358049 0.516828 0.071441
0.386240 0.518744 0.072623
0.414902 0.520670 0.073818
0.443953 0.522607 0.075025
0.473307 0.524553 0.076243
0.502877 0.526509 0.077474
0.532575 0.528473 0.078716
0.562309 0.530445 0.079970
0.591988 0.532425 0.081235
0.621519 0.534413 0.082511
0.650806 0.536408 0.083797
0.679753 0.538409 0.085095
0.708263 0.540417 0.086403
0.736236 0.542431 0.087721
0.763572 0.544451 0.089050
0.790170 0.546477 0.090389
0.815927 0.548508 0.091738
0.840738 0.550544 0.093097
0.061143 0.531371 0.061143
0.061446 0.531406 0.061163
0.074381 0.532816 0.061995
0.089619 0.534387 0.062926
0.106444 0.536030 0.063904
0.124667 0.537720 0.064915
0.144182 0.539448 0.065953
0.164903 0.541205 0.067015
0.186757 0.542988 0.068096
0.209670 0.544792 0.069197
0.233573 0.546616 0.070315
0.258394 0.548457 0.071449
0.284059 0.550313 0.072598
0.310495 0.552184 0.073762
0.337623 0.554067 0.074940
0.365366 0.555963 0.076131
0.393643 0.557870 0.077335
0.422373 0.559787 0.078552
0.451471 0.561713 0.079782
0.480852 0.563649 0.081023
0.510428 0.565594 0.082277
0.540110 0.567546 0.083541
0.569807 0.569506 0.084818
0.599428 0.571474 0.086105
0.628878 0.573448 0.087403
0.658063 0.575429 0.088713
0.686885 0.577416 0.090032
0.715247 0.579409 0.091363
0.743050 0.581408 0.092704
0.770192 0.583412 0.094055
0.796573 0.585421 0.095416
0.822089 0.587435 0.096788
0.846637 0.589454 0.098169
0.065615 0.570313 0.065615
0.065925 0.570347 0.065635
0.079113 0.571748 0.066485
0.094619 0.573309 0.067435
0.111710 0.574940 0.068432
0.130193 0.576619 0.069464
0.149955 0.578334 0.070523
0.170913 0.580078 0.071605
0.192988 0.581847 0.072708
0.216108 0.583637 0.073830
0.240202 0.585446 0.074969
0.265197 0.587271 0.076125
0.291019 0.589112 0.077296
0.317593 0.590966 0.078482
0.344841 0.592832 0.079681
0.372685 0.594710 0.080895
0.401045 0.596598 0.082121
0.429836 0.598496 0.083360
0.458976 0.600404 0.084612
0.488378 0.602320 0.085875
0.517954 0.604244 0.087151
0.547616 0.606175 0.088438
0.577271 0.608113 0.089736
0.606828 0.610059 0.091046
0.636193 0.612010 0.092366
0.665269 0.613968 0.093697
0.693961 0.615931 0.095039
0.722170 0.617899 0.096392
0.749797 0.619872 0.097755
0.776742 0.621851 0.099128
0.802901 0.623833 0.100511
0.828172 0.625820 0.101905
0.852450 0.627812 0.103308
0.070165 0.608805 0.070165
0.070481 0.608839 0.070186
0.083917 0.610224 0.071052
0.099688 0.611767 0.072021
0.117039 0.613379 0.073038
0.135776 0.615037 0.074089
0.155781 0.616731 0.075168
0.176969 0.618454 0.076271
0.199260 0.620201 0.077395
0.222582 0.621968 0.078538
0.246861 0.623753 0.079698
0.272025 0.625554 0.080875
0.297998 0.627369 0.082068
0.324705 0.629198 0.083275
0.352068 0.631038 0.084496
0.380008 0.632889 0.085731
0.408443 0.634749 0.086979
0.437292 0.636619 0.088240
0.466468 0.638498 0.089513
0.495886 0.640385 0.090798
0.525457 0.642278 0.092095
0.555092 0.644179 0.093404
0.584700 0.646087 0.094724
0.614188 0.648000 0.096055
0.643462 0.649919 0.097398
0.672426 0.651843 0.098751
0.700982 0.653773 0.100114
0.729034 0.655707 0.101488
0.756480 0.657645 0.102873
0.783221 0.659588 0.104268
0.809153 0.661534 0.105673
0.834174 0.663485 0.107088
0.858179 0.665438 0.108513
0.074791 0.646669 0.074791
0.075113 0.646702 0.074813
0.088794 0.648065 0.075696
0.104823 0.649582 0.076682
0.122431 0.651167 0.077718
0.141415 0.652797 0.078789
0.161658 0.654462 0.079889
0.183071 0.656154 0.081012
0.205573 0.657870 0.082156
0.229091 0.659605 0.083319
0.253550 0.661358 0.084501
0.278877 0.663126 0.085698
0.304996 0.664907 0.086912
0.331830 0.666701 0.088140
0.359303 0.668506 0.089382
0.387333 0.670321 0.090638
0.415839 0.672145 0.091908
0.444739 0.673977 0.093190
0.473946 0.675818 0.094484
0.503374 0.677666 0.095791
0.532936 0.679520 0.097109
0.562540 0.681381 0.098439
0.592095 0.683248 0.099781
0.621509 0.685120 0.101133
0.650687 0.686997 0.102497
0.679532 0.688878 0.103871
0.707949 0.690764 0.105256
0.735837 0.692655 0.106651
0.763098 0.694549 0.108057
0.789630 0.696446 0.109473
0.815331 0.698347 0.110899
0.840097 0.700250 0.112335
0.863824 0.702157 0.113781
0.079493 0.683727 0.079493
0.079821 0.683759 0.079515
0.093740 0.685093 0.080414
0.110023 0.686576 0.081419
0.127882 0.688126 0.082473
0.147110 0.689721 0.083564
0.167585 0.691348 0.084682
0.189217 0.693002 0.085825
0.211926 0.694678 0.086990
0.235634 0.696373 0.088173
0.260268 0.698085 0.089375
0.285752 0.699810 0.090593
0.312011 0.701549 0.091827
0.338968 0.703299 0.093076
0.366545 0.705060 0.094339
0.394660 0.706829 0.095616
0.423232 0.708608 0.096906
0.452177 0.710394 0.098209
0.481410 0.712187 0.099524
0.510844 0.713987 0.100852
0.540390 0.715793 0.102191
0.569958 0.717604 0.103542
0.599455 0.719421 0.104904
0.628790 0.721242 0.106278
0.657866 0.723068 0.107662
0.686589 0.724897 0.109057
0.714860 0.726731 0.110463
0.742580 0.728567 0.111879
0.769651 0.730407 0.113306
0.795969 0.732249 0.114743
0.821434 0.734095 0.116190
0.845940 0.735942 0.117646
0.869384 0.737792 0.119113
0.084268 0.719803 0.084268
0.084602 0.719835 0.084290
0.098757 0.721132 0.085205
0.115289 0.722575 0.086228
0.133394 0.724083 0.087301
0.152859 0.725633 0.088410
0.173562 0.727214 0.089548
0.195408 0.728822 0.090710
0.218317 0.730450 0.091895
0.242211 0.732096 0.093098
0.267014 0.733758 0.094320
0.292650 0.735433 0.095558
0.319045 0.737120 0.096812
0.346119 0.738817 0.098081
0.373794 0.740524 0.099365
0.401989 0.742240 0.100662
0.430621 0.743964 0.101973
0.459607 0.745694 0.103296
0.488860 0.747431 0.104632
0.518294 0.749174 0.105980
0.547819 0.750922 0.107340
0.577345 0.752675 0.108711
0.606780 0.754432 0.110094
0.636030 0.756193 0.111488
0.665001 0.757958 0.112893
0.693595 0.759726 0.114308
0.721716 0.761497 0.115735
0.749263 0.763270 0.117171
0.776138 0.765046 0.118618
0.802238 0.766824 0.120076
0.827461 0.768604 0.121543
0.851703 0.770386 0.123020
0.874859 0.772169 0.124507
0.089116 0.754725 0.089116
0.089456 0.754755 0.089139
0.103841 0.756010 0.090069
0.120617 0.757405 0.091109
0.138963 0.758862 0.092200
0.158662 0.760359 0.093328
0.179586 0.761888 0.094485
0.201642 0.763440 0.095666
0.224746 0.765012 0.096870
0.248820 0.766600 0.098093
0.273787 0.768204 0.099334
0.299571 0.769819 0.100592
0.326095 0.771446 0.101866
0.353281 0.773082 0.103155
0.381049 0.774727 0.104458
0.409318 0.776380 0.105776
0.438006 0.778040 0.107106
0.467027 0.779705 0.108450
0.496296 0.781377 0.109806
0.525724 0.783053 0.111174
0.555224 0.784734 0.112554
0.584703 0.786419 0.113945
0.614070 0.788108 0.115348
0.643231 0.789799 0.116762
0.672090 0.791494 0.118187
0.700551 0.793191 0.119623
0.728516 0.794890 0.121069
0.755886 0.796591 0.122526
0.782560 0.798294 0.123993
0.808437 0.799999 0.125470
0.833414 0.801704 0.126957
0.857386 0.803410 0.128454
0.880249 0.805117 0.129961
0.094035 0.788318 0.094035
0.094380 0.788348 0.094058
0.108992 0.789553 0.095004
0.126007 0.790893 0.096060
0.144590 0.792292 0.097169
0.164516 0.793729 0.098315
0.185658 0.795195 0.099491
0.207918 0.796684 0.100691
0.231212 0.798192 0.101913
0.255460 0.799715 0.103156
0.280586 0.801251 0.104416
0.306512 0.802798 0.105693
0.333161 0.804356 0.106987
0.360453 0.805922 0.108295
0.388310 0.807496 0.109619
0.416648 0.809077 0.110955
0.445385 0.810664 0.112306
0.474437 0.812256 0.113669
0.503716 0.813853 0.115044
0.533134 0.815454 0.116432
0.562603 0.817059 0.117832
0.592030 0.818667 0.119243
0.621324 0.820277 0.120666
0.650390 0.821890 0.122100
0.679133 0.823505 0.123545
0.707456 0.825122 0.125000
0.735260 0.826741 0.126466
0.762448 0.828360 0.127942
0.788916 0.829980 0.129429
0.814565 0.831601 0.130926
0.839291 0.833222 0.132432
0.862989 0.834844 0.133949
0.885554 0.836465 0.135475
0.099023 0.820414 0.099023
0.099374 0.820442 0.099047
0.114208 0.821591 0.100007
0.131459 0.822869 0.101081
0.150273 0.824202 0.102207
0.170422 0.825571 0.103371
0.191776 0.826968 0.104565
0.214235 0.828385 0.105783
0.237714 0.829819 0.107024
0.262132 0.831268 0.108285
0.287411 0.832729 0.109565
0.313474 0.834200 0.110861
0.340242 0.835680 0.112174
0.367636 0.837167 0.113502
0.395575 0.838662 0.114844
0.423978 0.840162 0.116200
0.452760 0.841667 0.117570
0.481836 0.843176 0.118952
0.511120 0.844690 0.120347
0.540523 0.846206 0.121754
0.569956 0.847726 0.123173
0.599326 0.849247 0.124604
0.628542 0.850771 0.126046
0.657508 0.852296 0.127499
0.686130 0.853823 0.128963
0.714309 0.855350 0.130438
0.741949 0.856878 0.131923
0.768948 0.858406 0.133419
0.795207 0.859935 0.134925
0.820622 0.861463 0.136441
0.845092 0.862991 0.137966
0.868511 0.864518 0.139502
0.890774 0.866044 0.141047
0.104080 0.850842 0.104080
0.104436 0.850869 0.104104
0.119488 0.851956 0.105079
0.136969 0.853163 0.106170
0.156010 0.854423 0.107313
0.176377 0.855717 0.108494
0.197938 0.857035 0.109706
0.220591 0.858373 0.110942
0.244250 0.859726 0.112202
0.268833 0.861092 0.113481
0.294261 0.862469 0.114779
0.320455 0.863855 0.116094
0.347337 0.865248 0.117426
0.374828 0.866648 0.118772
0.402845 0.868054 0.120133
0.431306 0.869465 0.121508
0.460128 0.870879 0.122897
0.489224 0.872297 0.124298
0.518508 0.873718 0.125712
0.547891 0.875142 0.127138
0.577282 0.876567 0.128576
0.606591 0.877993 0.130026
0.635723 0.879421 0.131487
0.664585 0.880849 0.132959
0.693080 0.882277 0.134442
0.721111 0.883706 0.135936
0.748580 0.885135 0.137440
0.775387 0.886562 0.138954
0.801430 0.887990 0.140479
0.826608 0.889416 0.142014
0.850817 0.890840 0.143558
0.873952 0.892264 0.145113
0.895908 0.893686 0.146676
0.109204 0.879435 0.109204
0.109565 0.879460 0.109228
0.124832 0.880478 0.110218
0.142539 0.881609 0.111324
0.161801 0.882788 0.112485
0.182382 0.883997 0.113683
0.204144 0.885230 0.114912
0.226987 0.886480 0.116167
0.250820 0.887744 0.117444
0.275562 0.889019 0.118741
0.301134 0.890303 0.120058
0.327455 0.891596 0.121391
0.354446 0.892894 0.122741
0.382028 0.894198 0.124106
0.410118 0.895507 0.125485
0.438633 0.896819 0.126879
0.467489 0.898135 0.128286
0.496600 0.899452 0.129706
0.525879 0.900772 0.131139
0.555236 0.902093 0.132583
0.584581 0.903414 0.134040
0.613823 0.904737 0.135508
0.642867 0.906059 0.136988
0.671619 0.907381 0.138478
0.699983 0.908703 0.139980
0.727861 0.910024 0.141492
0.755154 0.911343 0.143015
0.781764 0.912661 0.144548
0.807587 0.913978 0.146091
0.832522 0.915293 0.147644
0.856465 0.916605 0.149207
0.879312 0.917916 0.150779
0.900955 0.919224 0.152362
0.114394 0.906026 0.114394
0.114760 0.906049 0.114418
0.130237 0.906992 0.115423
0.148165 0.908038 0.116545
0.167644 0.909128 0.117721
0.188433 0.910247 0.118937
0.210393 0.911386 0.120183
0.233420 0.912540 0.121455
0.257423 0.913706 0.122750
0.282320 0.914882 0.124065
0.308030 0.916066 0.125399
0.334472 0.917256 0.126750
0.361568 0.918451 0.128118
0.389235 0.919651 0.129501
0.417393 0.920854 0.130899
0.445957 0.922059 0.132310
0.474842 0.923266 0.133736
0.503963 0.924475 0.135174
0.533232 0.925684 0.136625
0.562558 0.926894 0.138088
0.591852 0.928103 0.139563
0.621022 0.929312 0.141049
0.649972 0.930520 0.142547
0.678610 0.931727 0.144056
0.706838 0.932933 0.145575
0.734558 0.934137 0.147106
0.761671 0.935338 0.148647
0.788078 0.936538 0.150198
