luts/joker.cube
# CineLUT — Joker (2019)
# Gerado por generate_luts.py
LUT_3D_SIZE 5
0.004120 0.024123 0.004120
0.098182 0.029680 0.008628
0.281537 0.037171 0.014802
0.512586 0.045457 0.021742
0.748042 0.054443 0.029379
0.032124 0.261773 0.032124
0.144345 0.272345 0.038029
0.341758 0.286061 0.045956
0.576380 0.300628 0.054686
0.803521 0.315819 0.064117
0.065615 0.570313 0.065615
0.192988 0.581847 0.072708
0.401045 0.596598 0.082121
0.636193 0.612010 0.092366
0.852450 0.627812 0.103308
0.104080 0.850842 0.104080
0.244250 0.859726 0.112202
0.460128 0.870879 0.122897
0.693080 0.882277 0.134442
0.895908 0.893686 0.146676
0.126922 0.959992 0.126922
0.273164 0.965975 0.135543
0.492198 0.973301 0.146859
0.722856 0.980552 0.159032
0.917301 0.987547 0.171886
0.005698 0.026078 0.098772
0.101008 0.031723 0.106767
0.285364 0.039324 0.117305
0.516739 0.047723 0.128691
0.751753 0.056821 0.140767
0.034204 0.265534 0.145010
0.147524 0.276143 0.153982
0.345747 0.289903 0.165733
0.580494 0.304514 0.178344
0.806985 0.319746 0.191631
0.068122 0.574433 0.193712
0.196452 0.585955 0.203473
0.405137 0.600688 0.216198
0.640218 0.616078 0.229785
0.855629 0.631853 0.244028
0.106957 0.854032 0.245023
0.247945 0.862856 0.255422
0.464273 0.873930 0.268928
0.696972 0.885241 0.283289
0.898761 0.896557 0.298282
0.129979 0.962155 0.273959
0.276964 0.968053 0.284647
0.496353 0.975265 0.298504
0.726657 0.982396 0.313208
0.919958 0.989262 0.328529
0.007631 0.028459 0.269307
0.104422 0.034208 0.279951
0.289961 0.041940 0.293755
0.521708 0.050472 0.308409
0.756174 0.059705 0.323681
0.036733 0.270052 0.328986
0.151355 0.280703 0.340105
0.350532 0.294516 0.354478
0.585412 0.309178 0.369680
0.811106 0.324458 0.385465
0.071157 0.579358 0.387917
0.200620 0.590865 0.399347
0.410040 0.605575 0.414081
0.645026 0.620937 0.429614
0.859405 0.636679 0.445691
0.110431 0.857821 0.446807
0.252386 0.866572 0.458407
0.469236 0.877550 0.473322
0.701615 0.888757 0.489000
0.902142 0.899961 0.505178
0.133666 0.964703 0.478836
0.281528 0.970497 0.490473
0.501325 0.977575 0.505416
0.731188 0.984559 0.521098
0.923104 0.991271 0.537254
0.009709 0.031002 0.483893
0.108037 0.036860 0.495534
0.294796 0.044728 0.510476
0.526914 0.053399 0.526154
0.760786 0.062769 0.542302
0.039430 0.274807 0.547865
0.155402 0.285503 0.559454
0.355559 0.299369 0.574289
0.590557 0.314082 0.589807
0.815398 0.329412 0.605736
0.074381 0.584512 0.608194
0.205015 0.596002 0.619592
0.415187 0.610687 0.634145
0.650052 0.626019 0.649319
0.863330 0.641726 0.664843
0.114109 0.861759 0.665914
0.257061 0.870433 0.676993
0.474441 0.881310 0.691099
0.706464 0.892406 0.705757
0.905647 0.903491 0.720702
0.137563 0.967326 0.696273
0.286330 0.973012 0.707126
0.506535 0.979946 0.720920
0.735917 0.986776 0.735228
0.926359 0.993325 0.749784
0.011835 0.033587 0.700428
0.111680 0.039552 0.711247
0.299636 0.047554 0.724994
0.532103 0.056362 0.739249
0.765361 0.065869 0.753747
0.042167 0.279569 0.758699
0.159470 0.290307 0.768941
0.360585 0.304225 0.781908
0.595681 0.318990 0.795294
0.819649 0.334367 0.808844
0.077637 0.589645 0.810918
0.209425 0.601117 0.820470
0.420327 0.615776 0.832513
0.655050 0.631076 0.844883
0.867209 0.646746 0.857334
0.117813 0.865652 0.858185
0.261746 0.874249 0.866929
0.479632 0.885022 0.877898
0.711281 0.896006 0.889095
0.909104 0.906972 0.900288
0.141485 0.969894 0.881875
0.291138 0.975470 0.890130
0.511731 0.982260 0.900450
0.740612 0.988935 0.910941
0.929564 0.995319 0.921380
