luts/joker.cube
# CineLUT — Joker (2019)
# Gerado por generate_luts.py
LUT_3D_SIZE 9
0.004120 0.024123 0.004120
0.035384 0.026321 0.005894
0.098182 0.029680 0.008628
0.181525 0.033316 0.011611
0.281537 0.037171 0.014802
0.393620 0.041223 0.018182
0.512586 0.045457 0.021742
0.632755 0.049866 0.025476
0.748042 0.054443 0.029379
0.017440 0.127278 0.017440
0.052920 0.130716 0.019510
0.121055 0.135907 0.022680
0.208771 0.141443 0.026118
0.311951 0.147231 0.029773
0.425861 0.153230 0.033621
0.545210 0.159413 0.037652
0.664246 0.165766 0.041857
0.776822 0.172277 0.046231
0.032124 0.261773 0.032124
0.071425 0.265998 0.034462
0.144345 0.272345 0.038029
0.235904 0.279072 0.041880
0.341758 0.286061 0.045956
0.457044 0.293257 0.050229
0.576380 0.300628 0.054686
0.693941 0.308154 0.059318
0.803521 0.315819 0.064117
0.048206 0.413679 0.048206
0.091033 0.418293 0.050792
0.168318 0.425200 0.054726
0.263301 0.432492 0.058959
0.371426 0.440034 0.063423
0.487703 0.447766 0.068089
0.606663 0.455653 0.072940
0.722411 0.463669 0.077965
0.828684 0.471797 0.083156
0.065615 0.570313 0.065615
0.111710 0.574940 0.068432
0.192988 0.581847 0.072708
0.291019 0.589112 0.077296
0.401045 0.596598 0.082121
0.517954 0.604244 0.087151
0.636193 0.612010 0.092366
0.749797 0.619872 0.097755
0.852450 0.627812 0.103308
0.084268 0.719803 0.084268
0.133394 0.724083 0.087301
0.218317 0.730450 0.091895
0.319045 0.737120 0.096812
0.430621 0.743964 0.101973
0.547819 0.750922 0.107340
0.665001 0.757958 0.112893
0.776138 0.765046 0.118618
0.874859 0.772169 0.124507
0.104080 0.850842 0.104080
0.156010 0.854423 0.107313
0.244250 0.859726 0.112202
0.347337 0.865248 0.117426
0.460128 0.870879 0.122897
0.577282 0.876567 0.128576
0.693080 0.882277 0.134442
0.801430 0.887990 0.140479
0.895908 0.893686 0.146676
0.124965 0.952541 0.124965
0.179483 0.955080 0.128384
0.270723 0.958805 0.133546
0.375845 0.962640 0.139054
0.489523 0.966500 0.144812
0.606308 0.970346 0.150781
0.720401 0.974150 0.156935
0.825650 0.977896 0.163258
0.915576 0.981568 0.169740
0.126922 0.959992 0.126922
0.181665 0.962419 0.130356
0.273164 0.965975 0.135543
0.378455 0.969629 0.141075
0.492198 0.973301 0.146859
0.608934 0.976950 0.152852
0.722856 0.980552 0.159032
0.827806 0.984089 0.165380
0.917301 0.987547 0.171886
0.004808 0.024977 0.039019
0.036314 0.027191 0.041469
0.099419 0.030573 0.045200
0.183016 0.034232 0.049222
0.283215 0.038112 0.053472
0.395411 0.042189 0.057922
0.514408 0.046448 0.062556
0.634525 0.050882 0.067364
0.749672 0.055483 0.072339
0.018244 0.128618 0.056949
0.053952 0.132066 0.059656
0.122374 0.137273 0.063768
0.210323 0.142827 0.068185
0.313669 0.148632 0.072838
0.427668 0.154647 0.077693
0.547027 0.160848 0.082734
0.665988 0.167218 0.087948
0.778400 0.173745 0.093328
0.033033 0.263422 0.075810
0.072549 0.267654 0.078748
0.145738 0.274010 0.083203
0.237509 0.280747 0.087977
0.343508 0.287746 0.092991
0.458863 0.294951 0.098211
0.578186 0.302332 0.103617
0.695650 0.309867 0.109195
0.805043 0.317541 0.114938
0.049212 0.415481 0.095744
0.092242 0.420097 0.098895
0.169776 0.427008 0.103665
0.264952 0.434302 0.108765
0.373201 0.441847 0.114110
0.489526 0.449582 0.119663
0.608452 0.457471 0.125402
0.724081 0.465488 0.131314
0.830146 0.473618 0.137386
0.066712 0.572121 0.116722
0.112997 0.576746 0.120070
0.194506 0.583650 0.125129
0.292710 0.590911 0.130529
0.402840 0.598394 0.136178
0.519777 0.606034 0.142037
0.637960 0.613796 0.148082
0.751425 0.621653 0.154297
0.853848 0.629586 0.160671
0.085449 0.721477 0.138683
0.134753 0.725750 0.142212
0.219889 0.732108 0.147537
0.320770 0.738768 0.153212
0.432430 0.745601 0.159141
0.549636 0.752547 0.165279
0.666742 0.759571 0.171603
0.777718 0.766647 0.178096
0.876187 0.773756 0.184745
0.105340 0.852245 0.161555
0.157435 0.855815 0.165249
0.245870 0.861102 0.170818
0.349092 0.866607 0.176746
0.461947 0.872221 0.182930
0.579087 0.877889 0.189324
0.694789 0.883581 0.195903
0.802957 0.889273 0.202648
0.897163 0.894949 0.209546
0.126298 0.953538 0.185261
0.180969 0.956062 0.189108
0.272385 0.959765 0.194900
0.377623 0.963576 0.201057
0.491346 0.967412 0.207474
0.608098 0.971232 0.214100
0.722074 0.975010 0.220910
0.827120 0.978729 0.227883
0.916752 0.982373 0.235006
0.128260 0.960945 0.187464
0.183157 0.963357 0.191323
0.274830 0.966891 0.197135
0.380236 0.970521 0.203312
0.494021 0.974167 0.209748
0.610722 0.977790 0.216395
0.724525 0.981365 0.223224
0.829270 0.984874 0.230217
0.918470 0.988304 0.237360
0.005698 0.026078 0.098772
0.037511 0.028311 0.101954
0.101008 0.031723 0.106767
0.184928 0.035413 0.111913
0.285364 0.039324 0.117305
0.397702 0.043432 0.122905
0.516739 0.047723 0.128691
0.636787 0.052188 0.134648
0.751753 0.056821 0.140767
0.019281 0.130337 0.121685
0.055280 0.133800 0.125075
0.124068 0.139028 0.130197
0.212313 0.144602 0.135662
0.315868 0.150429 0.141378
0.429981 0.156466 0.147304
0.549350 0.162688 0.153415
0.668213 0.169080 0.159696
0.780414 0.175629 0.166135
0.034204 0.265534 0.145010
0.073994 0.269774 0.148587
0.147524 0.276143 0.153982
0.239565 0.282892 0.159730
0.345747 0.289903 0.165733
0.461188 0.297121 0.171946
0.580494 0.304514 0.178344
0.697831 0.312061 0.184910
0.806985 0.319746 0.191631
0.050507 0.417787 0.169014
0.093795 0.422406 0.172758
0.171646 0.429320 0.178401
0.267067 0.436618 0.184404
0.375473 0.444167 0.190664
0.491857 0.451905 0.197135
0.610739 0.459796 0.203790
0.726214 0.467816 0.210610
0.832011 0.475947 0.217582
0.068122 0.574433 0.193712
0.114650 0.579055 0.197608
0.196452 0.585955 0.203473
0.294876 0.593211 0.209706
0.405137 0.600688 0.216198
0.522107 0.608323 0.222900
0.640218 0.616078 0.229785
0.753501 0.623928 0.236832
0.855629 0.631853 0.244028
0.086967 0.723614 0.219067
0.136497 0.727880 0.223100
0.221903 0.734225 0.229165
0.322980 0.740871 0.235604
0.434746 0.747690 0.242303
0.551958 0.754621 0.249212
0.668966 0.761629 0.256301
0.779733 0.768689 0.263550
0.877880 0.775781 0.270944
0.106957 0.854032 0.245023
0.159264 0.857589 0.249178
0.247945 0.862856 0.255422
0.351338 0.868339 0.262044
0.464273 0.873930 0.268928
0.581395 0.879575 0.276020
0.696972 0.885241 0.283289
0.804905 0.890908 0.290715
0.898761 0.896557 0.298282
0.128008 0.954803 0.271517
0.182875 0.957309 0.275780
0.274515 0.960984 0.282182
0.379900 0.964765 0.288966
0.493677 0.968570 0.296011
0.610384 0.972357 0.303263
0.724211 0.976101 0.310689
0.828994 0.979785 0.318269
0.918250 0.983393 0.325985
0.129979 0.962155 0.273959
0.185069 0.964548 0.278231
0.276964 0.968053 0.284647
0.382514 0.971652 0.291445
0.496353 0.975265 0.298504
0.613006 0.978855 0.305769
0.726657 0.982396 0.313208
0.831137 0.985870 0.320800
0.919958 0.989262 0.328529
0.006643 0.027245 0.176598
0.038779 0.029499 0.180391
0.102684 0.032941 0.186104
0.186942 0.036663 0.192181
0.287625 0.040607 0.198516
0.400110 0.044747 0.205062
0.519186 0.049071 0.211790
0.639159 0.053570 0.218683
0.753932 0.058236 0.225728
0.020381 0.132150 0.203638
0.056683 0.135627 0.207590
0.125853 0.140876 0.213536
0.214407 0.146473 0.219853
0.318180 0.152323 0.226430
0.432410 0.158382 0.233217
0.551788 0.164627 0.240184
0.670545 0.171041 0.247314
0.782522 0.177612 0.254591
0.035444 0.267756 0.230593
0.075521 0.272005 0.234682
0.149406 0.278386 0.240829
0.241730 0.285148 0.247353
0.348101 0.292172 0.254137
0.463631 0.299403 0.261131
0.582916 0.306808 0.268303
0.700118 0.314367 0.275634
0.809017 0.322064 0.283108
0.051876 0.420209 0.257834
0.095434 0.424831 0.262043
0.173616 0.431749 0.268367
0.269292 0.439051 0.275070
0.377860 0.446603 0.282035
0.494305 0.454344 0.289208
0.613137 0.462238 0.296556
0.728448 0.470260 0.304059
0.833961 0.478393 0.311702
0.069611 0.576858 0.285417
0.116393 0.581478 0.289731
0.198501 0.588373 0.296207
0.297154 0.595624 0.303066
0.407550 0.603095 0.310187
0.524552 0.610723 0.317513
0.642587 0.618471 0.325011
0.755677 0.626313 0.332661
0.857492 0.634230 0.340445
0.088569 0.725853 0.313326
0.138336 0.730110 0.317730
0.224023 0.736443 0.324337
0.325303 0.743075 0.331330
0.437177 0.749878 0.338582
0.554395 0.756794 0.346037
0.671297 0.763785 0.353662
0.781843 0.770827 0.361433
0.879649 0.777902 0.369335
0.108663 0.855901 0.341520
0.161190 0.859444 0.346000
0.250129 0.864689 0.352718
0.353699 0.870150 0.359821
0.466716 0.875716 0.367183
0.583816 0.881336 0.374745
0.699260 0.886977 0.382472
0.806944 0.892616 0.390341
0.900430 0.898237 0.398336
0.129810 0.956122 0.369947
0.184882 0.958608 0.374490
0.276755 0.962254 0.381297
0.382291 0.966003 0.388491
0.496125 0.969774 0.395940
0.612783 0.973527 0.403586
0.726449 0.977236 0.411393
0.830955 0.980883 0.419337
0.919813 0.984454 0.427402
0.131790 0.963415 0.372550
0.187083 0.965787 0.377098
0.279209 0.969262 0.383913
0.384908 0.972828 0.391114
0.498800 0.976408 0.398570
0.615402 0.979963 0.406223
0.728890 0.983467 0.414036
0.833091 0.986903 0.421986
0.921511 0.990257 0.430056
0.007631 0.028459 0.269307
0.040097 0.030734 0.273561
0.104422 0.034208 0.279951
0.189025 0.037963 0.286723
0.289961 0.041940 0.293755
0.402595 0.046115 0.300995
0.521708 0.050472 0.308409
0.641602 0.055005 0.315976
0.756174 0.059705 0.323681
0.021526 0.134028 0.299423
0.058141 0.137520 0.303784
0.127703 0.142791 0.310328
0.216573 0.148411 0.317257
0.320569 0.154283 0.324447
0.434917 0.160366 0.331841
0.554301 0.166634 0.339406
0.672947 0.173070 0.347120
0.784690 0.179664 0.354966
0.036733 0.270052 0.328986
0.077104 0.274309 0.333434
0.151355 0.280703 0.340105
0.243967 0.287479 0.347162
0.350532 0.294516 0.354478
0.466150 0.301760 0.361995
0.585412 0.309178 0.369680
0.702472 0.316749 0.377509
0.811106 0.324458 0.385465
0.053298 0.422708 0.358455
0.097133 0.427333 0.362974
0.175655 0.434255 0.369748
0.271591 0.441561 0.376907
0.380325 0.449116 0.384324
0.496829 0.456860 0.391939
0.615608 0.464757 0.399716
0.730747 0.472781 0.407633
0.835966 0.480915 0.415672
0.071157 0.579358 0.387917
0.118198 0.583974 0.392493
0.200620 0.590865 0.399347
0.299507 0.598110 0.406587
0.410040 0.605575 0.414081
0.527074 0.613196 0.421768
0.645026 0.620937 0.429614
0.757915 0.628771 0.437594
0.859405 0.636679 0.445691
0.090230 0.728158 0.417378
0.140239 0.732406 0.421996
0.226215 0.738725 0.428910
0.327702 0.745342 0.436207
0.439686 0.752130 0.443755
0.556906 0.759029 0.451492
0.673697 0.766003 0.459383
0.784013 0.773027 0.467403
0.881465 0.780083 0.475534
0.110431 0.857821 0.446807
0.163184 0.861349 0.451454
0.252386 0.866572 0.458407
0.356137 0.872009 0.465742
0.469236 0.877550 0.473322
0.586311 0.883144 0.481087
0.701615 0.888757 0.489000
0.809040 0.894369 0.497036
0.902142 0.899961 0.505178
0.131677 0.957472 0.476162
0.186958 0.959937 0.480825
0.279070 0.963552 0.487798
0.384760 0.967268 0.495148
0.498649 0.971005 0.502740
0.615254 0.974722 0.510511
0.728752 0.978394 0.518424
0.832970 0.982004 0.526454
0.921416 0.985535 0.534584
0.133666 0.964703 0.478836
0.189167 0.967055 0.483500
0.281528 0.970497 0.490473
0.387380 0.974030 0.497824
0.501325 0.977575 0.505416
0.617871 0.981093 0.513186
0.731188 0.984559 0.521098
0.835098 0.987957 0.529127
0.923104 0.991271 0.537254
0.008654 0.029713 0.373147
0.041457 0.032010 0.377697
0.106209 0.035516 0.384513
0.191163 0.039304 0.391715
0.292354 0.043316 0.399173
0.405138 0.047524 0.406827
0.524288 0.051917 0.414642
0.644099 0.056483 0.422593
0.758462 0.061218 0.430664
0.022711 0.135956 0.405167
0.059643 0.139464 0.409769
0.129603 0.144757 0.416661
0.218795 0.150400 0.423937
0.323015 0.156296 0.431465
0.437482 0.162402 0.439185
0.556870 0.168694 0.447059
0.675400 0.175154 0.455066
0.786902 0.181770 0.463185
0.038064 0.272406 0.436206
0.078734 0.276672 0.440845
0.153357 0.283079 0.447786
0.246261 0.289868 0.455109
0.353022 0.296918 0.462680
0.468727 0.304175 0.470438
0.587962 0.311606 0.478346
0.704875 0.319190 0.486378
0.813237 0.326911 0.494519
0.054764 0.425266 0.466787
0.098880 0.429894 0.471447
0.177747 0.436820 0.478415
0.273948 0.444129 0.485763
0.382848 0.451688 0.493353
0.499411 0.459435 0.501124
0.618133 0.467334 0.509040
0.733094 0.475360 0.517074
0.838008 0.483496 0.525210
0.072749 0.581913 0.497023
0.120054 0.586526 0.501690
0.202794 0.593411 0.508665
0.301919 0.600651 0.516014
0.412590 0.608109 0.523601
0.529653 0.615724 0.531363
0.647518 0.623456 0.539263
0.760198 0.631282 0.547276
0.861354 0.639182 0.555383
0.091939 0.730510 0.526933
0.142195 0.734749 0.531593
0.228463 0.741054 0.538555
0.330160 0.747656 0.545885
0.442254 0.754428 0.553447
0.559474 0.761310 0.561177
0.676149 0.768266 0.569040
0.786227 0.775271 0.577008
0.883313 0.782307 0.585063
0.112249 0.859776 0.556499
0.165231 0.863289 0.561139
0.254700 0.868490 0.568069
0.358634 0.873902 0.575359
0.471815 0.879418 0.582875
0.588861 0.884984 0.590552
0.704020 0.890570 0.598354
0.811177 0.896152 0.606256
0.903884 0.901715 0.614238
0.133596 0.958840 0.585685
0.189089 0.961285 0.590294
0.281442 0.964868 0.597171
0.387288 0.968551 0.604402
0.501231 0.972252 0.611850
0.617780 0.975933 0.619454
0.731103 0.979567 0.627175
0.835024 0.983137 0.634988
0.923045 0.986629 0.642873
0.135593 0.966009 0.588328
0.191305 0.968339 0.592933
0.283905 0.971750 0.599805
0.389910 0.975248 0.607029
0.503907 0.978756 0.614471
0.620394 0.982237 0.622066
0.733534 0.985664 0.629779
0.837144 0.989022 0.637582
0.924722 0.992295 0.645458
0.009709 0.031002 0.483893
0.042853 0.033321 0.488559
0.108037 0.036860 0.495534
0.193346 0.040682 0.502884
0.294796 0.044728 0.510476
0.407730 0.048971 0.518244
0.526914 0.053399 0.526154
0.646637 0.058000 0.534179
0.760786 0.062769 0.542302
0.023929 0.137929 0.516561
0.061183 0.141451 0.521225
0.131547 0.146768 0.528194
0.221063 0.152434 0.535533
0.325510 0.158354 0.543106
0.440095 0.164484 0.550850
0.559485 0.170799 0.558728
0.677894 0.177282 0.566715
0.789147 0.183922 0.574791
0.039430 0.274807 0.547865
0.080404 0.279082 0.552513
0.155402 0.285503 0.559454
0.248602 0.292305 0.566758
0.355559 0.299369 0.574289
0.471352 0.306638 0.581985
0.590557 0.314082 0.589807
0.707317 0.321679 0.597730
0.815398 0.329412 0.605736
0.056268 0.427872 0.578366
0.100669 0.432503 0.582984
0.179885 0.439433 0.589876
0.276353 0.446745 0.597123
0.385420 0.454307 0.604591
0.502040 0.462057 0.612215
0.620701 0.469958 0.619958
0.735478 0.477987 0.627796
0.840080 0.486124 0.635708
0.074381 0.584512 0.608194
0.121953 0.589122 0.612769
0.205015 0.596002 0.619592
0.304378 0.603236 0.626763
0.415187 0.610687 0.634145
0.532277 0.618294 0.641676
0.650052 0.626019 0.649319
0.762517 0.633836 0.657047
0.863330 0.641726 0.664843
0.093688 0.732900 0.637380
0.144194 0.737130 0.641899
0.230758 0.743420 0.648634
0.332666 0.750006 0.655707
0.444869 0.756762 0.662983
0.562088 0.763626 0.670400
0.678642 0.770564 0.677921
0.788474 0.777550 0.685519
0.885186 0.784566 0.693177
0.114109 0.861759 0.665914
0.167323 0.865256 0.670364
0.257061 0.870433 0.676993
0.361178 0.875821 0.683949
0.474441 0.881310 0.691099
0.591456 0.886849 0.698380
0.706464 0.892406 0.705757
0.813345 0.897959 0.713204
0.905647 0.903491 0.720702
0.135558 0.960222 0.693767
0.191266 0.962645 0.698136
0.283862 0.966196 0.704640
0.389864 0.969844 0.711459
0.503860 0.973510 0.718462
0.620348 0.977153 0.725588
0.733491 0.980748 0.732801
0.837107 0.984279 0.740075
0.924693 0.987729 0.747391
0.137563 0.967326 0.696273
0.193489 0.969635 0.700634
0.286330 0.973012 0.707126
0.392489 0.976475 0.713932
0.506535 0.979946 0.720920
0.622960 0.983388 0.728031
0.735917 0.986776 0.735228
0.839219 0.990093 0.742485
0.926359 0.993325 0.749784
0.010794 0.032323 0.596930
0.044282 0.034665 0.601523
0.109903 0.038236 0.608375
0.195570 0.042093 0.615577
0.297279 0.046173 0.622994
0.410363 0.050452 0.630563
0.529579 0.054914 0.638247
0.649210 0.059551 0.646019
0.763138 0.064356 0.653862
0.025179 0.139939 0.628925
0.062758 0.143478 0.633461
0.133529 0.148817 0.640225
0.223372 0.154507 0.647328
0.328047 0.160450 0.654637
0.442748 0.166604 0.662090
0.562137 0.172943 0.669648
0.680420 0.179450 0.677287
0.791419 0.186114 0.684987
0.040830 0.277249 0.659220
0.082110 0.281534 0.663687
0.157487 0.287967 0.670343
0.250984 0.294783 0.677329
0.358138 0.301860 0.684510
0.474017 0.309143 0.691826
0.593189 0.316600 0.699238
0.709791 0.324209 0.706723
0.817584 0.331955 0.714260
0.057806 0.430519 0.688388
0.102495 0.435152 0.692774
0.182062 0.442086 0.699304
0.278798 0.449402 0.706151
0.388033 0.456967 0.713184
0.504708 0.464720 0.720342
0.623305 0.472623 0.727589
0.737892 0.480653 0.734898
0.842174 0.488791 0.742251
0.076047 0.587149 0.716570
0.123889 0.591756 0.720861
0.207276 0.598630 0.727246
0.306879 0.605857 0.733936
0.417825 0.613301 0.740801
0.534941 0.620901 0.747781
0.652620 0.628617 0.754840
0.764865 0.636425 0.761953
0.865326 0.644305 0.769101
0.095475 0.735320 0.743802
0.146232 0.739540 0.747987
0.233094 0.745816 0.754209
0.335213 0.752386 0.760722
0.447525 0.759124 0.767399
0.564738 0.765971 0.774181
0.681167 0.772890 0.781032
0.790748 0.779856 0.787927
0.887077 0.786852 0.794849
0.116006 0.863762 0.770081
0.169455 0.867244 0.774147
0.259464 0.872397 0.780188
0.363764 0.877758 0.786505
0.477106 0.883220 0.792974
0.594087 0.888731 0.799537
0.708940 0.894259 0.806160
0.815538 0.899782 0.812818
0.907427 0.905283 0.819493
0.137558 0.961612 0.795382
0.193482 0.964014 0.799317
0.286323 0.967531 0.805158
0.392481 0.971144 0.811260
0.506528 0.974773 0.817502
0.622952 0.978378 0.823827
0.735910 0.981934 0.830201
0.839213 0.985423 0.836601
0.926354 0.988833 0.843008
0.139573 0.968651 0.797640
0.195713 0.970937 0.801563
0.288797 0.974280 0.807386
0.395108 0.977707 0.813467
0.509203 0.981141 0.819687
0.625561 0.984543 0.825989
0.738330 0.987891 0.832340
0.841317 0.991166 0.838715
0.928010 0.994355 0.845096
0.011835 0.033587 0.700428
0.045648 0.035949 0.704775
0.111680 0.039552 0.711247
0.197683 0.043440 0.718029
0.299636 0.047554 0.724994
0.412859 0.051866 0.732079
0.532103 0.056362 0.739249
0.651644 0.061032 0.746478
0.765361 0.065869 0.753747
0.026375 0.141853 0.730548
0.064261 0.145406 0.734786
0.135415 0.150766 0.741091
0.225565 0.156478 0.747693
0.330454 0.162445 0.754465
0.445264 0.168621 0.761346
0.564649 0.174982 0.768302
0.682811 0.181512 0.775307
0.793565 0.188197 0.782343
0.042167 0.279569 0.758699
0.083736 0.283861 0.762818
0.159470 0.290307 0.768941
0.253246 0.297136 0.775345
0.360585 0.304225 0.781908
0.476543 0.311521 0.788569
0.595681 0.318990 0.795294
0.712131 0.326610 0.802059
0.819649 0.334367 0.808844
0.059274 0.433028 0.785442
0.104235 0.437664 0.789431
0.184133 0.444601 0.795353
0.281121 0.451920 0.801543
0.390511 0.459488 0.807877
0.507236 0.467243 0.814299
0.625770 0.475149 0.820775
0.740175 0.483180 0.827280
0.844151 0.491319 0.833796
0.077637 0.589645 0.810918
0.125733 0.594249 0.814764
0.209425 0.601117 0.820470
0.309252 0.608338 0.826425
0.420327 0.615776 0.832513
0.537463 0.623368 0.838676
0.655050 0.631076 0.844883
0.767084 0.638875 0.851108
0.867209 0.646746 0.857334
0.097177 0.737609 0.835166
0.148172 0.741819 0.838858
0.235313 0.748080 0.844329
0.337631 0.754635 0.850032
0.450043 0.761357 0.855854
0.567249 0.768187 0.861739
0.683556 0.775088 0.867656
0.792896 0.782035 0.873582
0.888860 0.789011 0.879499
0.117813 0.865652 0.858185
0.171482 0.869119 0.861711
0.261746 0.874249 0.866929
0.366218 0.879586 0.872362
0.479632 0.885022 0.877898
0.596578 0.890506 0.883487
0.711281 0.896006 0.889095
0.817610 0.901501 0.894701
0.909104 0.906972 0.900288
0.139461 0.962918 0.879952
0.195590 0.965299 0.883300
0.288660 0.968785 0.888249
0.394964 0.972364 0.893392
0.509056 0.975958 0.898625
0.625417 0.979526 0.903897
0.738197 0.983045 0.909177
0.841202 0.986496 0.914444
0.927919 0.989865 0.919681
0.141485 0.969894 0.881875
0.197827 0.972159 0.885206
0.291138 0.975470 0.890130
0.397593 0.978862 0.895246
0.511731 0.982260 0.900450
0.628023 0.985626 0.905692
0.740612 0.988935 0.910941
0.843297 0.992171 0.916176
0.929564 0.995319 0.921380
