luts/royal-tenenbaums.cube
# CineLUT — The Royal Tenenbaums (2001)
# Gerado por generate_luts.py
LUT_3D_SIZE 5
0.015558 0.004217 0.015561
0.218999 0.011455 0.023072
0.462998 0.018703 0.030581
0.710298 0.026043 0.038174
0.885295 0.031968 0.044296
0.040185 0.214803 0.040188
0.252761 0.225222 0.048232
0.499989 0.235496 0.056250
0.744933 0.245752 0.064337
0.914142 0.253930 0.070843
0.066475 0.477403 0.066479
0.287345 0.488967 0.075018
0.536981 0.500277 0.083510
0.778753 0.511476 0.092054
0.941528 0.520343 0.098914
0.094309 0.743984 0.094313
0.322631 0.754655 0.103310
0.573852 0.765008 0.112238
0.811639 0.775179 0.121204
0.967336 0.783174 0.128389
0.122969 0.962802 0.122973
0.357778 0.970621 0.132383
0.609755 0.978104 0.141703
0.842845 0.985354 0.151045
0.990978 0.990978 0.158522
0.017859 0.006433 0.191897
0.222218 0.013726 0.202103
0.466564 0.021026 0.212176
0.713672 0.028417 0.222241
0.888140 0.034382 0.230272
0.042651 0.218010 0.224891
0.256064 0.228457 0.235397
0.503561 0.238759 0.245754
0.748234 0.249040 0.256087
0.916850 0.257236 0.264324
0.069096 0.480973 0.258806
0.290721 0.492538 0.269576
0.540546 0.503848 0.280179
0.781970 0.515047 0.290745
0.944090 0.523913 0.299158
0.097073 0.747288 0.293523
0.326069 0.757933 0.304518
0.577400 0.768261 0.315331
0.814759 0.778405 0.326093
0.969738 0.786378 0.334654
0.125861 0.965234 0.328207
0.361265 0.973002 0.339388
0.613273 0.980434 0.350369
0.845859 0.987631 0.361289
0.993214 0.993214 0.369967
0.020162 0.008652 0.406694
0.225426 0.015999 0.418155
0.470110 0.023351 0.429387
0.717020 0.030792 0.440531
0.890954 0.036796 0.449369
0.045118 0.221207 0.443453
0.259355 0.231682 0.454985
0.507111 0.242009 0.466274
0.751508 0.252314 0.477464
0.919529 0.260530 0.486330
0.071715 0.484522 0.480396
0.294084 0.496088 0.491961
0.544089 0.507398 0.503271
0.785158 0.518596 0.514470
0.946621 0.527460 0.523336
0.099832 0.750563 0.517403
0.329492 0.761183 0.528962
0.580924 0.771485 0.540257
0.817850 0.781603 0.551429
0.972110 0.789554 0.560266
0.128747 0.967636 0.553615
0.364735 0.975352 0.565134
0.616767 0.982733 0.576377
0.848844 0.989878 0.587487
0.995419 0.995419 0.596268
0.022425 0.010834 0.627579
0.228565 0.018234 0.638900
0.473571 0.025636 0.649926
0.720280 0.033126 0.660800
0.893688 0.039168 0.669377
0.047540 0.224334 0.663640
0.262574 0.234836 0.674806
0.510575 0.245188 0.685670
0.754695 0.255517 0.696372
0.922129 0.263751 0.704805
0.074284 0.487986 0.699165
0.297371 0.499552 0.710139
0.547544 0.510862 0.720803
0.788260 0.522059 0.731296
0.949076 0.530921 0.739557
0.102538 0.753753 0.734033
0.332836 0.764347 0.744777
0.584360 0.774623 0.755205
0.820857 0.784715 0.765454
0.974410 0.792644 0.773513
0.131575 0.969964 0.767452
0.368125 0.977630 0.777934
0.620173 0.984960 0.788095
0.851746 0.992055 0.798069
0.997555 0.997555 0.805902
0.024667 0.012997 0.830463
0.231661 0.020448 0.840327
0.476978 0.027899 0.849862
0.723483 0.035437 0.859194
0.896367 0.041515 0.866504
0.049937 0.227420 0.861620
0.265748 0.237948 0.871107
0.513984 0.248324 0.880263
0.757824 0.258676 0.889209
0.924676 0.266927 0.896205
0.076825 0.491394 0.891531
0.300612 0.502961 0.900605
0.550944 0.514271 0.909345
0.791305 0.525466 0.917868
0.951479 0.534326 0.924522
0.105212 0.756884 0.920078
0.336132 0.767454 0.928701
0.587739 0.777704 0.936988
0.823807 0.787769 0.945052
0.976658 0.795677 0.951334
0.134369 0.972241 0.946614
0.371465 0.979857 0.954758
0.623522 0.987137 0.962566
0.854592 0.994181 0.970145
0.999641 0.999641 0.976035
