luts/royal-tenenbaums.cube
# CineLUT — The Royal Tenenbaums (2001)
# Gerado por generate_luts.py
LUT_3D_SIZE 33
0.015558 0.004217 0.015561
0.037584 0.005134 0.016513
0.060666 0.006043 0.017456
0.084797 0.006947 0.018395
0.109923 0.007850 0.019332
0.135978 0.008751 0.020268
0.162892 0.009652 0.021202
0.190590 0.010554 0.022137
0.218999 0.011455 0.023072
0.248046 0.012357 0.024007
0.277655 0.013260 0.024943
0.307752 0.014164 0.025880
0.338265 0.015069 0.026818
0.369119 0.015976 0.027757
0.400241 0.016883 0.028697
0.431558 0.017792 0.029638
0.462998 0.018703 0.030581
0.494488 0.019615 0.031525
0.525956 0.020528 0.032470
0.557330 0.021443 0.033417
0.588539 0.022360 0.034365
0.619511 0.023278 0.035315
0.650175 0.024198 0.036266
0.680461 0.025119 0.037219
0.710298 0.026043 0.038174
0.739614 0.026968 0.039130
0.768341 0.027894 0.040088
0.796408 0.028823 0.041047
0.823745 0.029753 0.042008
0.850282 0.030685 0.042971
0.875951 0.031619 0.043936
0.885295 0.031968 0.044296
0.885295 0.031968 0.044296
0.018541 0.026054 0.018544
0.040761 0.027037 0.019505
0.064022 0.028010 0.020457
0.088318 0.028979 0.021405
0.113598 0.029945 0.022350
0.139795 0.030910 0.023294
0.166838 0.031874 0.024237
0.194654 0.032837 0.025181
0.223170 0.033801 0.026124
0.252312 0.034765 0.027068
0.282005 0.035730 0.028012
0.312175 0.036695 0.028957
0.342749 0.037661 0.029903
0.373653 0.038628 0.030850
0.404815 0.039596 0.031798
0.436160 0.040565 0.032748
0.467617 0.041536 0.033698
0.499114 0.042508 0.034650
0.530578 0.043481 0.035604
0.561937 0.044455 0.036559
0.593120 0.045431 0.037515
0.624055 0.046408 0.038473
0.654672 0.047386 0.039432
0.684900 0.048366 0.040393
0.714668 0.049348 0.041355
0.743905 0.050331 0.042319
0.772542 0.051316 0.043285
0.800508 0.052302 0.044252
0.827733 0.053290 0.045221
0.854149 0.054279 0.046191
0.879684 0.055270 0.047164
0.888977 0.055640 0.047527
0.888977 0.055640 0.047527
0.021552 0.049360 0.021555
0.043963 0.050405 0.022525
0.067402 0.051439 0.023486
0.091863 0.052468 0.024442
0.117294 0.053493 0.025396
0.143631 0.054517 0.026348
0.170802 0.055540 0.027300
0.198735 0.056562 0.028251
0.227356 0.057584 0.029203
0.256591 0.058606 0.030155
0.286366 0.059629 0.031107
0.316607 0.060651 0.032061
0.347241 0.061675 0.033015
0.378194 0.062699 0.033970
0.409394 0.063723 0.034926
0.440766 0.064749 0.035884
0.472239 0.065776 0.036843
0.503740 0.066803 0.037803
0.535198 0.067832 0.038764
0.566540 0.068862 0.039727
0.597696 0.069893 0.040691
0.628593 0.070925 0.041657
0.659161 0.071958 0.042624
0.689329 0.072993 0.043592
0.719026 0.074029 0.044562
0.748182 0.075067 0.045534
0.776727 0.076105 0.046508
0.804591 0.077145 0.047483
0.831704 0.078187 0.048459
0.857996 0.079230 0.049437
0.883397 0.080274 0.050417
0.892637 0.080664 0.050783
0.892637 0.080664 0.050783
0.024590 0.074042 0.024594
0.047192 0.075144 0.025572
0.070805 0.076235 0.026541
0.095429 0.077320 0.027506
0.121011 0.078402 0.028468
0.147486 0.079481 0.029429
0.174784 0.080559 0.030389
0.202832 0.081635 0.031349
0.231556 0.082712 0.032309
0.260883 0.083788 0.033269
0.290738 0.084864 0.034230
0.321049 0.085940 0.035191
0.351741 0.087016 0.036153
0.382742 0.088093 0.037117
0.413977 0.089171 0.038081
0.445375 0.090249 0.039046
0.476862 0.091328 0.040013
0.508367 0.092408 0.040981
0.539817 0.093488 0.041950
0.571141 0.094570 0.042921
0.602267 0.095652 0.043893
0.633124 0.096736 0.044866
0.663642 0.097820 0.045841
0.693748 0.098906 0.046818
0.723374 0.099992 0.047795
0.752447 0.101080 0.048775
0.780899 0.102169 0.049756
0.808659 0.103259 0.050738
0.835657 0.104350 0.051723
0.861824 0.105443 0.052708
0.887090 0.106537 0.053696
0.896276 0.106945 0.054065
0.896276 0.106945 0.054065
0.027656 0.100006 0.027659
0.050445 0.101161 0.028646
0.074233 0.102305 0.029624
0.099018 0.103442 0.030597
0.124749 0.104575 0.031568
0.151360 0.105706 0.032537
0.178783 0.106835 0.033505
0.206944 0.107962 0.034473
0.235770 0.109089 0.035441
0.265187 0.110215 0.036409
0.295122 0.111341 0.037378
0.325500 0.112467 0.038348
0.356249 0.113593 0.039318
0.387295 0.114719 0.040289
0.418565 0.115845 0.041261
0.449986 0.116972 0.042235
0.481486 0.118099 0.043209
0.512992 0.119227 0.044185
0.544434 0.120356 0.045162
0.575738 0.121485 0.046141
0.606833 0.122615 0.047120
0.637649 0.123746 0.048102
0.668114 0.124877 0.049084
0.698158 0.126010 0.050068
0.727710 0.127143 0.051054
0.756699 0.128278 0.052041
0.785056 0.129413 0.053030
0.812710 0.130550 0.054020
0.839592 0.131687 0.055011
0.865632 0.132825 0.056005
0.890761 0.133965 0.056999
0.899893 0.134390 0.057371
0.899893 0.134390 0.057371
0.030748 0.127157 0.030752
0.053724 0.128363 0.031747
0.077684 0.129555 0.032734
0.102629 0.130740 0.033715
0.128506 0.131921 0.034694
0.155253 0.133099 0.035671
0.182799 0.134275 0.036648
0.211071 0.135449 0.037624
0.239997 0.136622 0.038600
0.269503 0.137795 0.039576
0.299515 0.138967 0.040553
0.329960 0.140138 0.041530
0.360764 0.141309 0.042509
0.391854 0.142481 0.043488
0.423157 0.143652 0.044468
0.454600 0.144824 0.045449
0.486111 0.145995 0.046432
0.517618 0.147168 0.047415
0.549048 0.148340 0.048400
0.580331 0.149514 0.049386
0.611394 0.150687 0.050374
0.642167 0.151862 0.051362
0.672578 0.153037 0.052353
0.702557 0.154212 0.053344
0.732034 0.155389 0.054337
0.760937 0.156566 0.055332
0.789197 0.157744 0.056328
0.816745 0.158923 0.057326
0.843509 0.160102 0.058325
0.869421 0.161282 0.059326
0.894411 0.162464 0.060328
0.903489 0.162905 0.060703
0.903489 0.162905 0.060703
0.033867 0.155403 0.033871
0.057028 0.156654 0.034875
0.081159 0.157891 0.035870
0.106261 0.159120 0.036859
0.132284 0.160345 0.037846
0.159164 0.161567 0.038832
0.186832 0.162786 0.039816
0.215214 0.164003 0.040801
0.244238 0.165218 0.041785
0.273832 0.166433 0.042769
0.303919 0.167647 0.043754
0.334429 0.168860 0.044739
0.365286 0.170073 0.045725
0.396418 0.171285 0.046712
0.427753 0.172498 0.047700
0.459216 0.173710 0.048689
0.490737 0.174923 0.049679
0.522242 0.176136 0.050671
0.553660 0.177349 0.051663
0.584919 0.178562 0.052657
0.615949 0.179776 0.053652
0.646677 0.180990 0.054648
0.677033 0.182204 0.055646
0.706946 0.183419 0.056645
0.736346 0.184635 0.057646
0.765162 0.185851 0.058648
0.793324 0.187067 0.059652
0.820762 0.188285 0.060657
0.847408 0.189503 0.061663
0.873190 0.190721 0.062671
0.898039 0.191940 0.063681
0.907062 0.192396 0.064058
0.907062 0.192396 0.064058
0.037013 0.184650 0.037016
0.060357 0.185942 0.038029
0.084657 0.187219 0.039032
0.109915 0.188489 0.040030
0.136082 0.189754 0.041025
0.163094 0.191014 0.042019
0.190881 0.192272 0.043011
0.219372 0.193528 0.044003
0.248493 0.194783 0.044995
0.278172 0.196036 0.045988
0.308334 0.197288 0.046980
0.338906 0.198539 0.047973
0.369815 0.199789 0.048967
0.400988 0.201039 0.049962
0.432352 0.202289 0.050958
0.463835 0.203539 0.051955
0.495363 0.204788 0.052952
0.526865 0.206037 0.053951
0.558269 0.207287 0.054951
0.589504 0.208536 0.055953
0.620498 0.209786 0.056955
0.651180 0.211036 0.057959
0.681479 0.212286 0.058965
0.711324 0.213536 0.059971
0.740645 0.214787 0.060979
0.769372 0.216038 0.061989
0.797435 0.217290 0.063000
0.824763 0.218542 0.064012
0.851288 0.219794 0.065026
0.876938 0.221047 0.066042
0.901646 0.222300 0.067058
0.910613 0.222768 0.067438
0.910613 0.222768 0.067438
0.040185 0.214803 0.040188
0.063710 0.216132 0.041209
0.088178 0.217446 0.042220
0.113590 0.218752 0.043226
0.139899 0.220052 0.044230
0.167041 0.221349 0.045231
0.194947 0.222642 0.046232
0.223544 0.223933 0.047232
0.252761 0.225222 0.048232
0.282523 0.226509 0.049232
0.312758 0.227795 0.050232
0.343391 0.229080 0.051233
0.374351 0.230365 0.052235
0.405563 0.231648 0.053237
0.436955 0.232931 0.054241
0.468455 0.234214 0.055245
0.499989 0.235496 0.056250
0.531487 0.236779 0.057257
0.562876 0.238061 0.058265
0.594084 0.239342 0.059273
0.625041 0.240624 0.060283
0.655675 0.241906 0.061295
0.685915 0.243188 0.062308
0.715691 0.244470 0.063322
0.744933 0.245752 0.064337
0.773569 0.247035 0.065354
0.801531 0.248317 0.066372
0.828747 0.249600 0.067392
0.855149 0.250883 0.068413
0.880667 0.252167 0.069436
0.905231 0.253450 0.070460
0.914142 0.253930 0.070843
0.914142 0.253930 0.070843
0.043382 0.245768 0.043386
0.067088 0.247130 0.044415
0.091721 0.248477 0.045434
0.117286 0.249815 0.046449
0.143736 0.251148 0.047460
0.171006 0.252476 0.048469
0.199028 0.253800 0.049478
0.227731 0.255122 0.050486
0.257041 0.256442 0.051494
0.286886 0.257760 0.052501
0.317191 0.259076 0.053510
0.347885 0.260391 0.054518
0.378893 0.261706 0.055528
0.410143 0.263019 0.056538
0.441561 0.264331 0.057549
0.473076 0.265643 0.058560
0.504616 0.266955 0.059573
0.536107 0.268266 0.060587
0.567479 0.269576 0.061602
0.598659 0.270887 0.062619
0.629577 0.272197 0.063636
0.660162 0.273507 0.064655
0.690342 0.274817 0.065675
0.720047 0.276127 0.066696
0.749207 0.277437 0.067719
0.777752 0.278746 0.068743
0.805610 0.280056 0.069769
0.832713 0.281366 0.070796
0.858991 0.282676 0.071824
0.884374 0.283986 0.072854
0.908793 0.285296 0.073885
0.917647 0.285786 0.074271
0.917647 0.285786 0.074271
0.046606 0.277453 0.046610
0.070489 0.278844 0.047647
0.095287 0.280219 0.048674
0.121003 0.281586 0.049697
0.147592 0.282946 0.050716
0.174989 0.284301 0.051733
0.203126 0.285653 0.052749
0.231932 0.287002 0.053765
0.261334 0.288349 0.054781
0.291259 0.289693 0.055796
0.321634 0.291036 0.056812
0.352386 0.292378 0.057828
0.383441 0.293718 0.058845
0.414727 0.295057 0.059863
0.446171 0.296395 0.060881
0.477700 0.297732 0.061901
0.509242 0.299069 0.062921
0.540725 0.300405 0.063942
0.572078 0.301741 0.064965
0.603229 0.303076 0.065988
0.634107 0.304410 0.067013
0.664641 0.305745 0.068039
0.694759 0.307079 0.069067
0.724392 0.308412 0.070095
0.753469 0.309746 0.071125
0.781919 0.311079 0.072157
0.809674 0.312412 0.073189
0.836662 0.313746 0.074223
0.862814 0.315079 0.075259
0.888061 0.316412 0.076296
0.912333 0.317745 0.077334
0.921130 0.318242 0.077722
0.921130 0.318242 0.077722
0.049855 0.309762 0.049859
0.073915 0.311179 0.050904
0.098874 0.312579 0.051940
0.124741 0.313969 0.052970
0.151466 0.315353 0.053997
0.178989 0.316732 0.055022
0.207239 0.318108 0.056046
0.236147 0.319480 0.057069
0.265640 0.320849 0.058092
0.295644 0.322217 0.059116
0.326087 0.323582 0.060139
0.356895 0.324946 0.061163
0.387995 0.326308 0.062187
0.419315 0.327669 0.063212
0.450782 0.329029 0.064238
0.482324 0.330388 0.065265
0.513868 0.331746 0.066293
0.545342 0.333103 0.067322
0.576674 0.334459 0.068351
0.607794 0.335815 0.069382
0.638630 0.337170 0.070414
0.669111 0.338525 0.071448
0.699166 0.339879 0.072482
0.728725 0.341233 0.073518
0.757717 0.342587 0.074555
0.786072 0.343940 0.075594
0.813721 0.345292 0.076634
0.840592 0.346645 0.077675
0.866617 0.347997 0.078717
0.891727 0.349349 0.079761
0.915851 0.350701 0.080806
0.924589 0.351206 0.081197
0.924589 0.351206 0.081197
0.053129 0.342603 0.053133
0.077364 0.344041 0.054187
0.102484 0.345461 0.055230
0.128498 0.346872 0.056268
0.155359 0.348276 0.057303
0.183005 0.349675 0.058336
0.211368 0.351069 0.059367
0.240376 0.352461 0.060398
0.269957 0.353849 0.061429
0.300039 0.355235 0.062460
0.330548 0.356619 0.063491
0.361411 0.358001 0.064522
0.392555 0.359382 0.065554
0.423908 0.360761 0.066586
0.455397 0.362138 0.067620
0.486949 0.363515 0.068654
0.518493 0.364890 0.069689
0.549956 0.366265 0.070725
0.581266 0.367638 0.071762
0.612354 0.369011 0.072800
0.643146 0.370383 0.073839
0.673573 0.371754 0.074880
0.703563 0.373125 0.075922
0.733047 0.374495 0.076965
0.761952 0.375865 0.078009
0.790211 0.377234 0.079054
0.817751 0.378602 0.080101
0.844505 0.379970 0.081149
0.870401 0.381338 0.082199
0.895371 0.382705 0.083250
0.919345 0.384072 0.084302
0.928025 0.384582 0.084695
0.928025 0.384582 0.084695
0.056429 0.375882 0.056432
0.080836 0.377336 0.057494
0.106116 0.378773 0.058545
0.132276 0.380200 0.059591
0.159271 0.381620 0.060634
0.187039 0.383034 0.061674
0.215512 0.384444 0.062713
0.244618 0.385851 0.063752
0.274287 0.387255 0.064790
0.304444 0.388656 0.065828
0.335018 0.390054 0.066867
0.365934 0.391451 0.067905
0.397121 0.392846 0.068945
0.428505 0.394239 0.069984
0.460013 0.395630 0.071025
0.491575 0.397021 0.072066
0.523117 0.398410 0.073109
0.554567 0.399798 0.074152
0.585854 0.401184 0.075196
0.616907 0.402570 0.076242
0.647655 0.403955 0.077288
0.678026 0.405339 0.078336
0.707950 0.406722 0.079384
0.737356 0.408105 0.080434
0.766174 0.409487 0.081486
0.794333 0.410868 0.082538
0.821765 0.412248 0.083592
0.848398 0.413628 0.084647
0.874165 0.415007 0.085703
0.898994 0.416386 0.086761
0.922816 0.417764 0.087820
0.931437 0.418278 0.088216
0.931437 0.418278 0.088216
0.059753 0.409504 0.059757
0.084332 0.410971 0.060826
0.109769 0.412420 0.061885
0.136074 0.413859 0.062939
0.163201 0.415291 0.063989
0.191089 0.416717 0.065037
0.219671 0.418139 0.066084
0.248874 0.419557 0.067130
0.278628 0.420972 0.068175
0.308860 0.422384 0.069221
0.339496 0.423793 0.070267
0.370464 0.425200 0.071313
0.401691 0.426606 0.072359
0.433105 0.428009 0.073406
0.464632 0.429411 0.074454
0.496201 0.430811 0.075503
0.527739 0.432210 0.076552
0.559176 0.433607 0.077603
0.590438 0.435003 0.078654
0.621455 0.436398 0.079707
0.652156 0.437792 0.080760
0.682470 0.439185 0.081815
0.712325 0.440577 0.082870
0.741653 0.441968 0.083927
0.770381 0.443358 0.084986
0.798441 0.444748 0.086045
0.825762 0.446136 0.087106
0.852274 0.447524 0.088168
0.877908 0.448911 0.089231
0.902594 0.450297 0.090295
0.926264 0.451683 0.091361
0.934825 0.452200 0.091759
0.934825 0.452200 0.091759
0.063102 0.443375 0.063106
0.087851 0.444851 0.064183
0.113443 0.446309 0.065250
0.139891 0.447756 0.066311
0.167149 0.449196 0.067368
0.195156 0.450630 0.068424
0.223844 0.452060 0.069478
0.253143 0.453485 0.070532
0.282981 0.454907 0.071585
0.313285 0.456326 0.072638
0.343982 0.457742 0.073691
0.375001 0.459156 0.074744
0.406267 0.460568 0.075798
0.437708 0.461978 0.076852
0.469253 0.463386 0.077907
0.500827 0.464792 0.078963
0.532361 0.466197 0.080019
0.563781 0.467600 0.081077
0.595017 0.469001 0.082135
0.625997 0.470402 0.083195
0.656649 0.471801 0.084255
0.686904 0.473199 0.085317
0.716690 0.474596 0.086379
0.745937 0.475991 0.087443
0.774574 0.477386 0.088508
0.802532 0.478780 0.089575
0.829741 0.480172 0.090642
0.856130 0.481564 0.091711
0.881631 0.482955 0.092781
0.906173 0.484345 0.093852
0.929689 0.485734 0.094925
0.938189 0.486253 0.095325
0.938189 0.486253 0.095325
0.066475 0.477403 0.066479
0.091392 0.478884 0.067564
0.117138 0.480346 0.068638
0.143728 0.481798 0.069707
0.171115 0.483242 0.070772
0.199238 0.484679 0.071835
0.228032 0.486112 0.072897
0.257425 0.487541 0.073958
0.287345 0.488967 0.075018
0.317720 0.490389 0.076078
0.348477 0.491808 0.077138
0.379544 0.493225 0.078199
0.410847 0.494639 0.079260
0.442315 0.496051 0.080321
0.473875 0.497462 0.081383
0.505454 0.498870 0.082446
0.536981 0.500277 0.083510
0.568384 0.501681 0.084574
0.599591 0.503085 0.085639
0.630532 0.504487 0.086706
0.661135 0.505887 0.087773
0.691329 0.507286 0.088842
0.721044 0.508684 0.089911
0.750208 0.510081 0.090982
0.778753 0.511476 0.092054
0.806608 0.512870 0.093127
0.833703 0.514263 0.094201
0.859967 0.515655 0.095276
0.885333 0.517046 0.096353
0.909730 0.518436 0.097431
0.933089 0.519825 0.098510
0.941528 0.520343 0.098914
0.941528 0.520343 0.098914
0.069872 0.511493 0.069876
0.094956 0.512974 0.070969
0.120855 0.514437 0.072051
0.147583 0.515889 0.073127
0.175098 0.517333 0.074200
0.203337 0.518771 0.075270
0.232234 0.520203 0.076339
0.261719 0.521632 0.077407
0.291719 0.523056 0.078475
0.322164 0.524478 0.079542
0.352979 0.525896 0.080609
0.384093 0.527312 0.081677
0.415432 0.528725 0.082745
0.446925 0.530136 0.083813
0.478498 0.531544 0.084882
0.510080 0.532951 0.085952
0.541599 0.534356 0.087023
0.572983 0.535759 0.088094
0.604160 0.537160 0.089166
0.635060 0.538559 0.090240
0.665612 0.539957 0.091314
0.695744 0.541354 0.092389
0.725386 0.542749 0.093465
0.754467 0.544142 0.094543
0.782918 0.545535 0.095622
0.810667 0.546926 0.096701
0.837647 0.548315 0.097782
0.863785 0.549704 0.098864
0.889014 0.551091 0.099948
0.913264 0.552477 0.101032
0.936465 0.553862 0.102118
0.944843 0.554378 0.102524
0.944843 0.554378 0.102524
0.073294 0.545552 0.073297
0.098541 0.547029 0.074398
0.124591 0.548488 0.075487
0.151458 0.549936 0.076571
0.179098 0.551376 0.077651
0.207451 0.552810 0.078728
0.236450 0.554239 0.079804
0.266025 0.555663 0.080880
0.296105 0.557083 0.081954
0.326617 0.558499 0.083029
0.357489 0.559913 0.084103
0.388648 0.561324 0.085178
0.420021 0.562732 0.086253
0.451537 0.564137 0.087329
0.483122 0.565540 0.088405
0.514706 0.566941 0.089481
0.546215 0.568340 0.090559
0.577578 0.569737 0.091637
0.608724 0.571132 0.092716
0.639582 0.572526 0.093796
0.670081 0.573917 0.094877
0.700149 0.575307 0.095959
0.729716 0.576696 0.097042
0.758712 0.578082 0.098126
0.787067 0.579468 0.099211
0.814710 0.580851 0.100298
0.841573 0.582234 0.101385
0.867584 0.583615 0.102474
0.892674 0.584994 0.103564
0.916775 0.586373 0.104655
0.939817 0.587750 0.105747
0.948133 0.588263 0.106155
0.948133 0.588263 0.106155
0.076739 0.579485 0.076742
0.102149 0.580955 0.077850
0.128348 0.582406 0.078947
0.155351 0.583846 0.080038
0.183115 0.585278 0.081125
0.211580 0.586704 0.082210
0.240680 0.588124 0.083293
0.270344 0.589540 0.084376
0.300501 0.590952 0.085457
0.331079 0.592360 0.086539
0.362006 0.593765 0.087621
0.393208 0.595167 0.088702
0.424614 0.596565 0.089784
0.456152 0.597962 0.090866
0.487748 0.599356 0.091949
0.519330 0.600747 0.093033
0.550828 0.602137 0.094117
0.582169 0.603524 0.095202
0.613283 0.604909 0.096288
0.644097 0.606292 0.097375
0.674540 0.607674 0.098462
0.704543 0.609053 0.099551
0.734035 0.610431 0.100641
0.762944 0.611807 0.101732
0.791202 0.613181 0.102823
0.818737 0.614554 0.103916
0.845480 0.615926 0.105010
0.871362 0.617295 0.106106
0.896313 0.618664 0.107202
0.920264 0.620030 0.108299
0.943145 0.621396 0.109398
0.951398 0.621905 0.109809
0.951398 0.621905 0.109809
0.080207 0.613198 0.080211
0.105779 0.614657 0.081326
0.132125 0.616096 0.082430
0.159263 0.617525 0.083528
0.187149 0.618945 0.084623
0.215725 0.620359 0.085715
0.244923 0.621767 0.086805
0.274675 0.623171 0.087895
0.304907 0.624570 0.088983
0.335550 0.625965 0.090072
0.366530 0.627358 0.091160
0.397775 0.628747 0.092249
0.429212 0.630133 0.093338
0.460769 0.631516 0.094427
0.492373 0.632897 0.095516
0.523954 0.634275 0.096607
0.555439 0.635651 0.097698
0.586757 0.637024 0.098789
0.617835 0.638395 0.099882
0.648604 0.639765 0.100975
0.678991 0.641132 0.102070
0.708927 0.642497 0.103165
0.738341 0.643861 0.104261
0.767162 0.645223 0.105359
0.795321 0.646582 0.106457
0.822746 0.647940 0.107556
0.849370 0.649297 0.108657
0.875121 0.650651 0.109759
0.899930 0.652004 0.110861
0.923729 0.653356 0.111965
0.946447 0.654705 0.113070
0.954637 0.655209 0.113483
0.954637 0.655209 0.113483
0.083698 0.646599 0.083702
0.109430 0.648042 0.084825
0.135922 0.649466 0.085936
0.163193 0.650878 0.087041
0.191200 0.652283 0.088143
0.219884 0.653681 0.089242
0.249180 0.655073 0.090340
0.279017 0.656460 0.091436
0.309324 0.657843 0.092532
0.340029 0.659222 0.093627
0.371061 0.660598 0.094722
0.402346 0.661970 0.095818
0.433812 0.663339 0.096913
0.465388 0.664705 0.098009
0.497000 0.666069 0.099106
0.528577 0.667430 0.100203
0.560047 0.668788 0.101300
0.591339 0.670145 0.102399
0.622382 0.671498 0.103498
0.653103 0.672850 0.104598
0.683433 0.674199 0.105699
0.713301 0.675546 0.106801
0.742635 0.676892 0.107903
0.771366 0.678235 0.109007
0.799424 0.679576 0.110112
0.826739 0.680916 0.111218
0.853240 0.682253 0.112325
0.878859 0.683589 0.113433
0.903525 0.684923 0.114542
0.927170 0.686255 0.115652
0.949725 0.687585 0.116764
0.957851 0.688081 0.117179
0.957851 0.688081 0.117179
0.087213 0.679593 0.087217
0.113102 0.681015 0.088347
0.139738 0.682420 0.089465
0.167140 0.683813 0.090577
0.195267 0.685197 0.091686
0.224059 0.686575 0.092792
0.253450 0.687947 0.093897
0.283370 0.689315 0.095000
0.313750 0.690677 0.096103
0.344517 0.692036 0.097205
0.375598 0.693391 0.098307
0.406922 0.694743 0.099409
0.438416 0.696091 0.100511
0.470008 0.697437 0.101614
0.501626 0.698779 0.102717
0.533198 0.700119 0.103821
0.564652 0.701457 0.104925
0.595917 0.702791 0.106030
0.626922 0.704124 0.107136
0.657595 0.705453 0.108242
0.687865 0.706781 0.109349
0.717663 0.708106 0.110458
0.746916 0.709430 0.111567
0.775556 0.710751 0.112677
0.803512 0.712070 0.113788
0.830714 0.713386 0.114900
0.857092 0.714701 0.116014
0.882577 0.716014 0.117128
0.907099 0.717325 0.118243
0.930588 0.718634 0.119360
0.952977 0.719942 0.120478
0.961038 0.720429 0.120895
0.961038 0.720429 0.120895
0.090750 0.712086 0.090754
0.116796 0.713485 0.091891
0.143574 0.714865 0.093017
0.171106 0.716234 0.094136
0.199350 0.717595 0.095252
0.228247 0.718949 0.096365
0.257732 0.720297 0.097476
0.287735 0.721641 0.098586
0.318186 0.722979 0.099695
0.349012 0.724314 0.100804
0.380142 0.725644 0.101913
0.411503 0.726972 0.103022
0.443023 0.728296 0.104131
0.474630 0.729616 0.105240
0.506253 0.730934 0.106350
0.537818 0.732249 0.107460
0.569254 0.733561 0.108571
0.600491 0.734870 0.109682
0.631456 0.736177 0.110795
0.662079 0.737482 0.111908
0.692288 0.738784 0.113021
0.722014 0.740083 0.114136
0.751185 0.741381 0.115252
0.779732 0.742676 0.116368
0.807584 0.743968 0.117486
0.834671 0.745259 0.118604
0.860924 0.746547 0.119723
0.886273 0.747834 0.120844
0.910649 0.749118 0.121966
0.933983 0.750400 0.123088
0.956204 0.751681 0.124212
0.964200 0.752158 0.124632
0.964200 0.752158 0.124632
0.094309 0.743984 0.094313
0.120510 0.745355 0.095458
0.147429 0.746708 0.096590
0.175089 0.748049 0.097717
0.203449 0.749382 0.098839
0.232450 0.750709 0.099959
0.262027 0.752029 0.101077
0.292111 0.753344 0.102194
0.322631 0.754655 0.103310
0.353515 0.755961 0.104426
0.384692 0.757263 0.105541
0.416089 0.758562 0.106657
0.447633 0.759858 0.107772
0.479254 0.761150 0.108888
0.510879 0.762439 0.110004
0.542435 0.763725 0.111121
0.573852 0.765008 0.112238
0.605059 0.766288 0.113356
0.635983 0.767566 0.114475
0.666554 0.768841 0.115594
0.696701 0.770113 0.116714
0.726353 0.771383 0.117835
0.755441 0.772651 0.118957
0.783893 0.773916 0.120080
0.811639 0.775179 0.121204
0.838611 0.776439 0.122328
0.864737 0.777697 0.123454
0.889949 0.778953 0.124581
0.914178 0.780207 0.125708
0.937352 0.781459 0.126837
0.959405 0.782708 0.127967
0.967336 0.783174 0.128389
0.967336 0.783174 0.128389
0.097891 0.775194 0.097895
0.124244 0.776533 0.099047
0.151303 0.777854 0.100186
0.179089 0.779164 0.101320
0.207563 0.780465 0.102449
0.236667 0.781760 0.103576
0.266335 0.783048 0.104700
0.296498 0.784331 0.105824
0.327085 0.785610 0.106947
0.358026 0.786884 0.108069
0.389248 0.788154 0.109191
0.420678 0.789421 0.110313
0.452246 0.790684 0.111435
0.483879 0.791944 0.112557
0.515504 0.793200 0.113680
0.547051 0.794453 0.114803
0.578447 0.795704 0.115927
0.609622 0.796951 0.117051
0.640503 0.798195 0.118176
0.671021 0.799437 0.119302
0.701104 0.800676 0.120428
0.730681 0.801913 0.121555
0.759683 0.803147 0.122683
0.788039 0.804378 0.123812
0.815678 0.805607 0.124942
0.842532 0.806834 0.126073
0.868531 0.808058 0.127205
0.893604 0.809279 0.128337
0.917683 0.810499 0.129471
0.940698 0.811716 0.130606
0.962580 0.812931 0.131742
0.970444 0.813383 0.132166
0.970444 0.813383 0.132166
0.101495 0.805622 0.101499
0.127999 0.806925 0.102658
0.155195 0.808210 0.103804
0.183106 0.809484 0.104944
0.211693 0.810750 0.106080
0.240897 0.812008 0.107214
0.270654 0.813261 0.108345
0.300895 0.814508 0.109475
0.331548 0.815751 0.110605
0.362544 0.816989 0.111734
0.393809 0.818224 0.112862
0.425272 0.819454 0.113990
0.456861 0.820681 0.115119
0.488504 0.821904 0.116248
0.520129 0.823124 0.117377
0.551664 0.824340 0.118506
0.583038 0.825554 0.119636
0.614179 0.826765 0.120767
0.645016 0.827972 0.121898
0.675479 0.829177 0.123030
0.705496 0.830379 0.124162
0.734997 0.831578 0.125296
0.763912 0.832774 0.126430
0.792170 0.833968 0.127565
0.819701 0.835160 0.128701
0.846436 0.836348 0.129838
0.872304 0.837534 0.130976
