luts/royal-tenenbaums.cube
# CineLUT — The Royal Tenenbaums (2001)
# Gerado por generate_luts.py
LUT_3D_SIZE 9
0.015558 0.004217 0.015561
0.109923 0.007850 0.019332
0.218999 0.011455 0.023072
0.338265 0.015069 0.026818
0.462998 0.018703 0.030581
0.588539 0.022360 0.034365
0.710298 0.026043 0.038174
0.823745 0.029753 0.042008
0.885295 0.031968 0.044296
0.027656 0.100006 0.027659
0.124749 0.104575 0.031568
0.235770 0.109089 0.035441
0.356249 0.113593 0.039318
0.481486 0.118099 0.043209
0.606833 0.122615 0.047120
0.727710 0.127143 0.051054
0.839592 0.131687 0.055011
0.899893 0.134390 0.057371
0.040185 0.214803 0.040188
0.139899 0.220052 0.044230
0.252761 0.225222 0.048232
0.374351 0.230365 0.052235
0.499989 0.235496 0.056250
0.625041 0.240624 0.060283
0.744933 0.245752 0.064337
0.855149 0.250883 0.068413
0.914142 0.253930 0.070843
0.053129 0.342603 0.053133
0.155359 0.348276 0.057303
0.269957 0.353849 0.061429
0.392555 0.359382 0.065554
0.518493 0.364890 0.069689
0.643146 0.370383 0.073839
0.761952 0.375865 0.078009
0.870401 0.381338 0.082199
0.928025 0.384582 0.084695
0.066475 0.477403 0.066479
0.171115 0.483242 0.070772
0.287345 0.488967 0.075018
0.410847 0.494639 0.079260
0.536981 0.500277 0.083510
0.661135 0.505887 0.087773
0.778753 0.511476 0.092054
0.885333 0.517046 0.096353
0.941528 0.520343 0.098914
0.080207 0.613198 0.080211
0.187149 0.618945 0.084623
0.304907 0.624570 0.088983
0.429212 0.630133 0.093338
0.555439 0.635651 0.097698
0.678991 0.641132 0.102070
0.795321 0.646582 0.106457
0.899930 0.652004 0.110861
0.954637 0.655209 0.113483
0.094309 0.743984 0.094313
0.203449 0.749382 0.098839
0.322631 0.754655 0.103310
0.447633 0.759858 0.107772
0.573852 0.765008 0.112238
0.696701 0.770113 0.116714
0.811639 0.775179 0.121204
0.914178 0.780207 0.125708
0.967336 0.783174 0.128389
0.108768 0.863756 0.108772
0.219998 0.868549 0.113407
0.340500 0.873216 0.117984
0.466098 0.877810 0.122549
0.592206 0.882344 0.127116
0.714248 0.886827 0.131692
0.827695 0.891261 0.136278
0.928060 0.895651 0.140879
0.979609 0.898235 0.143616
0.122969 0.962802 0.122973
0.236106 0.966771 0.127709
0.357778 0.970621 0.132383
0.483850 0.974395 0.137043
0.609755 0.978104 0.141703
0.730928 0.981756 0.146369
0.842845 0.985354 0.151045
0.941030 0.988899 0.155734
0.990978 0.990978 0.158522
0.016676 0.005294 0.094666
0.111302 0.008940 0.099194
0.220566 0.012559 0.103668
0.339950 0.016186 0.108133
0.464734 0.019832 0.112601
0.590262 0.023501 0.117080
0.711942 0.027197 0.121571
0.825247 0.030919 0.126079
0.886682 0.033141 0.128761
0.028815 0.101363 0.109133
0.126159 0.105943 0.113771
0.237358 0.110466 0.118350
0.357946 0.114980 0.122918
0.483225 0.119496 0.127487
0.608549 0.124021 0.132065
0.729337 0.128559 0.136654
0.841067 0.133111 0.141257
0.901248 0.135820 0.143995
0.041384 0.216363 0.123941
0.141339 0.221620 0.128683
0.254368 0.226796 0.133363
0.376058 0.231946 0.138029
0.501729 0.237084 0.142695
0.626747 0.242218 0.147368
0.746541 0.247352 0.152050
0.856596 0.252489 0.156744
0.915462 0.255539 0.159536
0.054367 0.344291 0.139074
0.156828 0.349967 0.143916
0.271584 0.355544 0.148692
0.394271 0.361080 0.153453
0.520231 0.366592 0.158211
0.644842 0.372088 0.162973
0.763541 0.377572 0.167744
0.871818 0.383048 0.172525
0.929311 0.386294 0.175367
0.067750 0.479142 0.154518
0.172610 0.484980 0.159455
0.288988 0.490706 0.164323
0.412570 0.496379 0.169172
0.538717 0.502016 0.174018
0.662819 0.507627 0.178866
0.780321 0.513215 0.183720
0.886720 0.518785 0.188583
0.942778 0.522082 0.191474
0.081517 0.614911 0.170258
0.188670 0.620655 0.175285
0.306567 0.626277 0.180239
0.430941 0.631836 0.185174
0.557172 0.637351 0.190102
0.680662 0.642829 0.195031
0.796865 0.648276 0.199965
0.901285 0.653695 0.204906
0.955848 0.656897 0.207841
0.095654 0.745594 0.186278
0.204994 0.750986 0.191390
0.324305 0.756252 0.196427
0.449367 0.761449 0.201442
0.575580 0.766593 0.206448
0.698357 0.771692 0.211454
0.813160 0.776751 0.216462
0.915498 0.781773 0.221476
0.968508 0.784735 0.224455
0.110145 0.865187 0.202563
0.221566 0.869970 0.207756
0.342187 0.874628 0.212871
0.467835 0.879212 0.217961
0.593927 0.883737 0.223041
0.715889 0.888210 0.228119
0.829189 0.892635 0.233198
0.929345 0.897015 0.238280
0.980741 0.899593 0.241299
0.124376 0.963989 0.218434
0.237695 0.967945 0.223699
0.359475 0.971783 0.228885
0.485589 0.975544 0.234043
0.611469 0.979241 0.239189
0.732551 0.982880 0.244331
0.844315 0.986465 0.249473
0.942280 0.989997 0.254618
0.992069 0.992069 0.257672
0.017859 0.006433 0.191897
0.112759 0.010093 0.197038
0.222218 0.013726 0.202103
0.341726 0.017367 0.207144
0.466564 0.021026 0.212176
0.592076 0.024709 0.217207
0.713672 0.028417 0.222241
0.826826 0.032152 0.227279
0.888140 0.034382 0.230272
0.030041 0.102796 0.208272
0.127648 0.107387 0.213491
0.239032 0.111921 0.218632
0.359734 0.116444 0.223747
0.485057 0.120970 0.228852
0.610355 0.125505 0.233953
0.731049 0.130053 0.239055
0.842618 0.134615 0.244161
0.902671 0.137329 0.247193
0.042651 0.218010 0.224891
0.142860 0.223274 0.230185
0.256064 0.228457 0.235397
0.377857 0.233614 0.240582
0.503561 0.238759 0.245754
0.628544 0.243899 0.250921
0.748234 0.249040 0.256087
0.858117 0.254183 0.261256
0.916850 0.257236 0.264324
0.055675 0.346071 0.241741
0.158378 0.351751 0.247105
0.273299 0.357331 0.252384
0.396080 0.362871 0.257633
0.522063 0.368386 0.262868
0.646628 0.373885 0.268096
0.765213 0.379372 0.273322
0.873308 0.384851 0.278549
0.930661 0.388099 0.281651
0.069096 0.480973 0.258806
0.174188 0.486812 0.264235
0.290721 0.492538 0.269576
0.414387 0.498211 0.274885
0.540546 0.503848 0.280179
0.664592 0.509459 0.285464
0.781970 0.515047 0.290745
0.888177 0.520617 0.296025
0.944090 0.523913 0.299158
0.082900 0.616714 0.276072
0.190275 0.622455 0.281561
0.308316 0.628073 0.286959
0.432763 0.633630 0.292324
0.558997 0.639141 0.297671
0.682421 0.644616 0.303008
0.798490 0.650060 0.308340
0.902708 0.655474 0.313669
0.957120 0.658674 0.316831
0.097073 0.747288 0.293523
0.206624 0.752673 0.299067
0.326069 0.757933 0.304518
0.451194 0.763123 0.309934
0.577400 0.768261 0.315331
0.700101 0.773353 0.320715
0.814759 0.778405 0.326093
0.916886 0.783420 0.331467
0.969738 0.786378 0.334654
0.111598 0.866691 0.311144
0.223220 0.871464 0.316739
0.343965 0.876112 0.322239
0.469665 0.880687 0.327701
0.595740 0.885201 0.333142
0.717615 0.889664 0.338570
0.830762 0.894079 0.343989
0.930696 0.898448 0.349403
0.981928 0.901020 0.352613
0.125861 0.965234 0.328207
0.239370 0.969177 0.333846
0.361265 0.973002 0.339388
0.487421 0.976750 0.344890
0.613273 0.980434 0.350369
0.734260 0.984060 0.355834
0.845859 0.987631 0.361289
0.943594 0.991150 0.366737
0.993214 0.993214 0.369967
0.019017 0.007549 0.296971
0.114184 0.011224 0.302525
0.223834 0.014870 0.307987
0.343462 0.018524 0.313412
0.468351 0.022196 0.318817
0.593846 0.025891 0.324211
0.715360 0.029612 0.329597
0.828365 0.033360 0.334979
0.889559 0.035597 0.338171
0.031241 0.104199 0.314624
0.129105 0.108800 0.320228
0.240670 0.113344 0.325737
0.361482 0.117877 0.331207
0.486845 0.122413 0.336657
0.612117 0.126958 0.342092
0.732719 0.131515 0.347519
0.844129 0.136086 0.352940
0.904058 0.138805 0.356155
0.043892 0.219620 0.332429
0.144347 0.224891 0.338079
0.257722 0.230081 0.343630
0.379615 0.235244 0.349141
0.505350 0.240395 0.354630
0.630297 0.245542 0.360103
0.749885 0.250689 0.365566
0.859599 0.255838 0.371022
0.918202 0.258895 0.374256
0.056955 0.347809 0.350372
0.159894 0.353493 0.356062
0.274975 0.359077 0.361651
0.397846 0.364620 0.367199
0.523851 0.370138 0.372722
0.648370 0.375640 0.378228
0.766843 0.381131 0.383723
0.874760 0.386612 0.389208
0.931976 0.389862 0.392460
0.070414 0.482762 0.368437
0.175731 0.488601 0.374162
0.292415 0.494327 0.379785
0.416160 0.500000 0.385364
0.542332 0.505637 0.390917
0.666322 0.511248 0.396452
0.783577 0.516836 0.401974
0.889597 0.522405 0.407485
0.945367 0.525701 0.410751
0.084255 0.618473 0.386610
0.191844 0.624211 0.392366
0.310026 0.629827 0.398017
0.434543 0.635380 0.403623
0.560779 0.640888 0.409202
0.684137 0.646360 0.414761
0.800074 0.651799 0.420305
0.904094 0.657211 0.425838
0.958358 0.660408 0.429115
0.098462 0.748939 0.404875
0.208218 0.754319 0.410657
0.327793 0.759572 0.416332
0.452979 0.764756 0.421961
0.579176 0.769886 0.427560
0.701802 0.774972 0.433139
0.816318 0.780017 0.438701
0.918237 0.785025 0.444250
0.970935 0.787980 0.447537
0.113021 0.868156 0.423217
0.224837 0.872919 0.429020
0.345702 0.877558 0.434715
0.471452 0.882123 0.440362
0.597509 0.886628 0.445978
0.719299 0.891081 0.451571
0.832294 0.895485 0.457147
0.932011 0.899845 0.462708
0.983083 0.902410 0.466001
0.127314 0.966447 0.440885
0.241008 0.970377 0.446704
0.363013 0.974188 0.452413
0.489209 0.977923 0.458073
0.615035 0.981594 0.463700
0.735927 0.985207 0.469303
0.847365 0.988766 0.474887
0.944873 0.992271 0.480456
0.994328 0.994328 0.483753
0.020162 0.008652 0.406694
0.115589 0.012340 0.412478
0.225426 0.015999 0.418155
0.345171 0.019666 0.423786
0.470110 0.023351 0.429387
0.595589 0.027059 0.434968
0.717020 0.030792 0.440531
0.829877 0.034552 0.446082
0.890954 0.036796 0.449369
0.032427 0.105582 0.425043
0.130542 0.110194 0.430848
0.242283 0.114748 0.436544
0.363202 0.119291 0.442193
0.488606 0.123836 0.447810
0.613851 0.128390 0.453404
0.734361 0.132956 0.458981
0.845614 0.137536 0.464543
0.905419 0.140261 0.467837
0.045118 0.221207 0.443453
0.145813 0.226485 0.449274
0.259355 0.231682 0.454985
0.381345 0.236851 0.460646
0.507111 0.242009 0.466274
0.632021 0.247162 0.471879
0.751508 0.252314 0.477464
0.861055 0.257469 0.483033
0.919529 0.260530 0.486330
0.058219 0.349521 0.461909
0.161389 0.355209 0.467741
0.276627 0.360797 0.473462
0.399585 0.366343 0.479131
0.525610 0.371864 0.484766
0.650084 0.377369 0.490376
0.768445 0.382862 0.495965
0.876186 0.388347 0.501537
0.933267 0.391598 0.504835
0.071715 0.484522 0.480396
0.177253 0.490362 0.486235
0.294084 0.496088 0.491961
0.417907 0.501761 0.497633
0.544089 0.507398 0.503271
0.668023 0.513008 0.508881
0.785158 0.518596 0.514470
0.890991 0.524165 0.520040
0.946621 0.527460 0.523336
0.085591 0.620204 0.498899
0.193392 0.625939 0.504740
0.311710 0.631552 0.510466
0.436295 0.637102 0.516138
0.562532 0.642607 0.521773
0.685825 0.648075 0.527379
0.801631 0.653511 0.532963
0.905455 0.658918 0.538526
0.959573 0.662114 0.541818
0.099832 0.750563 0.517403
0.209789 0.755936 0.523241
0.329492 0.761183 0.528962
0.454735 0.766361 0.534629
0.580924 0.771485 0.540257
0.703474 0.776564 0.545855
0.817850 0.781603 0.551429
0.919564 0.786604 0.556981
0.972110 0.789554 0.560266
0.114424 0.869595 0.535892
0.226430 0.874349 0.541723
0.347413 0.878978 0.547436
0.473212 0.883533 0.553092
0.599250 0.888029 0.558708
0.720955 0.892472 0.564294
0.833800 0.896866 0.569853
0.933302 0.901216 0.575390
0.984216 0.903776 0.578665
0.128747 0.967636 0.553615
0.242622 0.971553 0.559434
0.364735 0.975352 0.565134
0.490970 0.979075 0.570776
0.616767 0.982733 0.576377
0.737565 0.986333 0.581946
0.848844 0.989878 0.587487
0.946128 0.993371 0.593005
0.995419 0.995419 0.596268
0.021297 0.009746 0.517915
0.116981 0.013448 0.523753
0.227002 0.017120 0.529474
0.346862 0.020800 0.535140
0.471849 0.024497 0.540768
0.597310 0.028217 0.546366
0.718659 0.031963 0.551939
0.831369 0.035735 0.557491
0.892329 0.037986 0.560776
0.033603 0.106953 0.536404
0.131965 0.111574 0.542234
0.243880 0.116138 0.547946
0.364904 0.120691 0.553602
0.490346 0.125246 0.559218
0.615564 0.129809 0.564803
0.735982 0.134384 0.570362
0.847079 0.138973 0.575899
0.906761 0.141703 0.579173
0.046333 0.222777 0.554863
0.147265 0.228062 0.560681
0.260971 0.233265 0.566380
0.383057 0.238441 0.572021
0.508851 0.243605 0.577620
0.633725 0.248764 0.583188
0.753110 0.253922 0.588728
0.862492 0.259083 0.594244
0.920837 0.262147 0.597507
0.059471 0.351215 0.573278
0.162869 0.356906 0.579079
0.278261 0.362497 0.584759
0.401305 0.368046 0.590381
0.527349 0.373571 0.595960
0.651776 0.379079 0.601505
0.770026 0.384575 0.607022
0.877593 0.390062 0.612513
0.934540 0.393314 0.615760
0.073004 0.486262 0.591633
0.178759 0.492102 0.597412
0.295734 0.497828 0.603070
0.419633 0.503501 0.608667
0.545825 0.509138 0.614221
0.669703 0.514748 0.619740
0.786717 0.520336 0.625229
0.892366 0.525904 0.630691
0.947856 0.529199 0.633920
0.086915 0.621914 0.609914
0.194923 0.627646 0.615666
0.313376 0.633255 0.621297
0.438027 0.638802 0.626865
0.564264 0.644304 0.632389
0.687491 0.649769 0.637876
0.803167 0.655201 0.643333
0.906798 0.660605 0.648761
0.960770 0.663798 0.651970
0.101190 0.752167 0.628106
0.211344 0.757533 0.633826
0.331171 0.762774 0.639424
0.456471 0.767945 0.644959
0.582650 0.773063 0.650449
0.705125 0.778135 0.655901
0.819362 0.783167 0.661320
0.920872 0.788161 0.666711
0.973267 0.791108 0.669896
0.115814 0.871015 0.646193
0.228007 0.875759 0.651877
0.349105 0.880379 0.657438
0.474951 0.884924 0.662935
0.600969 0.889410 0.668386
0.722590 0.893843 0.673797
0.835285 0.898228 0.679175
0.934574 0.902568 0.684523
0.985332 0.905122 0.687682
0.130167 0.968807 0.663444
0.244219 0.972712 0.669089
0.366437 0.976498 0.674611
0.492710 0.980208 0.680067
0.618479 0.983854 0.685475
0.739183 0.987441 0.690844
0.850303 0.990974 0.696178
0.947365 0.994454 0.701480
0.996494 0.996494 0.704612
0.022425 0.010834 0.627579
0.118363 0.014549 0.633301
0.228565 0.018234 0.638900
0.348537 0.021926 0.644436
0.473571 0.025636 0.649926
0.599014 0.029368 0.655379
0.720280 0.033126 0.660800
0.832845 0.036910 0.666191
0.893688 0.039168 0.669377
0.034771 0.108313 0.645669
0.133377 0.112945 0.651355
0.245463 0.117518 0.656917
0.366591 0.122081 0.662415
0.492070 0.126645 0.667867
0.617260 0.131217 0.673280
0.737586 0.135801 0.678659
0.848528 0.140398 0.684008
0.908088 0.143133 0.687168
0.047540 0.224334 0.663640
0.148706 0.229626 0.669285
0.262574 0.234836 0.674806
0.384753 0.240018 0.680262
0.510575 0.245188 0.685670
0.635411 0.250353 0.691038
0.754695 0.255517 0.696372
0.863912 0.260684 0.701673
0.922129 0.263751 0.704805
0.060716 0.352893 0.681477
0.164337 0.358588 0.687077
0.279881 0.364182 0.692552
0.403009 0.369734 0.697960
0.529071 0.375262 0.703320
0.653452 0.380773 0.708639
0.771591 0.386271 0.713922
0.878983 0.391761 0.719172
0.935797 0.395015 0.722273
0.074284 0.487986 0.699165
0.180254 0.493826 0.704714
0.297371 0.499552 0.710139
0.421344 0.505225 0.715496
0.547544 0.510862 0.720803
0.671367 0.516472 0.726068
0.788260 0.522059 0.731296
0.893725 0.527626 0.736490
0.949076 0.530921 0.739557
0.088230 0.623607 0.716689
0.196442 0.629336 0.722183
0.315027 0.634942 0.727552
0.439744 0.640486 0.732853
0.565979 0.645984 0.738103
0.689141 0.651445 0.743310
0.804687 0.656874 0.748478
0.908124 0.662275 0.753612
0.961952 0.665466 0.756642
0.102538 0.753753 0.734033
0.212886 0.759113 0.739468
0.332836 0.764347 0.744777
0.458192 0.769512 0.750017
0.584360 0.774623 0.755205
0.706760 0.779689 0.760349
0.820857 0.784715 0.765454
0.922164 0.789702 0.770522
0.974410 0.792644 0.773513
0.117193 0.872419 0.751184
0.229571 0.877153 0.756554
0.350782 0.881763 0.761799
0.476673 0.886299 0.766973
0.602672 0.890776 0.772095
0.724208 0.895199 0.777172
0.836754 0.899574 0.782208
0.935831 0.903904 0.787206
0.986434 0.906452 0.790155
0.131575 0.969964 0.767452
0.245802 0.973856 0.772756
0.368125 0.977630 0.777934
0.494434 0.981327 0.783042
0.620173 0.984960 0.788095
0.740783 0.988535 0.793103
0.851746 0.992055 0.798069
0.948586 0.995522 0.802996
0.997555 0.997555 0.805902
0.023548 0.011917 0.732724
0.119737 0.015645 0.738163
0.230117 0.019343 0.743477
0.350201 0.023047 0.748722
0.475280 0.026770 0.753915
0.600704 0.030514 0.759064
0.721888 0.034283 0.764173
0.834306 0.038079 0.769247
0.895034 0.040344 0.772240
0.035934 0.109666 0.749889
0.134780 0.114308 0.755265
0.247036 0.118891 0.760514
0.368265 0.123462 0.765695
0.493780 0.128035 0.770821
0.618942 0.132616 0.775903
0.739176 0.137209 0.780945
0.849962 0.141815 0.785948
0.909401 0.144556 0.788901
0.048741 0.225882 0.766847
0.150138 0.231180 0.772154
0.264165 0.236396 0.777335
0.386437 0.241585 0.782445
0.512285 0.246760 0.787501
0.637084 0.251931 0.792512
0.756265 0.257101 0.797480
0.865318 0.262273 0.802410
0.923408 0.265343 0.805318
0.061953 0.354560 0.783582
0.165796 0.360258 0.788815
0.281490 0.365855 0.793922
0.404701 0.371411 0.798959
0.530780 0.376941 0.803940
0.655113 0.382454 0.808874
0.773141 0.387956 0.813765
0.880359 0.393448 0.818617
0.937041 0.396703 0.821477
0.075557 0.489696 0.800079
0.181739 0.495536 0.805234
0.298996 0.501263 0.810263
0.423043 0.506935 0.815220
0.549250 0.512572 0.820122
0.673016 0.518181 0.824975
0.789789 0.523768 0.829784
0.895071 0.529335 0.834553
0.950284 0.532630 0.837364
0.089537 0.625285 0.816323
0.197951 0.631011 0.821395
0.316667 0.636615 0.826341
0.441447 0.642155 0.831215
0.567680 0.647650 0.836032
0.690776 0.653108 0.840800
0.806193 0.658533 0.845523
0.909437 0.663930 0.850204
0.963121 0.667119 0.852963
0.103878 0.755325 0.832298
0.214418 0.760679 0.837283
0.334489 0.765907 0.842142
0.459899 0.771065 0.846928
0.586055 0.776170 0.851656
0.708380 0.781229 0.856334
0.822338 0.786248 0.860966
0.923444 0.791229 0.865556
0.975539 0.794167 0.868259
0.118565 0.873808 0.847991
0.231125 0.878534 0.852883
0.352447 0.883134 0.857650
0.478383 0.887661 0.862343
0.604360 0.892127 0.866978
0.725811 0.896541 0.871562
0.838209 0.900907 0.876099
0.937075 0.905227 0.880592
0.987523 0.907769 0.883237
0.132976 0.971108 0.862776
0.247376 0.974988 0.867575
0.369800 0.978749 0.872249
0.496144 0.982434 0.876849
0.621854 0.986054 0.881390
0.742370 0.989616 0.885879
0.853175 0.993124 0.890320
0.949795 0.996578 0.894716
0.998603 0.998603 0.897304
0.024667 0.012997 0.830463
0.121105 0.016737 0.835458
0.231661 0.020448 0.840327
0.351854 0.024165 0.845123
0.476978 0.027899 0.849862
0.602382 0.031656 0.854551
0.723483 0.035437 0.859194
0.835756 0.039244 0.863794
0.896367 0.041515 0.866504
0.037092 0.111013 0.846190
0.136178 0.115664 0.851092
0.248600 0.120256 0.855870
0.369929 0.124837 0.860574
0.495479 0.129419 0.865220
0.620612 0.134009 0.869815
0.740753 0.138611 0.874363
0.851385 0.143226 0.878868
0.910702 0.145971 0.881520
0.049937 0.227420 0.861620
0.151564 0.232725 0.866426
0.265748 0.237948 0.871107
0.388110 0.243142 0.875715
0.513984 0.248324 0.880263
0.638744 0.253501 0.884760
0.757824 0.258676 0.889209
0.866712 0.263854 0.893613
0.924676 0.266927 0.896205
0.063186 0.356216 0.876739
0.167248 0.361917 0.881444
0.283090 0.367518 0.886024
0.406382 0.373076 0.890530
0.532477 0.378609 0.894977
0.656762 0.384126 0.899370
0.774679 0.389630 0.903715
0.881724 0.395124 0.908014
0.938273 0.398380 0.910544
0.076825 0.491394 0.891531
0.183216 0.497235 0.896130
0.300612 0.502961 0.900605
0.424730 0.508634 0.905006
0.550944 0.514271 0.909345
0.674652 0.519880 0.913632
0.791305 0.525466 0.917868
0.896404 0.531032 0.922057
0.951479 0.534326 0.924522
0.090839 0.626952 0.905983
0.199453 0.632675 0.910471
0.318297 0.638275 0.914836
0.443139 0.643812 0.919126
0.569370 0.649304 0.923354
0.692399 0.654758 0.927528
0.807686 0.660180 0.931652
0.910738 0.665573 0.935727
0.964279 0.668760 0.938123
0.105212 0.756884 0.920078
0.215942 0.762232 0.924450
0.336132 0.767454 0.928701
0.461594 0.772606 0.932876
0.587739 0.777704 0.936988
0.709987 0.782757 0.941046
0.823807 0.787769 0.945052
0.924711 0.792743 0.949009
0.976658 0.795677 0.951334
0.119930 0.875186 0.933802
0.232671 0.879902 0.938054
0.354102 0.884493 0.942185
0.480081 0.889010 0.946240
0.606037 0.893467 0.950233
0.727402 0.897872 0.954169
0.839652 0.902228 0.958053
0.938307 0.906538 0.961887
0.988600 0.909074 0.964138
0.134369 0.972241 0.946614
0.248940 0.976108 0.950746
0.371465 0.979857 0.954758
0.497843 0.983529 0.958694
0.623522 0.987137 0.962566
0.743944 0.990687 0.966382
0.854592 0.994181 0.970145
0.950992 0.997623 0.973856
0.999641 0.999641 0.976035
