luts/rushmore.cube
# CineLUT — Rushmore (1998)
# Gerado por generate_luts.py
LUT_3D_SIZE 33
0.025985 0.000557 0.000557
0.050815 0.001031 0.001031
0.077354 0.001496 0.001496
0.105519 0.001954 0.001954
0.135175 0.002409 0.002409
0.166178 0.002860 0.002860
0.198378 0.003309 0.003309
0.231630 0.003757 0.003757
0.265789 0.004203 0.004203
0.300712 0.004648 0.004648
0.336259 0.005093 0.005093
0.372290 0.005536 0.005536
0.408671 0.005979 0.005979
0.445267 0.006422 0.006422
0.481946 0.006864 0.006864
0.518576 0.007306 0.007306
0.555030 0.007748 0.007748
0.591179 0.008190 0.008190
0.626897 0.008631 0.008631
0.662059 0.009073 0.009073
0.696541 0.009515 0.009515
0.730221 0.009957 0.009957
0.762978 0.010399 0.010399
0.794689 0.010842 0.010842
0.825237 0.011284 0.011284
0.854502 0.011727 0.011727
0.882366 0.012170 0.012170
0.908712 0.012614 0.012614
0.933425 0.013058 0.013058
0.945707 0.013291 0.013291
0.945707 0.013291 0.013291
0.945707 0.013291 0.013291
0.945707 0.013291 0.013291
0.027007 0.013075 0.001447
0.051943 0.013586 0.001923
0.078579 0.014086 0.002390
0.106830 0.014580 0.002851
0.136565 0.015069 0.003309
0.167638 0.015556 0.003763
0.199901 0.016039 0.004215
0.233208 0.016521 0.004665
0.267415 0.017000 0.005114
0.302379 0.017479 0.005561
0.337959 0.017956 0.006008
0.374017 0.018433 0.006454
0.410418 0.018909 0.006899
0.447027 0.019384 0.007344
0.483712 0.019859 0.007789
0.520342 0.020333 0.008233
0.556789 0.020807 0.008678
0.592925 0.021281 0.009122
0.628623 0.021755 0.009566
0.663759 0.022228 0.010010
0.698209 0.022702 0.010455
0.731850 0.023176 0.010899
0.764561 0.023649 0.011344
0.796222 0.024123 0.011788
0.826712 0.024597 0.012233
0.855913 0.025071 0.012678
0.883707 0.025545 0.013124
0.909977 0.026020 0.013570
0.934608 0.026494 0.014016
0.946844 0.026743 0.014250
0.946844 0.026743 0.014250
0.946844 0.026743 0.014250
0.946844 0.026743 0.014250
0.028496 0.032820 0.002743
0.053585 0.033382 0.003224
0.080359 0.033932 0.003695
0.108736 0.034474 0.004160
0.138583 0.035011 0.004621
0.169757 0.035545 0.005079
0.202111 0.036075 0.005534
0.235497 0.036603 0.005988
0.269773 0.037129 0.006441
0.304795 0.037654 0.006892
0.340423 0.038177 0.007342
0.376519 0.038699 0.007792
0.412948 0.039220 0.008241
0.449576 0.039740 0.008689
0.486269 0.040259 0.009137
0.522899 0.040778 0.009585
0.559335 0.041297 0.010033
0.595451 0.041815 0.010481
0.631121 0.042332 0.010929
0.666218 0.042850 0.011376
0.700620 0.043367 0.011824
0.734205 0.043884 0.012272
0.766850 0.044401 0.012720
0.798436 0.044917 0.013168
0.828842 0.045434 0.013616
0.857950 0.045951 0.014065
0.885643 0.046468 0.014514
0.911802 0.046985 0.014963
0.936313 0.047502 0.015412
0.948484 0.047773 0.015648
0.948484 0.047773 0.015648
0.948484 0.047773 0.015648
0.948484 0.047773 0.015648
0.030013 0.054664 0.004068
0.055257 0.055274 0.004553
0.082170 0.055871 0.005027
0.110673 0.056459 0.005496
0.140635 0.057042 0.005961
0.171910 0.057621 0.006423
0.204355 0.058196 0.006882
0.237821 0.058768 0.007339
0.272165 0.059338 0.007795
0.307245 0.059906 0.008250
0.342921 0.060472 0.008704
0.379056 0.061037 0.009158
0.415513 0.061601 0.009610
0.452158 0.062164 0.010062
0.488860 0.062725 0.010514
0.525488 0.063286 0.010965
0.561913 0.063847 0.011417
0.598008 0.064406 0.011868
0.633647 0.064966 0.012319
0.668706 0.065524 0.012770
0.703059 0.066083 0.013221
0.736585 0.066641 0.013673
0.769163 0.067199 0.014124
0.800672 0.067756 0.014576
0.830993 0.068314 0.015027
0.860006 0.068871 0.015479
0.887595 0.069428 0.015932
0.913642 0.069985 0.016384
0.938032 0.070542 0.016837
0.950134 0.070835 0.017075
0.950134 0.070835 0.017075
0.950134 0.070835 0.017075
0.950134 0.070835 0.017075
0.031553 0.078435 0.005414
0.056952 0.079090 0.005902
0.084005 0.079730 0.006381
0.112634 0.080362 0.006854
0.142709 0.080988 0.007322
0.174087 0.081609 0.007788
0.206622 0.082225 0.008251
0.240167 0.082839 0.008712
0.274580 0.083450 0.009172
0.309719 0.084059 0.009630
0.345442 0.084666 0.010088
0.381614 0.085272 0.010545
0.418098 0.085875 0.011001
0.454761 0.086478 0.011457
0.491471 0.087080 0.011912
0.528096 0.087680 0.012367
0.564510 0.088280 0.012822
0.600583 0.088879 0.013277
0.636191 0.089477 0.013731
0.671209 0.090074 0.014186
0.705512 0.090671 0.014640
0.738980 0.091268 0.015095
0.771489 0.091864 0.015550
0.802920 0.092460 0.016005
0.833154 0.093055 0.016460
0.862071 0.093650 0.016916
0.889555 0.094245 0.017371
0.915488 0.094840 0.017827
0.939754 0.095435 0.018283
0.951788 0.095747 0.018523
0.951788 0.095747 0.018523
0.951788 0.095747 0.018523
0.951788 0.095747 0.018523
0.033111 0.103992 0.006778
0.058665 0.104689 0.007271
0.085858 0.105371 0.007754
0.114614 0.106043 0.008230
0.144802 0.106708 0.008703
0.176282 0.107369 0.009172
0.208907 0.108024 0.009639
0.242532 0.108677 0.010104
0.277013 0.109326 0.010567
0.312209 0.109973 0.011029
0.347981 0.110618 0.011491
0.384189 0.111261 0.011951
0.420700 0.111902 0.012411
0.457380 0.112542 0.012870
0.494096 0.113180 0.013329
0.530719 0.113818 0.013788
0.567120 0.114454 0.014246
0.603171 0.115089 0.014704
0.638747 0.115724 0.015162
0.673723 0.116357 0.015620
0.707976 0.116990 0.016078
0.741382 0.117623 0.016537
0.773822 0.118254 0.016995
0.805174 0.118886 0.017453
0.835320 0.119516 0.017912
0.864140 0.120147 0.018371
0.891517 0.120777 0.018830
0.917335 0.121407 0.019289
0.941476 0.122036 0.019749
0.953442 0.122366 0.019990
0.953442 0.122366 0.019990
0.953442 0.122366 0.019990
0.953442 0.122366 0.019990
0.034687 0.131204 0.008160
0.060396 0.131940 0.008657
0.087728 0.132660 0.009144
0.116610 0.133369 0.009624
0.146912 0.134071 0.010100
0.178493 0.134768 0.010573
0.211208 0.135460 0.011044
0.244912 0.136148 0.011513
0.279461 0.136833 0.011980
0.314715 0.137515 0.012445
0.350533 0.138194 0.012910
0.386778 0.138872 0.013374
0.423315 0.139548 0.013838
0.460011 0.140222 0.014301
0.496733 0.140894 0.014763
0.533352 0.141566 0.015225
0.569740 0.142236 0.015687
0.605768 0.142904 0.016149
0.641311 0.143572 0.016610
0.676245 0.144239 0.017072
0.710445 0.144905 0.017534
0.743791 0.145571 0.017995
0.776160 0.146235 0.018457
0.807433 0.146899 0.018919
0.837489 0.147563 0.019381
0.866211 0.148225 0.019843
0.893480 0.148888 0.020306
0.919181 0.149550 0.020768
0.943197 0.150211 0.021231
0.955092 0.150558 0.021474
0.955092 0.150558 0.021474
0.955092 0.150558 0.021474
0.955092 0.150558 0.021474
0.036279 0.159940 0.009558
0.062143 0.160711 0.010059
0.089614 0.161466 0.010550
0.118622 0.162210 0.011034
0.149037 0.162946 0.011514
0.180719 0.163675 0.011991
0.213524 0.164400 0.012465
0.247306 0.165121 0.012938
0.281923 0.165838 0.013408
0.317233 0.166553 0.013878
0.353097 0.167264 0.014346
0.389378 0.167974 0.014814
0.425941 0.168681 0.015281
0.462652 0.169386 0.015748
0.499380 0.170090 0.016214
0.535995 0.170792 0.016679
0.572368 0.171493 0.017145
0.608372 0.172193 0.017610
0.643881 0.172891 0.018075
0.678772 0.173588 0.018540
0.712920 0.174285 0.019005
0.746203 0.174980 0.019470
0.778501 0.175675 0.019935
0.809692 0.176369 0.020401
0.839659 0.177062 0.020866
0.868281 0.177754 0.021332
0.895442 0.178446 0.021798
0.921025 0.179137 0.022264
0.944913 0.179828 0.022730
0.956739 0.180190 0.022975
0.956739 0.180190 0.022975
0.956739 0.180190 0.022975
0.956739 0.180190 0.022975
0.037886 0.190069 0.010972
0.063904 0.190873 0.011477
0.091515 0.191659 0.011972
0.120647 0.192434 0.012460
0.151175 0.193201 0.012944
0.182958 0.193961 0.013424
0.215852 0.194715 0.013902
0.249712 0.195466 0.014378
0.284396 0.196213 0.014853
0.319762 0.196956 0.015326
0.355672 0.197697 0.015798
0.391988 0.198435 0.016269
0.428576 0.199170 0.016740
0.465302 0.199904 0.017210
0.502035 0.200636 0.017680
0.538644 0.201366 0.018149
0.575002 0.202095 0.018618
0.610982 0.202822 0.019086
0.646457 0.203548 0.019555
0.681303 0.204273 0.020024
0.715398 0.204997 0.020492
0.748618 0.205720 0.020961
0.780843 0.206441 0.021429
0.811953 0.207162 0.021898
0.841828 0.207882 0.022367
0.870350 0.208601 0.022836
0.897401 0.209320 0.023305
0.922865 0.210037 0.023775
0.946626 0.210754 0.024244
0.958380 0.211131 0.024491
0.958380 0.211131 0.024491
0.958380 0.211131 0.024491
0.958380 0.211131 0.024491
0.039508 0.221460 0.012401
0.065680 0.222294 0.012910
0.093429 0.223108 0.013409
0.122687 0.223911 0.013901
0.153327 0.224705 0.014388
0.185210 0.225492 0.014873
0.218193 0.226273 0.015354
0.252130 0.227050 0.015834
0.286880 0.227823 0.016312
0.322302 0.228593 0.016789
0.358256 0.229359 0.017265
0.394607 0.230123 0.017740
0.431219 0.230885 0.018214
0.467959 0.231644 0.018687
0.504696 0.232401 0.019161
0.541300 0.233156 0.019633
0.577642 0.233910 0.020106
0.613596 0.234662 0.020578
0.649036 0.235413 0.021050
0.683838 0.236162 0.021522
0.717878 0.236910 0.021994
0.751034 0.237657 0.022466
0.783186 0.238403 0.022938
0.814213 0.239147 0.023410
0.843996 0.239891 0.023883
0.872416 0.240634 0.024355
0.899357 0.241376 0.024828
0.924701 0.242118 0.025300
0.948332 0.242858 0.025773
0.960015 0.243247 0.026022
0.960015 0.243247 0.026022
0.960015 0.243247 0.026022
0.960015 0.243247 0.026022
0.041144 0.253982 0.013845
0.067470 0.254841 0.014358
0.095357 0.255680 0.014860
0.124739 0.256507 0.015356
0.155491 0.257326 0.015848
0.187474 0.258137 0.016336
0.220544 0.258942 0.016821
0.254558 0.259742 0.017305
0.289374 0.260538 0.017786
0.324851 0.261331 0.018267
0.360850 0.262120 0.018746
0.397235 0.262907 0.019225
0.433870 0.263691 0.019702
0.470624 0.264472 0.020180
0.507364 0.265251 0.020656
0.543961 0.266029 0.021132
0.580287 0.266804 0.021608
0.616215 0.267578 0.022084
0.651619 0.268350 0.022560
0.686375 0.269121 0.023035
0.720359 0.269891 0.023511
0.753451 0.270659 0.023986
0.785528 0.271426 0.024461
0.816472 0.272192 0.024937
0.846161 0.272956 0.025413
0.874479 0.273720 0.025889
0.901308 0.274483 0.026365
0.926531 0.275245 0.026841
0.950033 0.276006 0.027317
0.961644 0.276405 0.027567
0.961644 0.276405 0.027567
0.961644 0.276405 0.027567
0.961644 0.276405 0.027567
0.042794 0.287499 0.015303
0.069273 0.288381 0.015820
0.097298 0.289242 0.016326
0.126804 0.290091 0.016826
0.157667 0.290930 0.017321
0.189749 0.291762 0.017813
0.222907 0.292587 0.018302
0.256997 0.293408 0.018789
0.291878 0.294224 0.019275
0.327409 0.295037 0.019759
0.363452 0.295846 0.020242
0.399870 0.296652 0.020724
0.436528 0.297455 0.021205
0.473295 0.298256 0.021686
0.510038 0.299054 0.022166
0.546627 0.299850 0.022646
0.582936 0.300645 0.023125
0.618836 0.301437 0.023605
0.654204 0.302228 0.024084
0.688913 0.303018 0.024562
0.722842 0.303805 0.025041
0.755868 0.304592 0.025520
0.787870 0.305377 0.025999
0.818728 0.306161 0.026478
0.848324 0.306944 0.026957
0.876539 0.307725 0.027436
0.903255 0.308506 0.027916
0.928357 0.309285 0.028395
0.951727 0.310064 0.028875
0.963266 0.310473 0.029127
0.963266 0.310473 0.029127
0.963266 0.310473 0.029127
0.963266 0.310473 0.029127
0.044457 0.321879 0.016775
0.071089 0.322780 0.017296
0.099251 0.323659 0.017806
0.128880 0.324526 0.018310
0.159854 0.325383 0.018809
0.192035 0.326232 0.019305
0.225279 0.327075 0.019797
0.259445 0.327913 0.020288
0.294391 0.328746 0.020777
0.329975 0.329575 0.021265
0.366061 0.330401 0.021752
0.402512 0.331223 0.022237
0.439193 0.332043 0.022722
0.475971 0.332860 0.023206
0.512716 0.333674 0.023690
0.549297 0.334486 0.024173
0.585588 0.335297 0.024656
0.621461 0.336105 0.025139
0.656790 0.336911 0.025621
0.691452 0.337716 0.026104
0.725324 0.338519 0.026586
0.758284 0.339321 0.027068
0.790210 0.340121 0.027551
0.820983 0.340920 0.028033
0.850484 0.341718 0.028515
0.878594 0.342515 0.028998
0.905197 0.343310 0.029481
0.930176 0.344104 0.029964
0.953414 0.344897 0.030447
0.964880 0.345313 0.030700
0.964880 0.345313 0.030700
0.964880 0.345313 0.030700
0.964880 0.345313 0.030700
0.046134 0.356986 0.018262
0.072918 0.357902 0.018787
0.101217 0.358797 0.019301
0.130969 0.359678 0.019808
0.162052 0.360550 0.020311
0.194331 0.361413 0.020810
0.227662 0.362270 0.021307
0.261903 0.363122 0.021801
0.296912 0.363969 0.022294
0.332550 0.364811 0.022785
0.368678 0.365650 0.023275
0.405161 0.366486 0.023764
0.441863 0.367319 0.024253
0.478653 0.368149 0.024740
0.515399 0.368976 0.025228
0.551971 0.369801 0.025714
0.588243 0.370624 0.026201
0.624087 0.371445 0.026687
0.659378 0.372264 0.027173
0.693992 0.373081 0.027659
0.727806 0.373897 0.028144
0.760699 0.374711 0.028630
0.792548 0.375523 0.029116
0.823235 0.376334 0.029602
0.852640 0.377144 0.030087
0.880645 0.377952 0.030573
0.907133 0.378759 0.031059
0.931988 0.379565 0.031546
0.955094 0.380370 0.032032
0.966486 0.380792 0.032288
0.966486 0.380792 0.032288
0.966486 0.380792 0.032288
0.966486 0.380792 0.032288
0.047824 0.392684 0.019762
0.074760 0.393612 0.020290
0.103194 0.394518 0.020808
0.133068 0.395411 0.021320
0.164261 0.396293 0.021826
0.196637 0.397168 0.022329
0.230054 0.398036 0.022829
0.264369 0.398898 0.023327
0.299442 0.399755 0.023824
0.335132 0.400609 0.024319
0.371302 0.401458 0.024812
0.407815 0.402304 0.025305
0.444539 0.403147 0.025797
0.481339 0.403986 0.026288
0.518085 0.404824 0.026779
0.554648 0.405659 0.027269
0.590901 0.406491 0.027759
0.626715 0.407322 0.028249
0.661967 0.408150 0.028738
0.696532 0.408977 0.029227
0.730288 0.409801 0.029716
0.763112 0.410624 0.030205
0.794884 0.411446 0.030695
0.825483 0.412266 0.031184
0.854792 0.413084 0.031673
0.882691 0.413901 0.032162
0.909064 0.414717 0.032651
0.933794 0.415532 0.033141
0.956766 0.416345 0.033631
0.968084 0.416771 0.033888
0.968084 0.416771 0.033888
0.968084 0.416771 0.033888
0.968084 0.416771 0.033888
0.049527 0.428835 0.021275
0.076613 0.429771 0.021808
0.105183 0.430686 0.022330
0.135179 0.431587 0.022845
0.166481 0.432477 0.023355
0.198953 0.433359 0.023862
0.232455 0.434235 0.024365
0.266844 0.435105 0.024867
0.301979 0.435969 0.025367
0.337721 0.436830 0.025866
0.373932 0.437686 0.026363
0.410476 0.438539 0.026859
0.447219 0.439389 0.027355
0.484029 0.440235 0.027849
0.520776 0.441079 0.028344
0.557328 0.441921 0.028837
0.593560 0.442760 0.029331
0.629345 0.443597 0.029824
0.664557 0.444431 0.030316
0.699072 0.445264 0.030809
0.732768 0.446095 0.031302
0.765523 0.446924 0.031794
0.797216 0.447752 0.032287
0.827728 0.448578 0.032779
0.856939 0.449402 0.033271
0.884731 0.450225 0.033764
0.910988 0.451046 0.034257
0.935593 0.451866 0.034750
0.958430 0.452685 0.035243
0.969673 0.453114 0.035502
0.969673 0.453114 0.035502
0.969673 0.453114 0.035502
0.969673 0.453114 0.035502
0.051243 0.465302 0.022802
0.078479 0.466243 0.023339
0.107184 0.467163 0.023864
0.137300 0.468068 0.024383
0.168711 0.468963 0.024897
0.201279 0.469850 0.025407
0.234865 0.470729 0.025915
0.269327 0.471603 0.026420
0.304524 0.472472 0.026924
0.340317 0.473337 0.027426
0.376568 0.474197 0.027927
0.413142 0.475054 0.028427
0.449905 0.475907 0.028925
0.486724 0.476757 0.029424
0.523469 0.477605 0.029921
0.560011 0.478450 0.030419
0.596222 0.479292 0.030915
0.631975 0.480132 0.031412
0.667147 0.480970 0.031908
0.701611 0.481806 0.032404
0.735247 0.482640 0.032900
0.767933 0.483472 0.033396
0.799546 0.484303 0.033892
0.829969 0.485131 0.034387
0.859082 0.485958 0.034883
0.886766 0.486784 0.035379
0.912906 0.487608 0.035875
0.937384 0.488431 0.036371
0.960085 0.489252 0.036868
0.971254 0.489683 0.037128
0.971254 0.489683 0.037128
0.971254 0.489683 0.037128
0.971254 0.489683 0.037128
0.052971 0.501945 0.024342
0.080357 0.502888 0.024883
0.109196 0.503809 0.025412
0.139432 0.504716 0.025935
0.170950 0.505612 0.026452
0.203614 0.506500 0.026966
0.237284 0.507381 0.027478
0.271818 0.508255 0.027987
0.307076 0.509125 0.028494
0.342920 0.509990 0.028999
0.379211 0.510851 0.029504
0.415814 0.511709 0.030007
0.452595 0.512563 0.030509
0.489423 0.513413 0.031011
0.526166 0.514261 0.031512
0.562696 0.515107 0.032013
0.598885 0.515949 0.032513
0.634607 0.516790 0.033013
0.669736 0.517628 0.033513
0.704150 0.518464 0.034012
0.737725 0.519297 0.034511
0.770339 0.520129 0.035011
0.801873 0.520960 0.035510
0.832206 0.521788 0.036009
0.861219 0.522615 0.036508
0.888795 0.523440 0.037007
0.914817 0.524264 0.037507
0.939168 0.525086 0.038006
0.961732 0.525906 0.038506
0.972826 0.526337 0.038768
0.972826 0.526337 0.038768
0.972826 0.526337 0.038768
0.972826 0.526337 0.038768
0.054711 0.538627 0.025895
0.082247 0.539568 0.026440
0.111219 0.540487 0.026973
0.141575 0.541391 0.027499
0.173200 0.542285 0.028021
0.205959 0.543171 0.028539
0.239711 0.544049 0.029053
0.274317 0.544922 0.029566
0.309636 0.545789 0.030077
0.345529 0.546652 0.030586
0.381859 0.547510 0.031094
0.418490 0.548365 0.031600
0.455289 0.549216 0.032106
0.492125 0.550064 0.032612
0.528865 0.550909 0.033116
0.565383 0.551752 0.033620
0.601549 0.552591 0.034124
0.637238 0.553429 0.034627
0.672326 0.554264 0.035130
0.706687 0.555097 0.035633
0.740200 0.555927 0.036136
0.772743 0.556756 0.036638
0.804196 0.557583 0.037141
0.834438 0.558408 0.037643
0.863352 0.559231 0.038146
0.890818 0.560053 0.038648
0.916721 0.560873 0.039151
0.940944 0.561692 0.039653
0.963371 0.562509 0.040156
0.974388 0.562937 0.040420
0.974388 0.562937 0.040420
0.974388 0.562937 0.040420
0.974388 0.562937 0.040420
0.056464 0.575205 0.027462
0.084148 0.576141 0.028010
0.113252 0.577054 0.028547
0.143728 0.577953 0.029077
0.175459 0.578841 0.029602
0.208312 0.579721 0.030124
0.242147 0.580594 0.030642
0.276824 0.581461 0.031158
0.312202 0.582323 0.031672
0.348144 0.583180 0.032185
0.384512 0.584033 0.032697
0.421171 0.584882 0.033207
0.457988 0.585727 0.033716
0.494830 0.586569 0.034225
0.531567 0.587408 0.034733
0.568071 0.588245 0.035240
0.604214 0.589078 0.035747
0.639870 0.589910 0.036254
0.674915 0.590738 0.036760
0.709223 0.591565 0.037267
0.742674 0.592389 0.037773
0.775144 0.593212 0.038278
0.806515 0.594032 0.038784
0.836666 0.594851 0.039290
0.865479 0.595668 0.039796
0.892835 0.596483 0.040302
0.918618 0.597296 0.040807
0.942712 0.598108 0.041313
0.965000 0.598918 0.041820
0.975941 0.599343 0.042085
0.975941 0.599343 0.042085
0.975941 0.599343 0.042085
0.975941 0.599343 0.042085
0.058229 0.611540 0.029041
0.086060 0.612466 0.029593
0.115297 0.613371 0.030134
0.145891 0.614261 0.030668
0.177728 0.615141 0.031196
0.210674 0.616012 0.031721
0.244591 0.616876 0.032244
0.279338 0.617734 0.032763
0.314775 0.618586 0.033281
0.350765 0.619434 0.033797
0.387171 0.620278 0.034312
0.423857 0.621118 0.034826
0.460690 0.621954 0.035339
0.497538 0.622787 0.035851
0.534272 0.623617 0.036362
0.570762 0.624445 0.036873
0.606880 0.625269 0.037384
0.642502 0.626091 0.037894
0.677503 0.626910 0.038403
0.711757 0.627728 0.038913
0.745144 0.628543 0.039422
0.777542 0.629356 0.039931
0.808830 0.630167 0.040440
0.838889 0.630976 0.040949
0.867600 0.631783 0.041459
0.894845 0.632588 0.041968
0.920507 0.633392 0.042477
0.944471 0.634194 0.042986
0.966620 0.634994 0.043495
0.977484 0.635414 0.043763
0.977484 0.635414 0.043763
0.977484 0.635414 0.043763
0.977484 0.635414 0.043763
0.060006 0.647490 0.030633
0.087984 0.648404 0.031189
0.117353 0.649296 0.031734
0.148064 0.650174 0.032271
0.180006 0.651041 0.032803
0.213045 0.651900 0.033332
0.247042 0.652752 0.033858
0.281859 0.653598 0.034381
0.317355 0.654438 0.034902
0.353392 0.655274 0.035422
0.389835 0.656105 0.035940
0.426547 0.656933 0.036458
0.463396 0.657757 0.036974
0.500249 0.658578 0.037489
0.536978 0.659395 0.038004
0.573453 0.660210 0.038518
0.609547 0.661022 0.039032
0.645134 0.661831 0.039546
0.680090 0.662638 0.040059
0.714290 0.663443 0.040572
0.747613 0.664246 0.041084
0.779937 0.665046 0.041597
0.811141 0.665844 0.042109
0.841107 0.666640 0.042621
0.869715 0.667435 0.043134
0.896848 0.668227 0.043646
0.922389 0.669018 0.044159
0.946222 0.669807 0.044671
0.968231 0.670595 0.045184
0.979018 0.671007 0.045453
0.979018 0.671007 0.045453
0.979018 0.671007 0.045453
0.979018 0.671007 0.045453
0.061795 0.682914 0.032237
0.089919 0.683811 0.032798
0.119418 0.684687 0.033346
0.150247 0.685549 0.033887
0.182293 0.686401 0.034423
0.215424 0.687244 0.034955
0.249502 0.688080 0.035484
0.284387 0.688911 0.036011
0.319941 0.689736 0.036536
0.356025 0.690556 0.037059
0.392503 0.691372 0.037581
0.429241 0.692184 0.038102
0.466105 0.692992 0.038622
0.502963 0.693798 0.039140
0.539686 0.694600 0.039659
0.576146 0.695399 0.040176
0.612214 0.696195 0.040693
0.647765 0.696989 0.041210
0.682675 0.697780 0.041727
0.716821 0.698569 0.042243
0.750078 0.699356 0.042759
0.782327 0.700140 0.043274
0.813448 0.700923 0.043790
0.843319 0.701703 0.044306
0.871824 0.702482 0.044821
0.898845 0.703258 0.045337
0.924263 0.704033 0.045853
0.947964 0.704806 0.046368
0.969833 0.705577 0.046884
0.980542 0.705982 0.047155
0.980542 0.705982 0.047155
0.980542 0.705982 0.047155
0.980542 0.705982 0.047155
0.063596 0.717667 0.033855
0.091866 0.718545 0.034419
0.121495 0.719402 0.034971
0.152440 0.720245 0.035516
0.184589 0.721077 0.036055
0.217811 0.721901 0.036591
0.251968 0.722719 0.037124
0.286922 0.723530 0.037654
0.322533 0.724336 0.038182
0.358663 0.725138 0.038709
0.395177 0.725935 0.039234
0.431939 0.726728 0.039758
0.468817 0.727518 0.040282
0.505680 0.728304 0.040804
0.542396 0.729088 0.041326
0.578839 0.729868 0.041846
0.614881 0.730646 0.042367
0.650396 0.731420 0.042887
0.685260 0.732193 0.043407
0.719349 0.732963 0.043926
0.752541 0.733731 0.044445
0.784715 0.734496 0.044965
0.815750 0.735260 0.045484
0.845527 0.736021 0.046002
0.873927 0.736780 0.046521
0.900834 0.737538 0.047040
0.926129 0.738294 0.047559
0.949698 0.739048 0.048078
0.971424 0.739800 0.048597
0.982055 0.740194 0.048869
0.982055 0.740194 0.048869
0.982055 0.740194 0.048869
0.982055 0.740194 0.048869
0.065408 0.751609 0.035484
0.093823 0.752463 0.036052
0.123581 0.753297 0.036608
0.154642 0.754117 0.037157
0.186894 0.754927 0.037700
0.220207 0.755729 0.038239
0.254443 0.756524 0.038775
0.289464 0.757313 0.039309
0.325131 0.758097 0.039841
0.361307 0.758877 0.040371
0.397855 0.759652 0.040900
0.434641 0.760423 0.041427
0.471533 0.761191 0.041954
0.508398 0.761955 0.042480
0.545108 0.762716 0.043005
0.581534 0.763475 0.043529
0.617548 0.764230 0.044053
0.653026 0.764983 0.044576
0.687843 0.765733 0.045099
0.721875 0.766481 0.045622
0.755000 0.767227 0.046145
0.787098 0.767970 0.046667
0.818047 0.768712 0.047189
0.847728 0.769451 0.047711
0.876024 0.770188 0.048233
0.902816 0.770923 0.048755
0.927988 0.771657 0.049277
0.951423 0.772389 0.049799
0.973006 0.773118 0.050322
0.983559 0.773501 0.050596
0.983559 0.773501 0.050596
0.983559 0.773501 0.050596
0.983559 0.773501 0.050596
0.067232 0.784594 0.037127
0.095791 0.785421 0.037698
0.125678 0.786228 0.038258
0.156854 0.787023 0.038810
0.189208 0.787807 0.039357
0.222610 0.788583 0.039900
0.256925 0.789352 0.040439
0.292012 0.790116 0.040977
0.327735 0.790875 0.041512
0.363955 0.791629 0.042046
0.400537 0.792378 0.042578
0.437347 0.793124 0.043109
0.474251 0.793867 0.043639
0.511119 0.794606 0.044168
0.547821 0.795342 0.044696
0.584229 0.796075 0.045224
0.620215 0.796805 0.045751
0.655655 0.797533 0.046278
0.690424 0.798258 0.046804
0.724399 0.798980 0.047330
0.757456 0.799701 0.047856
0.789477 0.800419 0.048381
0.820339 0.801135 0.048907
0.849924 0.801849 0.049432
0.878114 0.802561 0.049957
0.904790 0.803271 0.050483
0.929837 0.803979 0.051008
0.953138 0.804685 0.051533
0.974578 0.805389 0.052058
0.985052 0.805758 0.052334
0.985052 0.805758 0.052334
0.985052 0.805758 0.052334
0.985052 0.805758 0.052334
0.069068 0.816479 0.038781
0.097770 0.817275 0.039357
0.127785 0.818053 0.039920
0.159075 0.818817 0.040475
0.191530 0.819572 0.041026
0.225022 0.820319 0.041572
0.259414 0.821060 0.042116
0.294567 0.821795 0.042657
0.330345 0.822524 0.043195
0.366609 0.823250 0.043732
0.403224 0.823971 0.044268
0.440056 0.824688 0.044802
0.476972 0.825402 0.045335
0.513842 0.826113 0.045868
0.550535 0.826820 0.046399
0.586924 0.827525 0.046930
0.622882 0.828226 0.047461
0.658283 0.828925 0.047991
0.693004 0.829622 0.048521
0.726919 0.830316 0.049050
0.759909 0.831008 0.049579
0.791851 0.831698 0.050108
0.822626 0.832385 0.050636
0.852114 0.833071 0.051165
0.880197 0.833754 0.051693
0.906758 0.834435 0.052222
0.931679 0.835115 0.052750
0.954845 0.835793 0.053279
