luts/rushmore.cube
# CineLUT — Rushmore (1998)
# Gerado por generate_luts.py
LUT_3D_SIZE 5
0.025985 0.000557 0.000557
0.265789 0.004203 0.004203
0.555030 0.007748 0.007748
0.825237 0.011284 0.011284
0.945707 0.013291 0.013291
0.037886 0.190069 0.010972
0.284396 0.196213 0.014853
0.575002 0.202095 0.018618
0.841828 0.207882 0.022367
0.958380 0.211131 0.024491
0.051243 0.465302 0.022802
0.304524 0.472472 0.026924
0.596222 0.479292 0.030915
0.859082 0.485958 0.034883
0.971254 0.489683 0.037128
0.065408 0.751609 0.035484
0.325131 0.758097 0.039841
0.617548 0.764230 0.044053
0.876024 0.770188 0.048233
0.983559 0.773501 0.050596
0.080317 0.976558 0.048963
0.346117 0.980612 0.053546
0.638869 0.984392 0.057971
0.892548 0.988014 0.062356
0.995200 0.990006 0.064833
0.026790 0.001257 0.111266
0.267070 0.004920 0.116684
0.556416 0.008480 0.121889
0.826399 0.012031 0.127026
0.946603 0.014046 0.129917
0.038733 0.191256 0.126575
0.285694 0.197409 0.132156
0.576383 0.203299 0.137515
0.842962 0.209094 0.142800
0.959236 0.212347 0.145772
0.052132 0.466691 0.143410
0.305840 0.473862 0.149158
0.597595 0.480683 0.154672
0.860185 0.487350 0.160106
0.972066 0.491074 0.163161
0.066340 0.752869 0.160926
0.326462 0.759350 0.166833
0.618913 0.765476 0.172496
0.877094 0.771427 0.178072
0.984324 0.774736 0.181205
0.081289 0.977350 0.179041
0.347462 0.981389 0.185099
0.640222 0.985154 0.190902
0.893583 0.988761 0.196613
0.995916 0.990744 0.199820
0.027870 0.002198 0.312891
0.268783 0.005882 0.319723
0.558267 0.009463 0.326243
0.827949 0.013035 0.332635
0.947797 0.015060 0.336214
0.039869 0.192845 0.332075
0.287431 0.199010 0.338978
0.578227 0.204912 0.345562
0.844475 0.210717 0.352015
0.960376 0.213976 0.355627
0.053326 0.468549 0.352757
0.307600 0.475721 0.359727
0.599430 0.482542 0.366371
0.861656 0.489209 0.372880
0.973146 0.492934 0.376523
0.067589 0.754552 0.373859
0.328243 0.761023 0.380886
0.620735 0.767139 0.387583
0.878520 0.773081 0.394141
0.985341 0.776384 0.397809
0.082592 0.978404 0.395276
0.349262 0.982422 0.402353
0.642030 0.986167 0.409094
0.894962 0.989754 0.415691
0.996868 0.991727 0.419381
0.029011 0.003193 0.555246
0.270586 0.006900 0.562392
0.560212 0.010503 0.569176
0.829574 0.014095 0.575796
0.949046 0.016132 0.579490
0.041068 0.194519 0.575218
0.289259 0.200696 0.582335
0.580165 0.206610 0.589091
0.846061 0.212426 0.595680
0.961569 0.215691 0.599355
0.054586 0.470501 0.596436
0.309451 0.477674 0.603516
0.601357 0.484496 0.610232
0.863198 0.491164 0.616780
0.974276 0.494889 0.620431
0.068907 0.756317 0.617761
0.330116 0.762779 0.624793
0.622649 0.768884 0.631460
0.880015 0.774815 0.637958
0.986405 0.778113 0.641580
0.083966 0.979506 0.639080
0.351154 0.983502 0.646054
0.643928 0.987226 0.652663
0.896407 0.990792 0.659102
0.997862 0.992753 0.662690
0.030194 0.004225 0.795109
0.272449 0.007957 0.801316
0.562218 0.011581 0.807175
0.831247 0.015195 0.812859
0.950329 0.017244 0.816016
0.042311 0.196250 0.812364
0.291147 0.202439 0.818442
0.582163 0.208364 0.824175
0.847694 0.214192 0.829734
0.962793 0.217463 0.832820
0.055891 0.472515 0.830370
0.311364 0.479690 0.836301
0.603344 0.486512 0.841892
0.864785 0.493180 0.847310
0.975435 0.496905 0.850316
0.070272 0.758136 0.848119
0.332051 0.764586 0.853892
0.624622 0.770682 0.859331
0.881553 0.776602 0.864596
0.987496 0.779893 0.867516
0.085389 0.980637 0.865502
0.353108 0.984610 0.871107
0.645885 0.988312 0.876383
0.897892 0.991856 0.881486
0.998881 0.993805 0.884315
