luts/rushmore.cube
# CineLUT — Rushmore (1998)
# Gerado por generate_luts.py
LUT_3D_SIZE 9
0.025985 0.000557 0.000557
0.135175 0.002409 0.002409
0.265789 0.004203 0.004203
0.408671 0.005979 0.005979
0.555030 0.007748 0.007748
0.696541 0.009515 0.009515
0.825237 0.011284 0.011284
0.933425 0.013058 0.013058
0.945707 0.013291 0.013291
0.031553 0.078435 0.005414
0.142709 0.080988 0.007322
0.274580 0.083450 0.009172
0.418098 0.085875 0.011001
0.564510 0.088280 0.012822
0.705512 0.090671 0.014640
0.833154 0.093055 0.016460
0.939754 0.095435 0.018283
0.951788 0.095747 0.018523
0.037886 0.190069 0.010972
0.151175 0.193201 0.012944
0.284396 0.196213 0.014853
0.428576 0.199170 0.016740
0.575002 0.202095 0.018618
0.715398 0.204997 0.020492
0.841828 0.207882 0.022367
0.946626 0.210754 0.024244
0.958380 0.211131 0.024491
0.044457 0.321879 0.016775
0.159854 0.325383 0.018809
0.294391 0.328746 0.020777
0.439193 0.332043 0.022722
0.585588 0.335297 0.024656
0.725324 0.338519 0.026586
0.850484 0.341718 0.028515
0.953414 0.344897 0.030447
0.964880 0.345313 0.030700
0.051243 0.465302 0.022802
0.168711 0.468963 0.024897
0.304524 0.472472 0.026924
0.449905 0.475907 0.028925
0.596222 0.479292 0.030915
0.735247 0.482640 0.032900
0.859082 0.485958 0.034883
0.960085 0.489252 0.036868
0.971254 0.489683 0.037128
0.058229 0.611540 0.029041
0.177728 0.615141 0.031196
0.314775 0.618586 0.033281
0.460690 0.621954 0.035339
0.606880 0.625269 0.037384
0.745144 0.628543 0.039422
0.867600 0.631783 0.041459
0.966620 0.634994 0.043495
0.977484 0.635414 0.043763
0.065408 0.751609 0.035484
0.186894 0.754927 0.037700
0.325131 0.758097 0.039841
0.471533 0.761191 0.041954
0.617548 0.764230 0.044053
0.755000 0.767227 0.046145
0.876024 0.770188 0.048233
0.973006 0.773118 0.050322
0.983559 0.773501 0.050596
0.072773 0.876369 0.042127
0.196200 0.879182 0.044401
0.335581 0.881862 0.046598
0.482422 0.884471 0.048765
0.628214 0.887028 0.050917
0.764804 0.889544 0.053061
0.884343 0.892023 0.055201
0.979233 0.894471 0.057340
0.989467 0.894790 0.057621
0.080317 0.976558 0.048963
0.205640 0.978638 0.051294
0.346117 0.980612 0.053546
0.493350 0.982525 0.055767
0.638869 0.984392 0.057971
0.774545 0.986220 0.060166
0.892548 0.988014 0.062356
0.985293 0.989777 0.064545
0.995200 0.990006 0.064833
0.026289 0.000821 0.037201
0.135588 0.002676 0.039432
0.266273 0.004474 0.041588
0.409191 0.006252 0.043715
0.555553 0.008024 0.045828
0.697038 0.009794 0.047934
0.825676 0.011566 0.050036
0.933777 0.013342 0.052138
0.946045 0.013576 0.052414
0.031864 0.078800 0.043039
0.143127 0.081355 0.045321
0.275067 0.083820 0.047525
0.418619 0.086248 0.049700
0.565032 0.088654 0.051859
0.706006 0.091048 0.054009
0.833588 0.093434 0.056156
0.940100 0.095816 0.058302
0.952120 0.096128 0.058584
0.038205 0.190517 0.049665
0.151600 0.193651 0.052003
0.284886 0.196664 0.054260
0.429098 0.199624 0.056486
0.575524 0.202550 0.058695
0.715888 0.205453 0.060896
0.842256 0.208340 0.063091
0.946963 0.211214 0.065285
0.958704 0.211590 0.065573
0.044785 0.322381 0.056528
0.160284 0.325886 0.058920
0.294884 0.329250 0.061230
0.439716 0.332547 0.063507
0.586108 0.335802 0.065766
0.725811 0.339026 0.068015
0.850907 0.342225 0.070258
0.953744 0.345405 0.072500
0.965195 0.345821 0.072794
0.051579 0.465827 0.063600
0.169146 0.469488 0.066047
0.305021 0.472997 0.068408
0.450429 0.476432 0.070735
0.596741 0.479817 0.073043
0.735730 0.483166 0.075340
0.859499 0.486484 0.077631
0.960407 0.489777 0.079919
0.971561 0.490208 0.080219
0.058573 0.612057 0.070869
0.178169 0.615657 0.073369
0.315275 0.619102 0.075781
0.461214 0.622469 0.078157
0.607398 0.625783 0.080513
0.745623 0.629056 0.082857
0.868011 0.632295 0.085195
0.966934 0.635506 0.087529
0.977783 0.635926 0.087835
0.065760 0.752085 0.078325
0.187340 0.755402 0.080877
0.325634 0.758571 0.083339
0.472058 0.761663 0.085763
0.618064 0.764701 0.088167
0.755475 0.767696 0.090558
0.876428 0.770656 0.092941
0.973311 0.773585 0.095320
0.983848 0.773968 0.095632
0.073132 0.876773 0.085961
0.196652 0.879583 0.088565
0.336086 0.882262 0.091075
0.482948 0.884869 0.093547
0.628728 0.887424 0.095997
0.765274 0.889937 0.098434
0.884741 0.892415 0.100862
0.979529 0.894861 0.103284
0.989747 0.895180 0.103602
0.080684 0.976857 0.093772
0.206097 0.978935 0.096426
0.346625 0.980906 0.098985
0.493876 0.982816 0.101503
0.639380 0.984680 0.103998
0.775011 0.986505 0.106479
0.892939 0.988296 0.108951
0.985580 0.990056 0.111417
0.995471 0.990285 0.111740
0.026790 0.001257 0.111266
0.136269 0.003117 0.114025
0.267070 0.004920 0.116684
0.410047 0.006703 0.119299
0.556416 0.008480 0.121889
0.697855 0.010255 0.124463
0.826399 0.012031 0.127026
0.934357 0.013812 0.129582
0.946603 0.014046 0.129917
0.032378 0.079402 0.118468
0.143817 0.081961 0.121267
0.275869 0.084430 0.123964
0.419477 0.086861 0.126616
0.565893 0.089272 0.129243
0.706818 0.091669 0.131852
0.834303 0.094059 0.134451
0.940668 0.096444 0.137041
0.952666 0.096757 0.137381
0.038733 0.191256 0.126575
0.152299 0.194392 0.129418
0.285694 0.197409 0.132156
0.429958 0.200371 0.134849
0.576383 0.203299 0.137515
0.716695 0.206205 0.140163
0.842962 0.209094 0.142800
0.947519 0.211970 0.145428
0.959236 0.212347 0.145772
0.045326 0.323208 0.134899
0.160993 0.326714 0.137786
0.295698 0.330080 0.140565
0.440577 0.333379 0.143298
0.586965 0.336635 0.146003
0.726612 0.339860 0.148689
0.851603 0.343061 0.151363
0.954286 0.346242 0.154027
0.965714 0.346658 0.154377
0.052132 0.466691 0.143410
0.169865 0.470353 0.146339
0.305840 0.473862 0.149158
0.451292 0.477297 0.151930
0.597595 0.480683 0.154672
0.736525 0.484031 0.157396
0.860185 0.487350 0.160106
0.960936 0.490643 0.162807
0.972066 0.491074 0.163161
0.059140 0.612907 0.152089
0.178896 0.616506 0.155059
0.316099 0.619950 0.157918
0.462079 0.623317 0.160727
0.608249 0.626630 0.163507
0.746412 0.629901 0.166267
0.868686 0.633140 0.169013
0.967449 0.636349 0.171749
0.978273 0.636769 0.172107
0.066340 0.752869 0.160926
0.188076 0.756184 0.163936
0.326462 0.759350 0.166833
0.472923 0.762440 0.169680
0.618913 0.765476 0.172496
0.756257 0.768469 0.175291
0.877094 0.771427 0.178072
0.973812 0.774354 0.180842
0.984324 0.774736 0.181205
0.073725 0.877438 0.169912
0.197396 0.880245 0.172962
0.336919 0.882920 0.175896
0.483814 0.885523 0.178778
0.629573 0.888075 0.181630
0.766049 0.890585 0.184460
0.885395 0.893059 0.187274
0.980015 0.895502 0.190077
0.990207 0.895820 0.190445
0.081289 0.977350 0.179041
0.206849 0.979423 0.182128
0.347462 0.981389 0.185099
0.494742 0.983294 0.188017
0.640222 0.985154 0.190902
0.775778 0.986974 0.193765
0.893583 0.988761 0.196613
0.986051 0.990516 0.199448
0.995916 0.990744 0.199820
0.027320 0.001719 0.204574
0.136990 0.003584 0.207760
0.267912 0.005392 0.210824
0.410951 0.007181 0.213831
0.557326 0.008963 0.216804
0.698718 0.010742 0.219754
0.827161 0.012524 0.222685
0.934968 0.014309 0.225603
0.947191 0.014544 0.225985
0.032921 0.080039 0.212876
0.144547 0.082603 0.216091
0.276717 0.085076 0.219182
0.420384 0.087511 0.222217
0.566802 0.089925 0.225216
0.707676 0.092326 0.228191
0.835057 0.094720 0.231148
0.941267 0.097109 0.234090
0.953241 0.097422 0.234475
0.039291 0.192037 0.222169
0.153039 0.195176 0.225416
0.286548 0.198196 0.228537
0.430866 0.201161 0.231600
0.577290 0.204092 0.234628
0.717547 0.207000 0.237630
0.843706 0.209892 0.240613
0.948105 0.212771 0.243582
0.959798 0.213148 0.243971
0.045898 0.324082 0.231658
0.161743 0.327590 0.234935
0.296557 0.330957 0.238085
0.441488 0.334257 0.241176
0.587870 0.337515 0.244231
0.727458 0.340741 0.247260
0.852337 0.343943 0.250269
0.954858 0.347126 0.253263
0.966261 0.347542 0.253656
0.052719 0.467604 0.241303
0.170624 0.471266 0.244610
0.306705 0.474776 0.247788
0.452204 0.478212 0.250906
0.598497 0.481597 0.253987
0.737365 0.484946 0.257042
0.860909 0.488264 0.260077
0.961493 0.491558 0.263096
0.972598 0.491989 0.263491
0.059740 0.613805 0.251085
0.179665 0.617403 0.254421
0.316969 0.620846 0.257626
0.462991 0.624211 0.260771
0.609149 0.627523 0.263877
0.747244 0.630794 0.266957
0.869400 0.634031 0.270016
0.967991 0.637240 0.273058
0.978790 0.637659 0.273457
0.066953 0.753697 0.260993
0.188854 0.757009 0.264356
0.327338 0.760173 0.267587
0.473837 0.763261 0.270757
0.619809 0.766294 0.273888
0.757082 0.769285 0.276991
0.877796 0.772240 0.280073
0.974339 0.775165 0.283139
0.984825 0.775546 0.283540
0.074352 0.878140 0.271016
0.198183 0.880943 0.274406
0.337800 0.883614 0.277662
0.484728 0.886213 0.280856
0.630466 0.888762 0.284010
0.766867 0.891268 0.287136
0.886086 0.893739 0.290240
0.980528 0.896177 0.293327
0.990692 0.896495 0.293732
0.081929 0.977869 0.281146
0.207645 0.979936 0.284561
0.348347 0.981898 0.287841
0.495656 0.983798 0.291058
0.641111 0.985653 0.294235
0.776588 0.987468 0.297382
0.894261 0.989250 0.300508
0.986548 0.991000 0.303616
0.996385 0.991228 0.304023
0.027870 0.002198 0.312891
0.137735 0.004069 0.316377
0.268783 0.005882 0.319723
0.411886 0.007677 0.323004
0.558267 0.009463 0.326243
0.699609 0.011248 0.329450
0.827949 0.013035 0.332635
0.935599 0.014825 0.335800
0.947797 0.015060 0.336214
0.033484 0.080698 0.321963
0.145302 0.083266 0.325466
0.277594 0.085744 0.328830
0.421321 0.088183 0.332127
0.567742 0.090601 0.335381
0.708562 0.093007 0.338603
0.835835 0.095404 0.341802
0.941886 0.097797 0.344982
0.953834 0.098110 0.345398
0.039869 0.192845 0.332075
0.153805 0.195988 0.335597
0.287431 0.199010 0.338978
0.431805 0.201978 0.342292
0.578227 0.204912 0.345562
0.718427 0.207823 0.348801
0.844475 0.210717 0.352015
0.948709 0.213599 0.355209
0.960376 0.213976 0.355627
0.046491 0.324986 0.342354
0.162519 0.328495 0.345894
0.297447 0.331864 0.349291
0.442429 0.335166 0.352621
0.588805 0.338425 0.355906
0.728331 0.341653 0.359160
0.853095 0.344856 0.362388
0.955448 0.348040 0.365596
0.966825 0.348457 0.366016
0.053326 0.468549 0.352757
0.171410 0.472211 0.356314
0.307600 0.475721 0.359727
0.453146 0.479156 0.363071
0.599430 0.482542 0.366371
0.738231 0.485891 0.369639
0.861656 0.489209 0.372880
0.962068 0.492503 0.376101
0.973146 0.492934 0.376523
0.060362 0.614733 0.363263
0.180461 0.618330 0.366836
0.317870 0.621772 0.370263
0.463935 0.625136 0.373622
0.610078 0.628447 0.376935
0.748104 0.631717 0.380215
0.870136 0.634953 0.383469
0.968551 0.638160 0.386702
0.979322 0.638579 0.387125
0.067589 0.754552 0.373859
0.189659 0.757862 0.377445
0.328243 0.761023 0.380886
0.474781 0.764108 0.384258
0.620735 0.767139 0.387583
0.757935 0.770128 0.390875
0.878520 0.773081 0.394141
0.974884 0.776002 0.397385
0.985341 0.776384 0.397809
0.075001 0.878864 0.384532
0.198998 0.881663 0.388133
0.338710 0.884330 0.391586
0.485673 0.886926 0.394969
0.631389 0.889470 0.398306
0.767711 0.891973 0.401608
0.886799 0.894440 0.404884
0.981056 0.896875 0.408138
0.991192 0.897192 0.408564
0.082592 0.978404 0.395276
0.208468 0.980466 0.398889
0.349262 0.982422 0.402353
0.496602 0.984318 0.405747
0.642030 0.986167 0.409094
0.777425 0.987978 0.412406
0.894962 0.989754 0.415691
0.987059 0.991500 0.418954
0.996868 0.991727 0.419381
0.028434 0.002690 0.431515
0.138500 0.004567 0.435159
0.269676 0.006386 0.438653
0.412844 0.008185 0.442074
0.559231 0.009977 0.445447
0.700521 0.011767 0.448783
0.828754 0.013559 0.452091
0.936243 0.015354 0.455376
0.948416 0.015590 0.455805
0.034063 0.081375 0.440989
0.146077 0.083948 0.444639
0.278493 0.086429 0.448138
0.422281 0.088873 0.451564
0.568704 0.091295 0.454941
0.709469 0.093704 0.458282
0.836632 0.096106 0.461594
0.942518 0.098502 0.464882
0.954441 0.098817 0.465312
0.040462 0.193674 0.451510
0.154590 0.196820 0.455166
0.288336 0.199845 0.458670
0.432767 0.202815 0.462101
0.579187 0.205752 0.465482
0.719328 0.208666 0.468827
0.845261 0.211563 0.472142
0.949327 0.214447 0.475433
0.960968 0.214825 0.475863
0.047099 0.325912 0.462165
0.163314 0.329423 0.465825
0.298358 0.332793 0.469333
0.443392 0.336097 0.472767
0.589763 0.339358 0.476151
0.729226 0.342587 0.479499
0.853871 0.345792 0.482817
0.956051 0.348977 0.486110
0.967401 0.349394 0.486540
0.053949 0.469515 0.472907
0.172216 0.473178 0.476571
0.308517 0.476688 0.480082
0.454111 0.480124 0.483518
0.600385 0.483510 0.486905
0.739119 0.486859 0.490254
0.862420 0.490178 0.493573
0.962656 0.493471 0.496867
0.973706 0.493902 0.497298
0.060999 0.615684 0.483715
0.181276 0.619279 0.487381
0.318792 0.622720 0.490894
0.464902 0.626083 0.494331
0.611030 0.629393 0.497719
0.748984 0.632661 0.501068
0.870889 0.635896 0.504388
0.969123 0.639102 0.507682
0.979867 0.639521 0.508112
0.068241 0.755427 0.494573
0.190485 0.758734 0.498240
0.329171 0.761893 0.501753
0.475749 0.764976 0.505191
0.621683 0.768004 0.508579
0.758807 0.770990 0.511928
0.879261 0.773940 0.515246
0.975439 0.776860 0.518539
0.985869 0.777241 0.518970
0.075667 0.879605 0.505471
0.199832 0.882399 0.509138
0.339642 0.885062 0.512650
0.486641 0.887655 0.516087
0.632333 0.890195 0.519474
0.768575 0.892694 0.522821
0.887527 0.895157 0.526138
0.981595 0.897588 0.529428
0.991703 0.897905 0.529859
0.083272 0.978951 0.516400
0.209312 0.981007 0.520065
0.350199 0.982958 0.523576
0.497570 0.984848 0.527010
0.642970 0.986692 0.530394
0.778281 0.988498 0.533739
0.895678 0.990269 0.537053
0.987582 0.992009 0.540340
0.997361 0.992236 0.540770
0.029011 0.003193 0.555246
0.139280 0.005075 0.558896
0.270586 0.006900 0.562392
0.413820 0.008705 0.565810
0.560212 0.010503 0.569176
0.701450 0.012298 0.572502
0.829574 0.014095 0.575796
0.936899 0.015895 0.579063
0.949046 0.016132 0.579490
0.034653 0.082065 0.564726
0.146867 0.084643 0.568370
0.279409 0.087129 0.571859
0.423259 0.089577 0.575271
0.569684 0.092003 0.578631
0.710393 0.094417 0.581950
0.837443 0.096822 0.585237
0.943160 0.099223 0.588497
0.955057 0.099538 0.588922
0.041068 0.194519 0.575218
0.155391 0.197668 0.578854
0.289259 0.200696 0.582335
0.433748 0.203670 0.585739
0.580165 0.206610 0.589091
0.720245 0.209526 0.592402
0.846061 0.212426 0.595680
0.949955 0.215313 0.598931
0.961569 0.215691 0.599355
0.047720 0.326856 0.585803
0.164126 0.330369 0.589430
0.299286 0.333741 0.592903
0.444375 0.337046 0.596298
0.590738 0.340308 0.599640
0.730136 0.343539 0.602941
0.854660 0.346745 0.606210
0.956664 0.349932 0.609450
0.967986 0.350349 0.609873
0.054586 0.470501 0.596436
0.173038 0.474164 0.600053
0.309451 0.477674 0.603516
0.455095 0.481110 0.606900
0.601357 0.484496 0.610232
0.740022 0.487845 0.613522
0.863198 0.491164 0.616780
0.963253 0.494458 0.620009
0.974276 0.494889 0.620431
0.061651 0.616651 0.607094
0.182108 0.620246 0.610700
0.319732 0.623685 0.614151
0.465887 0.627047 0.617524
0.611999 0.630356 0.620844
0.749880 0.633623 0.624123
0.871655 0.636856 0.627368
0.969704 0.640061 0.630585
0.980419 0.640480 0.631005
0.068907 0.756317 0.617761
0.191327 0.759622 0.621354
0.330116 0.762779 0.624793
0.476734 0.765858 0.628153
0.622649 0.768884 0.631460
0.759695 0.771868 0.634726
0.880015 0.774815 0.637958
0.976004 0.777732 0.641162
0.986405 0.778113 0.641580
0.076347 0.880358 0.628426
0.200684 0.883148 0.632005
0.340593 0.885808 0.635430
0.487627 0.888396 0.638777
0.633295 0.890932 0.642070
0.769455 0.893427 0.645321
0.888269 0.895886 0.648539
0.982143 0.898314 0.651728
0.992222 0.898630 0.652145
0.083966 0.979506 0.639080
0.210173 0.981557 0.642644
0.351154 0.983502 0.646054
0.498557 0.985387 0.649385
0.643928 0.987226 0.652663
0.779152 0.989026 0.655900
0.896407 0.990792 0.659102
0.988113 0.992527 0.662275
0.997862 0.992753 0.662690
0.029598 0.003705 0.678448
0.140073 0.005594 0.681944
0.271511 0.007424 0.685287
0.414812 0.009235 0.688552
0.561209 0.011038 0.691764
0.702393 0.012838 0.694933
0.830406 0.014641 0.698068
0.937563 0.016446 0.701172
0.949684 0.016684 0.701578
0.035254 0.082768 0.687517
0.147670 0.085350 0.690995
0.280340 0.087841 0.694321
0.424253 0.090293 0.697568
0.570678 0.092724 0.700762
0.711330 0.095141 0.703913
0.838265 0.097551 0.707030
0.943811 0.099955 0.710117
0.955682 0.100271 0.710520
0.041685 0.195378 0.697518
0.156205 0.198530 0.700974
0.290196 0.201561 0.704279
0.434744 0.204538 0.707506
0.581157 0.207481 0.710679
0.721175 0.210400 0.713810
0.846873 0.213303 0.716905
0.950591 0.216192 0.719971
0.962178 0.216571 0.720371
0.048353 0.327815 0.707566
0.164951 0.331330 0.711000
0.300230 0.334703 0.714283
0.445372 0.338010 0.717488
0.591728 0.341274 0.720639
0.731060 0.344506 0.723747
0.855460 0.347714 0.726821
0.957284 0.350902 0.729864
0.968579 0.351319 0.730261
0.055233 0.471501 0.717619
0.173873 0.475165 0.721029
0.310401 0.478675 0.724288
0.456094 0.482111 0.727470
0.602344 0.485498 0.730597
0.740938 0.488847 0.733682
0.863987 0.492166 0.736732
0.963858 0.495460 0.739752
0.974852 0.495890 0.740146
0.062313 0.617634 0.727652
0.182954 0.621227 0.731036
0.320688 0.624665 0.734271
0.466887 0.628026 0.737428
0.612983 0.631333 0.740531
0.750789 0.634599 0.743592
0.872431 0.637831 0.746617
0.970293 0.641035 0.749612
0.980979 0.641454 0.750003
0.069584 0.757221 0.737650
0.192182 0.760523 0.741008
0.331077 0.763677 0.744217
0.477735 0.766754 0.747349
0.623629 0.769778 0.750426
0.760596 0.772758 0.753461
0.880780 0.775703 0.756461
0.976576 0.778617 0.759429
0.986947 0.778998 0.759817
0.077039 0.881122 0.747603
0.201549 0.883908 0.750933
0.341559 0.886563 0.754115
0.488629 0.889147 0.757220
0.634272 0.891680 0.760270
0.770348 0.894171 0.763278
0.889021 0.896626 0.766251
0.982698 0.899049 0.769192
0.992747 0.899365 0.769576
0.084672 0.980068 0.757501
0.211047 0.982114 0.760802
0.352125 0.984053 0.763955
0.499558 0.985933 0.767032
0.644900 0.987766 0.770054
0.780036 0.989561 0.773034
0.897145 0.991321 0.775978
0.988651 0.993051 0.778891
0.998369 0.993276 0.779272
0.030194 0.004225 0.795109
0.140878 0.006120 0.798284
0.272449 0.007957 0.801316
0.415816 0.009773 0.804272
0.562218 0.011581 0.807175
0.703348 0.013388 0.810035
0.831247 0.015195 0.812859
0.938235 0.017006 0.815652
0.950329 0.017244 0.816016
0.035865 0.083481 0.803335
0.148485 0.086068 0.806480
0.281284 0.088563 0.809482
0.425260 0.091020 0.812409
0.571686 0.093455 0.815283
0.712279 0.095877 0.818114
0.839097 0.098290 0.820909
0.944469 0.100699 0.823672
0.956313 0.101015 0.824033
0.042311 0.196250 0.812364
0.157031 0.199405 0.815473
0.291147 0.202439 0.818442
0.435753 0.205419 0.821335
0.582163 0.208364 0.824175
0.722118 0.211287 0.826973
0.847694 0.214192 0.829734
0.951234 0.217084 0.832464
0.962793 0.217463 0.832820
0.048995 0.328787 0.821389
0.165788 0.332304 0.824462
0.301187 0.335679 0.827395
0.446383 0.338987 0.830253
0.592731 0.342253 0.833059
0.731995 0.345486 0.835821
0.856270 0.348695 0.838548
0.957912 0.351885 0.841243
0.969179 0.352302 0.841595
0.055891 0.472515 0.830370
0.174721 0.476179 0.833405
0.311364 0.479690 0.836301
0.457106 0.483126 0.839123
0.603344 0.486512 0.841892
0.741866 0.489861 0.844619
0.864785 0.493180 0.847310
0.964469 0.496475 0.849969
0.975435 0.496905 0.850316
0.062986 0.618629 0.839285
0.183812 0.622221 0.842281
0.321656 0.625658 0.845139
0.467900 0.629017 0.847923
0.613980 0.632323 0.850654
0.751709 0.635588 0.853344
0.873217 0.638819 0.855997
0.970888 0.642021 0.858619
0.981545 0.642440 0.858961
0.070272 0.758136 0.848119
0.193050 0.761435 0.851074
0.332051 0.764586 0.853892
0.478750 0.767661 0.856638
0.624622 0.770682 0.859331
0.761508 0.773660 0.861981
0.881553 0.776602 0.864596
0.977154 0.779513 0.867179
0.987496 0.779893 0.867516
0.077741 0.881895 0.856861
0.202427 0.884677 0.859774
0.342538 0.887327 0.862552
0.489644 0.889908 0.865257
0.635260 0.892436 0.867910
0.771251 0.894923 0.870521
0.889781 0.897374 0.873095
0.983259 0.899793 0.875639
0.993277 0.900109 0.875970
0.085389 0.980637 0.865502
0.211934 0.982676 0.868372
0.353108 0.984610 0.871107
0.500573 0.986484 0.873771
0.645885 0.988312 0.876383
0.780931 0.990101 0.878952
0.897892 0.991856 0.881486
0.989194 0.993581 0.883988
0.998881 0.993805 0.884315
