cinelut/luts/asteroid-city.cube
# CineLUT — Asteroid City (2023)
# Gerado por generate_luts.py
LUT_3D_SIZE 33
0.089361 0.021673 0.001659
0.125863 0.022036 0.002010
0.162803 0.022391 0.002354
0.200198 0.022740 0.002692
0.238012 0.023085 0.003025
0.276191 0.023426 0.003355
0.314669 0.023764 0.003682
0.353374 0.024098 0.004007
0.392232 0.024431 0.004328
0.431168 0.024761 0.004648
0.470105 0.025089 0.004966
0.508967 0.025416 0.005282
0.547678 0.025741 0.005596
0.586163 0.026064 0.005910
0.624347 0.026386 0.006221
0.662155 0.026707 0.006532
0.699515 0.027026 0.006841
0.736354 0.027344 0.007149
0.772599 0.027662 0.007457
0.808180 0.027978 0.007763
0.843025 0.028293 0.008068
0.877065 0.028607 0.008373
0.910231 0.028921 0.008676
0.942453 0.029234 0.008979
0.973664 0.029546 0.009282
1.000000 0.029857 0.009583
1.000000 0.030167 0.009884
1.000000 0.030223 0.009937
1.000000 0.030223 0.009937
1.000000 0.030223 0.009937
1.000000 0.030223 0.009937
1.000000 0.030223 0.009937
1.000000 0.030223 0.009937
0.090514 0.051392 0.002680
0.127059 0.051771 0.003032
0.164038 0.052142 0.003377
0.201466 0.052506 0.003715
0.239310 0.052866 0.004050
0.277514 0.053221 0.004380
0.316013 0.053574 0.004708
0.354736 0.053923 0.005032
0.393609 0.054270 0.005355
0.432555 0.054614 0.005675
0.471500 0.054957 0.005993
0.510366 0.055297 0.006310
0.549077 0.055636 0.006625
0.587560 0.055973 0.006939
0.625738 0.056309 0.007251
0.663537 0.056643 0.007562
0.700885 0.056976 0.007872
0.737708 0.057308 0.008181
0.773935 0.057639 0.008488
0.809494 0.057968 0.008795
0.844315 0.058297 0.009101
0.878328 0.058624 0.009406
0.911463 0.058951 0.009710
0.943652 0.059277 0.010014
0.974827 0.059602 0.010317
1.000000 0.059927 0.010619
1.000000 0.060250 0.010920
1.000000 0.060308 0.010974
1.000000 0.060308 0.010974
1.000000 0.060308 0.010974
1.000000 0.060308 0.010974
1.000000 0.060308 0.010974
1.000000 0.060308 0.010974
0.091752 0.084598 0.003778
0.128343 0.084992 0.004130
0.165363 0.085378 0.004475
0.202826 0.085758 0.004814
0.240702 0.086132 0.005149
0.278933 0.086502 0.005481
0.317456 0.086869 0.005809
0.356198 0.087233 0.006134
0.395085 0.087594 0.006457
0.434043 0.087952 0.006778
0.472995 0.088309 0.007097
0.511865 0.088663 0.007414
0.550577 0.089015 0.007730
0.589057 0.089366 0.008044
0.627228 0.089716 0.008357
0.665018 0.090063 0.008668
0.702352 0.090410 0.008979
0.739159 0.090755 0.009288
0.775366 0.091099 0.009597
0.810902 0.091442 0.009904
0.845697 0.091784 0.010210
0.879680 0.092125 0.010516
0.912782 0.092465 0.010821
0.944935 0.092804 0.011125
0.976071 0.093142 0.011428
1.000000 0.093479 0.011731
1.000000 0.093816 0.012032
1.000000 0.093876 0.012086
1.000000 0.093876 0.012086
1.000000 0.093876 0.012086
1.000000 0.093876 0.012086
1.000000 0.093876 0.012086
1.000000 0.093876 0.012086
0.092967 0.118415 0.004856
0.129603 0.118824 0.005209
0.166663 0.119223 0.005554
0.204162 0.119616 0.005894
0.242068 0.120004 0.006230
0.280326 0.120388 0.006562
0.318871 0.120767 0.006890
0.357631 0.121144 0.007216
0.396534 0.121518 0.007540
0.435503 0.121889 0.007861
0.474462 0.122258 0.008181
0.513336 0.122625 0.008499
0.552048 0.122989 0.008815
0.590525 0.123353 0.009130
0.628690 0.123714 0.009443
0.666469 0.124074 0.009755
0.703791 0.124433 0.010066
0.740581 0.124790 0.010376
0.776769 0.125146 0.010685
0.812282 0.125501 0.010993
0.847050 0.125855 0.011300
0.881004 0.126208 0.011606
0.914075 0.126559 0.011912
0.946192 0.126910 0.012216
0.977290 0.127260 0.012520
1.000000 0.127609 0.012823
1.000000 0.127957 0.013125
1.000000 0.128019 0.013179
1.000000 0.128019 0.013179
1.000000 0.128019 0.013179
1.000000 0.128019 0.013179
1.000000 0.128019 0.013179
1.000000 0.128019 0.013179
0.094167 0.152884 0.005921
0.130848 0.153305 0.006275
0.167947 0.153717 0.006621
0.205480 0.154122 0.006962
0.243416 0.154522 0.007298
0.281700 0.154917 0.007630
0.320267 0.155309 0.007959
0.359046 0.155697 0.008286
0.397963 0.156082 0.008610
0.436942 0.156464 0.008932
0.475909 0.156845 0.009252
0.514787 0.157223 0.009571
0.553499 0.157599 0.009887
0.591972 0.157973 0.010203
0.630131 0.158346 0.010517
0.667901 0.158717 0.010829
0.705209 0.159086 0.011141
0.741983 0.159454 0.011451
0.778151 0.159821 0.011761
0.813642 0.160187 0.012069
0.848385 0.160551 0.012377
0.882310 0.160915 0.012683
0.915348 0.161277 0.012989
0.947431 0.161638 0.013294
0.978491 0.161999 0.013599
1.000000 0.162358 0.013902
1.000000 0.162717 0.014205
1.000000 0.162781 0.014259
1.000000 0.162781 0.014259
1.000000 0.162781 0.014259
1.000000 0.162781 0.014259
1.000000 0.162781 0.014259
1.000000 0.162781 0.014259
0.095357 0.187976 0.006977
0.132081 0.188408 0.007331
0.169218 0.188831 0.007678
0.206786 0.189248 0.008019
0.244752 0.189658 0.008356
0.283061 0.190064 0.008689
0.321650 0.190466 0.009019
0.360446 0.190864 0.009346
0.399377 0.191260 0.009671
0.438367 0.191653 0.009993
0.477341 0.192043 0.010314
0.516222 0.192431 0.010633
0.554935 0.192817 0.010950
0.593404 0.193201 0.011266
0.631556 0.193584 0.011581
0.669317 0.193964 0.011894
0.706612 0.194344 0.012206
0.743370 0.194722 0.012517
0.779518 0.195098 0.012827
0.814986 0.195473 0.013136
0.849704 0.195847 0.013444
0.883600 0.196220 0.013751
0.916607 0.196592 0.014058
0.948655 0.196963 0.014363
0.979677 0.197333 0.014668
1.000000 0.197702 0.014972
1.000000 0.198069 0.015276
1.000000 0.198135 0.015330
1.000000 0.198135 0.015330
1.000000 0.198135 0.015330
1.000000 0.198135 0.015330
1.000000 0.198135 0.015330
1.000000 0.198135 0.015330
0.096537 0.223639 0.008025
0.133304 0.224082 0.008380
0.170480 0.224515 0.008728
0.208081 0.224940 0.009070
0.246076 0.225360 0.009407
0.284411 0.225776 0.009741
0.323021 0.226187 0.010071
0.361835 0.226595 0.010399
0.400780 0.226999 0.010724
0.439780 0.227401 0.011047
0.478761 0.227800 0.011368
0.517645 0.228197 0.011688
0.556358 0.228592 0.012006
0.594824 0.228985 0.012322
0.632969 0.229376 0.012637
0.670720 0.229766 0.012951
0.708002 0.230154 0.013264
0.744744 0.230540 0.013575
0.780873 0.230925 0.013886
0.816319 0.231309 0.014195
0.851010 0.231691 0.014504
0.884878 0.232073 0.014812
0.917853 0.232453 0.015118
0.949867 0.232832 0.015425
0.980852 0.233210 0.015730
1.000000 0.233587 0.016035
1.000000 0.233964 0.016339
1.000000 0.234031 0.016393
1.000000 0.234031 0.016393
1.000000 0.234031 0.016393
1.000000 0.234031 0.016393
1.000000 0.234031 0.016393
1.000000 0.234031 0.016393
0.097710 0.259809 0.009068
0.134520 0.260260 0.009424
0.171734 0.260702 0.009772
0.209368 0.261136 0.010114
0.247392 0.261564 0.010452
0.285752 0.261988 0.010786
0.324383 0.262407 0.011117
0.363214 0.262823 0.011446
0.402173 0.263236 0.011771
0.441183 0.263645 0.012095
0.480170 0.264052 0.012417
0.519058 0.264457 0.012737
0.557770 0.264860 0.013055
0.596233 0.265261 0.013372
0.634372 0.265659 0.013688
0.672112 0.266057 0.014002
0.709381 0.266452 0.014315
0.746107 0.266846 0.014627
0.782217 0.267239 0.014939
0.817640 0.267630 0.015249
0.852306 0.268020 0.015558
0.886146 0.268408 0.015866
0.919090 0.268796 0.016173
0.951069 0.269182 0.016480
0.982016 0.269568 0.016786
1.000000 0.269952 0.017091
1.000000 0.270336 0.017396
1.000000 0.270404 0.017450
1.000000 0.270404 0.017450
1.000000 0.270404 0.017450
1.000000 0.270404 0.017450
1.000000 0.270404 0.017450
1.000000 0.270404 0.017450
0.098877 0.296414 0.010106
0.135730 0.296873 0.010462
0.172980 0.297322 0.010811
0.210648 0.297764 0.011154
0.248701 0.298200 0.011492
0.287085 0.298630 0.011827
0.325737 0.299057 0.012159
0.364585 0.299480 0.012488
0.403557 0.299899 0.012814
0.442577 0.300316 0.013138
0.481571 0.300730 0.013461
0.520461 0.301141 0.013781
0.559174 0.301551 0.014100
0.597633 0.301958 0.014418
0.635765 0.302363 0.014734
0.673495 0.302767 0.015049
0.710751 0.303169 0.015362
0.747461 0.303570 0.015675
0.783551 0.303969 0.015986
0.818952 0.304366 0.016297
0.853593 0.304763 0.016607
0.887404 0.305158 0.016915
0.920317 0.305551 0.017223
0.952262 0.305944 0.017531
0.983172 0.306336 0.017837
1.000000 0.306727 0.018143
1.000000 0.307116 0.018448
1.000000 0.307186 0.018502
1.000000 0.307186 0.018502
1.000000 0.307186 0.018502
1.000000 0.307186 0.018502
1.000000 0.307186 0.018502
1.000000 0.307186 0.018502
0.100039 0.333382 0.011140
0.136934 0.333848 0.011497
0.174222 0.334304 0.011846
0.211922 0.334751 0.012190
0.250003 0.335193 0.012529
0.288411 0.335630 0.012864
0.327084 0.336062 0.013196
0.365949 0.336491 0.013525
0.404934 0.336916 0.013852
0.443964 0.337339 0.014177
0.482964 0.337759 0.014500
0.521857 0.338176 0.014821
0.560569 0.338591 0.015141
0.599025 0.339004 0.015459
0.637150 0.339415 0.015775
0.674870 0.339824 0.016091
0.712113 0.340232 0.016405
0.748806 0.340638 0.016718
0.784878 0.341042 0.017030
0.820256 0.341445 0.017341
0.854872 0.341847 0.017651
0.888655 0.342247 0.017961
0.921536 0.342646 0.018269
0.953447 0.343045 0.018577
0.984320 0.343441 0.018884
1.000000 0.343837 0.019190
1.000000 0.344232 0.019496
1.000000 0.344303 0.019550
1.000000 0.344303 0.019550
1.000000 0.344303 0.019550
1.000000 0.344303 0.019550
1.000000 0.344303 0.019550
1.000000 0.344303 0.019550
0.101197 0.370639 0.012170
0.138133 0.371110 0.012528
0.175458 0.371570 0.012878
0.213190 0.372023 0.013222
0.251299 0.372470 0.013561
0.289732 0.372912 0.013897
0.328424 0.373349 0.014230
0.367306 0.373783 0.014560
0.406305 0.374213 0.014887
0.445344 0.374640 0.015213
0.484350 0.375064 0.015536
0.523246 0.375486 0.015858
0.561958 0.375906 0.016178
0.600410 0.376324 0.016496
0.638528 0.376739 0.016814
0.676238 0.377153 0.017130
0.713468 0.377565 0.017444
0.750145 0.377976 0.017758
0.786196 0.378384 0.018070
0.821553 0.378792 0.018382
0.856143 0.379198 0.018693
0.889898 0.379603 0.019003
0.922748 0.380006 0.019312
0.954625 0.380409 0.019620
0.985461 0.380810 0.019927
1.000000 0.381210 0.020234
1.000000 0.381609 0.020540
1.000000 0.381681 0.020594
1.000000 0.381681 0.020594
1.000000 0.381681 0.020594
1.000000 0.381681 0.020594
1.000000 0.381681 0.020594
1.000000 0.381681 0.020594
0.102351 0.408107 0.013198
0.139328 0.408582 0.013556
0.176689 0.409047 0.013906
0.214453 0.409504 0.014251
0.252590 0.409955 0.014591
0.291047 0.410400 0.014928
0.329760 0.410841 0.015261
0.368658 0.411279 0.015591
0.407669 0.411713 0.015920
0.446718 0.412144 0.016245
0.485730 0.412572 0.016569
0.524629 0.412998 0.016892
0.563340 0.413421 0.017212
0.601788 0.413842 0.017531
0.639899 0.414261 0.017849
0.677599 0.414679 0.018165
0.714816 0.415094 0.018481
0.751476 0.415508 0.018795
0.787509 0.415921 0.019108
0.822843 0.416331 0.019420
0.857408 0.416741 0.019731
0.891134 0.417149 0.020041
0.923953 0.417556 0.020351
0.955796 0.417962 0.020660
0.986595 0.418367 0.020967
1.000000 0.418770 0.021275
1.000000 0.419173 0.021581
1.000000 0.419244 0.021636
1.000000 0.419244 0.021636
1.000000 0.419244 0.021636
1.000000 0.419244 0.021636
1.000000 0.419244 0.021636
1.000000 0.419244 0.021636
0.103501 0.445711 0.014223
0.140519 0.446189 0.014582
0.177917 0.446657 0.014933
0.215713 0.447117 0.015278
0.253877 0.447571 0.015619
0.292358 0.448020 0.015956
0.331090 0.448464 0.016289
0.370005 0.448904 0.016620
0.409029 0.449341 0.016949
0.448087 0.449774 0.017275
0.487105 0.450205 0.017600
0.526006 0.450633 0.017923
0.564716 0.451059 0.018244
0.603160 0.451483 0.018563
0.641264 0.451905 0.018882
0.678954 0.452325 0.019198
0.716157 0.452743 0.019514
0.752801 0.453160 0.019829
0.788815 0.453575 0.020142
0.824126 0.453988 0.020455
0.858666 0.454400 0.020767
0.892364 0.454811 0.021078
0.925152 0.455220 0.021388
0.956960 0.455628 0.021697
0.987723 0.456036 0.022005
1.000000 0.456441 0.022313
1.000000 0.456846 0.022620
1.000000 0.456918 0.022675
1.000000 0.456918 0.022675
1.000000 0.456918 0.022675
1.000000 0.456918 0.022675
1.000000 0.456918 0.022675
1.000000 0.456918 0.022675
0.104648 0.483376 0.015246
0.141707 0.483856 0.015605
0.179141 0.484326 0.015956
0.216968 0.484788 0.016302
0.255160 0.485244 0.016644
0.293664 0.485694 0.016981
0.332416 0.486140 0.017316
0.371347 0.486582 0.017647
0.410383 0.487021 0.017976
0.449451 0.487456 0.018303
0.488474 0.487889 0.018628
0.527378 0.488319 0.018951
0.566087 0.488746 0.019273
0.604527 0.489172 0.019593
0.642624 0.489595 0.019912
0.680304 0.490017 0.020229
0.717494 0.490436 0.020546
0.754121 0.490855 0.020861
0.790115 0.491271 0.021175
0.825404 0.491686 0.021488
0.859918 0.492100 0.021800
0.893588 0.492512 0.022111
0.926345 0.492923 0.022422
0.958119 0.493333 0.022732
0.988845 0.493741 0.023041
1.000000 0.494149 0.023349
1.000000 0.494555 0.023656
1.000000 0.494627 0.023711
1.000000 0.494627 0.023711
1.000000 0.494627 0.023711
1.000000 0.494627 0.023711
1.000000 0.494627 0.023711
1.000000 0.494627 0.023711
0.105793 0.521026 0.016266
0.142893 0.521507 0.016626
0.180362 0.521978 0.016978
0.218220 0.522441 0.017325
0.256440 0.522897 0.017667
0.294967 0.523348 0.018005
0.333739 0.523795 0.018340
0.372685 0.524238 0.018672
0.411734 0.524677 0.019001
0.450810 0.525113 0.019329
0.489839 0.525547 0.019655
0.528745 0.525977 0.019978
0.567454 0.526406 0.020300
0.605889 0.526832 0.020621
0.643979 0.527256 0.020940
0.681648 0.527678 0.021258
0.718824 0.528099 0.021575
0.755435 0.528518 0.021891
0.791410 0.528935 0.022205
0.826677 0.529350 0.022519
0.861166 0.529765 0.022832
0.894807 0.530177 0.023143
0.927532 0.530589 0.023454
0.959273 0.530999 0.023764
0.989962 0.531408 0.024074
1.000000 0.531816 0.024383
1.000000 0.532223 0.024691
1.000000 0.532296 0.024745
1.000000 0.532296 0.024745
1.000000 0.532296 0.024745
1.000000 0.532296 0.024745
1.000000 0.532296 0.024745
1.000000 0.532296 0.024745
0.106935 0.558585 0.017286
0.144075 0.559066 0.017646
0.181579 0.559537 0.017999
0.219469 0.559999 0.018346
0.257715 0.560456 0.018688
0.296266 0.560907 0.019027
0.335057 0.561353 0.019362
0.374019 0.561796 0.019695
0.413080 0.562235 0.020025
0.452165 0.562671 0.020353
0.491199 0.563104 0.020679
0.530108 0.563535 0.021003
0.568815 0.563963 0.021326
0.607247 0.564389 0.021647
0.645329 0.564813 0.021967
0.682988 0.565235 0.022285
0.720150 0.565655 0.022603
0.756745 0.566073 0.022919
0.792700 0.566490 0.023234
0.827944 0.566906 0.023548
0.862408 0.567320 0.023861
0.896021 0.567732 0.024174
0.928715 0.568143 0.024485
0.960422 0.568553 0.024796
0.991073 0.568962 0.025106
1.000000 0.569370 0.025415
1.000000 0.569776 0.025723
1.000000 0.569849 0.025778
1.000000 0.569849 0.025778
1.000000 0.569849 0.025778
1.000000 0.569849 0.025778
1.000000 0.569849 0.025778
1.000000 0.569849 0.025778
0.108075 0.595979 0.018303
0.145255 0.596459 0.018664
0.182795 0.596929 0.019018
0.220715 0.597390 0.019365
0.258988 0.597845 0.019708
0.297561 0.598295 0.020047
0.336372 0.598741 0.020383
0.375350 0.599182 0.020716
0.414422 0.599620 0.021047
0.453516 0.600055 0.021376
0.492556 0.600487 0.021702
0.531466 0.600916 0.022027
0.570172 0.601343 0.022350
0.608600 0.601768 0.022672
0.646674 0.602191 0.022992
0.684323 0.602611 0.023311
0.721472 0.603030 0.023629
0.758050 0.603448 0.023945
0.793985 0.603863 0.024261
0.829207 0.604277 0.024576
0.863645 0.604690 0.024889
0.897230 0.605102 0.025202
0.929893 0.605511 0.025514
0.961565 0.605920 0.025825
0.992180 0.606328 0.026136
1.000000 0.606734 0.026445
1.000000 0.607139 0.026754
1.000000 0.607211 0.026809
1.000000 0.607211 0.026809
1.000000 0.607211 0.026809
1.000000 0.607211 0.026809
1.000000 0.607211 0.026809
1.000000 0.607211 0.026809
0.109213 0.633134 0.019320
0.146433 0.633611 0.019681
0.184007 0.634079 0.020035
0.221959 0.634538 0.020383
0.260258 0.634991 0.020727
0.298854 0.635439 0.021066
0.337683 0.635882 0.021403
0.376677 0.636321 0.021737
0.415761 0.636757 0.022068
0.454864 0.637190 0.022397
0.493908 0.637620 0.022724
0.532821 0.638047 0.023049
0.571526 0.638472 0.023373
0.609949 0.638895 0.023695
0.648016 0.639315 0.024016
0.685653 0.639734 0.024335
0.722789 0.640151 0.024654
0.759350 0.640566 0.024971
0.795266 0.640980 0.025287
0.830465 0.641392 0.025602
0.864878 0.641802 0.025916
0.898434 0.642211 0.026229
0.931066 0.642619 0.026542
0.962705 0.643026 0.026853
0.993283 0.643431 0.027164
1.000000 0.643835 0.027474
1.000000 0.644239 0.027784
1.000000 0.644310 0.027839
1.000000 0.644310 0.027839
1.000000 0.644310 0.027839
1.000000 0.644310 0.027839
1.000000 0.644310 0.027839
1.000000 0.644310 0.027839
0.110349 0.669975 0.020335
0.147609 0.670449 0.020697
0.185218 0.670913 0.021051
0.223200 0.671370 0.021400
0.261525 0.671820 0.021744
0.300144 0.672264 0.022084
0.338992 0.672704 0.022421
0.378000 0.673141 0.022756
0.417097 0.673573 0.023087
0.456208 0.674003 0.023417
0.495258 0.674430 0.023745
0.534172 0.674854 0.024070
0.572875 0.675276 0.024395
0.611293 0.675696 0.024717
0.649353 0.676113 0.025038
0.686980 0.676529 0.025358
0.724102 0.676943 0.025677
0.760646 0.677355 0.025995
0.796542 0.677765 0.026311
0.831719 0.678174 0.026627
0.866106 0.678582 0.026942
0.899634 0.678988 0.027255
0.932235 0.679393 0.027568
0.963839 0.679797 0.027880
0.994381 0.680199 0.028192
1.000000 0.680600 0.028502
1.000000 0.681000 0.028812
1.000000 0.681071 0.028867
1.000000 0.681071 0.028867
1.000000 0.681071 0.028867
1.000000 0.681071 0.028867
1.000000 0.681071 0.028867
1.000000 0.681071 0.028867
0.111484 0.706429 0.021349
0.148782 0.706900 0.021712
0.186426 0.707359 0.022067
0.224438 0.707811 0.022416
0.262790 0.708257 0.022761
0.301431 0.708698 0.023101
0.340298 0.709134 0.023439
0.379321 0.709566 0.023774
0.418430 0.709995 0.024106
0.457548 0.710421 0.024436
0.496603 0.710843 0.024764
0.535519 0.711264 0.025090
0.574221 0.711681 0.025415
0.612635 0.712097 0.025738
0.650686 0.712511 0.026060
0.688303 0.712923 0.026381
0.725411 0.713332 0.026700
0.761938 0.713741 0.027018
0.797815 0.714147 0.027335
0.832969 0.714552 0.027651
0.867330 0.714956 0.027966
0.900830 0.715358 0.028280
0.933399 0.715759 0.028594
0.964970 0.716159 0.028906
0.995474 0.716557 0.029218
1.000000 0.716955 0.029529
1.000000 0.717351 0.029840
1.000000 0.717421 0.029895
1.000000 0.717421 0.029895
1.000000 0.717421 0.029895
1.000000 0.717421 0.029895
1.000000 0.717421 0.029895
1.000000 0.717421 0.029895
0.112617 0.742424 0.022362
0.149955 0.742889 0.022726
0.187633 0.743344 0.023081
0.225675 0.743791 0.023431
0.264053 0.744231 0.023776
0.302716 0.744667 0.024117
0.341601 0.745098 0.024456
0.380640 0.745525 0.024791
0.419759 0.745949 0.025124
0.458886 0.746370 0.025454
0.497946 0.746788 0.025783
0.536863 0.747203 0.026110
0.575564 0.747616 0.026435
0.613973 0.748027 0.026758
0.652016 0.748436 0.027081
0.689622 0.748842 0.027402
0.726716 0.749248 0.027721
0.763227 0.749651 0.028040
0.799083 0.750053 0.028358
0.834215 0.750453 0.028674
0.868551 0.750852 0.028990
0.902022 0.751249 0.029304
0.934560 0.751646 0.029618
0.966097 0.752040 0.029931
0.996564 0.752434 0.030244
1.000000 0.752827 0.030555
1.000000 0.753218 0.030866
1.000000 0.753288 0.030921
1.000000 0.753288 0.030921
1.000000 0.753288 0.030921
1.000000 0.753288 0.030921
1.000000 0.753288 0.030921
1.000000 0.753288 0.030921
0.113749 0.777887 0.023375
0.151125 0.778345 0.023739
0.188838 0.778794 0.024095
0.226909 0.779235 0.024445
0.265313 0.779669 0.024791
0.303998 0.780099 0.025133
0.342902 0.780524 0.025471
0.381955 0.780945 0.025807
0.421086 0.781363 0.026140
0.460221 0.781778 0.026472
0.499285 0.782190 0.026801
0.538204 0.782600 0.027128
0.576903 0.783007 0.027454
0.615307 0.783412 0.027778
0.653343 0.783815 0.028101
0.690937 0.784216 0.028422
0.728017 0.784615 0.028742
0.764512 0.785013 0.029061
0.800348 0.785409 0.029379
0.835457 0.785804 0.029696
0.869767 0.786197 0.030013
0.903210 0.786589 0.030328
0.935717 0.786979 0.030642
0.967219 0.787369 0.030956
0.997650 0.787757 0.031268
1.000000 0.788144 0.031580
1.000000 0.788529 0.031892
1.000000 0.788598 0.031947
1.000000 0.788598 0.031947
1.000000 0.788598 0.031947
1.000000 0.788598 0.031947
1.000000 0.788598 0.031947
1.000000 0.788598 0.031947
0.114879 0.812746 0.024387
0.152294 0.813197 0.024751
0.190041 0.813638 0.025108
0.228142 0.814072 0.025459
0.266572 0.814499 0.025805
0.305278 0.814922 0.026147
0.344200 0.815340 0.026486
0.383268 0.815754 0.026823
0.422410 0.816165 0.027157
0.461553 0.816573 0.027488
0.500622 0.816979 0.027818
0.539542 0.817382 0.028146
0.578239 0.817782 0.028472
0.616638 0.818181 0.028796
0.654666 0.818577 0.029120
0.692250 0.818972 0.029442
0.729316 0.819364 0.029762
0.765793 0.819755 0.030082
0.801609 0.820145 0.030400
0.836695 0.820533 0.030718
0.870980 0.820920 0.031035
0.904394 0.821305 0.031350
0.936870 0.821689 0.031665
0.968338 0.822072 0.031979
0.998732 0.822453 0.032292
1.000000 0.822834 0.032605
1.000000 0.823213 0.032917
1.000000 0.823281 0.032972
1.000000 0.823281 0.032972
1.000000 0.823281 0.032972
1.000000 0.823281 0.032972
1.000000 0.823281 0.032972
1.000000 0.823281 0.032972
0.116009 0.846929 0.025398
0.153462 0.847371 0.025763
0.191242 0.847804 0.026120
0.229373 0.848230 0.026472
0.267828 0.848649 0.026818
0.306557 0.849064 0.027161
0.345496 0.849474 0.027501
0.384579 0.849881 0.027838
0.423732 0.850284 0.028172
0.462883 0.850685 0.028504
0.501956 0.851083 0.028834
0.540877 0.851478 0.029163
0.579572 0.851871 0.029489
0.617967 0.852262 0.029814
0.655986 0.852651 0.030138
0.693559 0.853038 0.030461
0.730611 0.853423 0.030782
0.767071 0.853807 0.031102
0.802867 0.854189 0.031421
0.837930 0.854569 0.031739
0.872189 0.854948 0.032056
0.905575 0.855326 0.032372
0.938019 0.855703 0.032687
0.969453 0.856078 0.033002
0.999810 0.856453 0.033316
1.000000 0.856826 0.033629
1.000000 0.857198 0.033941
1.000000 0.857264 0.033996
1.000000 0.857264 0.033996
1.000000 0.857264 0.033996
1.000000 0.857264 0.033996
1.000000 0.857264 0.033996
1.000000 0.857264 0.033996
0.117137 0.880365 0.026409
0.154629 0.880798 0.026775
0.192442 0.881222 0.027132
0.230603 0.881639 0.027484
0.269083 0.882049 0.027831
0.307833 0.882455 0.028175
0.346790 0.882857 0.028515
0.385887 0.883255 0.028852
0.425052 0.883649 0.029187
0.464210 0.884041 0.029520
0.503287 0.884430 0.029850
0.542210 0.884817 0.030179
0.580903 0.885201 0.030506
0.619292 0.885584 0.030832
0.657303 0.885964 0.031156
0.694865 0.886343 0.031479
0.731902 0.886720 0.031801
0.768345 0.887095 0.032121
0.804122 0.887469 0.032441
0.839162 0.887841 0.032759
0.873395 0.888212 0.033077
0.906753 0.888582 0.033393
0.939165 0.888950 0.033709
0.970565 0.889317 0.034024
1.000000 0.889683 0.034338
1.000000 0.890048 0.034652
1.000000 0.890412 0.034964
1.000000 0.890477 0.035020
1.000000 0.890477 0.035020
1.000000 0.890477 0.035020
1.000000 0.890477 0.035020
1.000000 0.890477 0.035020
1.000000 0.890477 0.035020
0.118264 0.912984 0.027419
0.155794 0.913407 0.027785
0.193641 0.913821 0.028144
0.231830 0.914227 0.028496
0.270336 0.914628 0.028844
0.309107 0.915024 0.029188
0.348083 0.915416 0.029529
0.387194 0.915804 0.029866
0.426369 0.916189 0.030202
0.465534 0.916572 0.030535
0.504616 0.916951 0.030866
0.543540 0.917329 0.031195
0.582231 0.917704 0.031523
0.620614 0.918077 0.031849
0.658618 0.918448 0.032174
0.696167 0.918817 0.032497
0.733191 0.919185 0.032819
0.769617 0.919551 0.033140
0.805373 0.919916 0.033460
0.840390 0.920279 0.033779
0.874598 0.920641 0.034097
0.907926 0.921001 0.034414
0.940308 0.921361 0.034731
0.971673 0.921719 0.035046
1.000000 0.922076 0.035361
1.000000 0.922431 0.035675
1.000000 0.922786 0.035988
1.000000 0.922849 0.036043
1.000000 0.922849 0.036043
1.000000 0.922849 0.036043
1.000000 0.922849 0.036043
1.000000 0.922849 0.036043
1.000000 0.922849 0.036043
0.119391 0.944715 0.028429
0.156958 0.945127 0.028796
0.194839 0.945530 0.029155
0.233057 0.945925 0.029508
0.271587 0.946315 0.029856
0.310380 0.946700 0.030201
0.349373 0.947082 0.030542
0.388498 0.947459 0.030880
0.427684 0.947834 0.031216
0.466857 0.948206 0.031550
0.505943 0.948575 0.031881
0.544867 0.948942 0.032211
0.583556 0.949307 0.032539
0.621934 0.949670 0.032866
0.659929 0.950031 0.033191
0.697468 0.950390 0.033515
0.734477 0.950748 0.033837
0.770885 0.951104 0.034159
0.806622 0.951459 0.034479
0.841616 0.951812 0.034799
0.875797 0.952164 0.035117
0.909097 0.952514 0.035435
0.941447 0.952863 0.035752
0.972778 0.953212 0.036067
1.000000 0.953559 0.036382
1.000000 0.953905 0.036697
1.000000 0.954249 0.037010
1.000000 0.954311 0.037066
