cinelut/luts/asteroid-city.cube
# CineLUT — Asteroid City (2023)
# Gerado por generate_luts.py
LUT_3D_SIZE 9
0.089361 0.021673 0.001659
0.238012 0.023085 0.003025
0.392232 0.024431 0.004328
0.547678 0.025741 0.005596
0.699515 0.027026 0.006841
0.843025 0.028293 0.008068
0.973664 0.029546 0.009282
1.000000 0.030223 0.009937
1.000000 0.030223 0.009937
0.094167 0.152884 0.005921
0.243416 0.154522 0.007298
0.397963 0.156082 0.008610
0.553499 0.157599 0.009887
0.705209 0.159086 0.011141
0.848385 0.160551 0.012377
0.978491 0.161999 0.013599
1.000000 0.162781 0.014259
1.000000 0.162781 0.014259
0.098877 0.296414 0.010106
0.248701 0.298200 0.011492
0.403557 0.299899 0.012814
0.559174 0.301551 0.014100
0.710751 0.303169 0.015362
0.853593 0.304763 0.016607
0.983172 0.306336 0.017837
1.000000 0.307186 0.018502
1.000000 0.307186 0.018502
0.103501 0.445711 0.014223
0.253877 0.447571 0.015619
0.409029 0.449341 0.016949
0.564716 0.451059 0.018244
0.716157 0.452743 0.019514
0.858666 0.454400 0.020767
0.987723 0.456036 0.022005
1.000000 0.456918 0.022675
1.000000 0.456918 0.022675
0.108075 0.595979 0.018303
0.258988 0.597845 0.019708
0.414422 0.599620 0.021047
0.570172 0.601343 0.022350
0.721472 0.603030 0.023629
0.863645 0.604690 0.024889
0.992180 0.606328 0.026136
1.000000 0.607211 0.026809
1.000000 0.607211 0.026809
0.112617 0.742424 0.022362
0.264053 0.744231 0.023776
0.419759 0.745949 0.025124
0.575564 0.747616 0.026435
0.726716 0.749248 0.027721
0.868551 0.750852 0.028990
0.996564 0.752434 0.030244
1.000000 0.753288 0.030921
1.000000 0.753288 0.030921
0.117137 0.880365 0.026409
0.269083 0.882049 0.027831
0.425052 0.883649 0.029187
0.580903 0.885201 0.030506
0.731902 0.886720 0.031801
0.873395 0.888212 0.033077
1.000000 0.889683 0.034338
1.000000 0.890477 0.035020
1.000000 0.890477 0.035020
0.121641 1.000000 0.030449
0.274086 1.000000 0.031880
0.430308 1.000000 0.033244
0.586199 1.000000 0.034571
0.737040 1.000000 0.035873
0.878187 1.000000 0.037156
1.000000 1.000000 0.038425
1.000000 1.000000 0.039111
1.000000 1.000000 0.039111
0.123847 1.000000 0.032430
0.276532 1.000000 0.033865
0.432875 1.000000 0.035233
0.588783 1.000000 0.036563
0.739545 1.000000 0.037869
0.880520 1.000000 0.039157
1.000000 1.000000 0.040429
1.000000 1.000000 0.041117
1.000000 1.000000 0.041117
0.089519 0.021817 0.039771
0.238190 0.023230 0.041221
0.392421 0.024576 0.042603
0.547870 0.025886 0.043948
0.699703 0.027172 0.045267
0.843202 0.028439 0.046568
0.973824 0.029692 0.047853
1.000000 0.030369 0.048548
1.000000 0.030369 0.048548
0.094326 0.153051 0.044292
0.243595 0.154690 0.045751
0.398152 0.156250 0.047142
0.553691 0.157767 0.048495
0.705397 0.159255 0.049823
0.848561 0.160720 0.051131
0.978649 0.162168 0.052425
1.000000 0.162950 0.053124
1.000000 0.162950 0.053124
0.099037 0.296597 0.048727
0.248879 0.298383 0.050195
0.403746 0.300082 0.051594
0.559366 0.301734 0.052955
0.710939 0.303353 0.054291
0.853769 0.304946 0.055607
0.983330 0.306520 0.056908
1.000000 0.307369 0.057611
1.000000 0.307369 0.057611
0.103661 0.445902 0.053085
0.254057 0.447762 0.054562
0.409218 0.449531 0.055969
0.564908 0.451250 0.057338
0.716344 0.452934 0.058681
0.858841 0.454591 0.060005
0.987880 0.456226 0.061313
1.000000 0.457109 0.062020
1.000000 0.457109 0.062020
0.108236 0.596170 0.057401
0.259168 0.598037 0.058886
0.414612 0.599811 0.060301
0.570364 0.601534 0.061678
0.721658 0.603222 0.063028
0.863819 0.604881 0.064359
0.992336 0.606519 0.065674
1.000000 0.607403 0.066385
1.000000 0.607403 0.066385
0.112779 0.742609 0.061690
0.264233 0.744416 0.063184
0.419949 0.746134 0.064606
0.575755 0.747801 0.065990
0.726902 0.749432 0.067348
0.868725 0.751037 0.068686
0.996719 0.752619 0.070009
1.000000 0.753472 0.070723
1.000000 0.753472 0.070723
0.117300 0.880538 0.065963
0.269264 0.882222 0.067464
0.425242 0.883822 0.068894
0.581094 0.885374 0.070286
0.732088 0.886892 0.071650
0.873569 0.888384 0.072995
1.000000 0.889855 0.074325
1.000000 0.890648 0.075043
1.000000 0.890648 0.075043
0.121805 1.000000 0.070225
0.274267 1.000000 0.071733
0.430498 1.000000 0.073171
0.586390 1.000000 0.074570
0.737226 1.000000 0.075941
0.878360 1.000000 0.077293
1.000000 1.000000 0.078629
1.000000 1.000000 0.079351
1.000000 1.000000 0.079351
0.124011 1.000000 0.072313
0.276714 1.000000 0.073826
0.433066 1.000000 0.075267
0.588974 1.000000 0.076669
0.739730 1.000000 0.078044
0.880693 1.000000 0.079399
1.000000 1.000000 0.080738
1.000000 1.000000 0.081462
1.000000 1.000000 0.081462
0.089865 0.022134 0.130360
0.238579 0.023547 0.131967
0.392833 0.024894 0.133497
0.548289 0.026205 0.134985
0.700114 0.027491 0.136444
0.843589 0.028759 0.137882
0.974172 0.030012 0.139302
1.000000 0.030690 0.140070
1.000000 0.030690 0.140070
0.094674 0.153418 0.135365
0.243985 0.155057 0.136979
0.398565 0.156618 0.138516
0.554110 0.158136 0.140011
0.705807 0.159624 0.141477
0.848946 0.161089 0.142921
0.978996 0.162537 0.144347
1.000000 0.163320 0.145118
1.000000 0.163320 0.145118
0.099386 0.296997 0.140267
0.249271 0.298783 0.141888
0.404160 0.300483 0.143431
0.559785 0.302135 0.144932
0.711348 0.303754 0.146404
0.854153 0.305348 0.147854
0.983675 0.306921 0.149287
1.000000 0.307771 0.150061
1.000000 0.307771 0.150061
0.104012 0.446319 0.145075
0.254449 0.448179 0.146703
0.409632 0.449948 0.148253
0.565327 0.451667 0.149760
0.716753 0.453351 0.151238
0.859224 0.455008 0.152694
0.988223 0.456644 0.154132
1.000000 0.457527 0.154909
1.000000 0.457527 0.154909
0.108589 0.596589 0.149830
0.259561 0.598455 0.151464
0.415027 0.600229 0.153020
0.570783 0.601952 0.154533
0.722066 0.603640 0.156017
0.864201 0.605299 0.157478
0.992678 0.606937 0.158922
1.000000 0.607820 0.159702
1.000000 0.607820 0.159702
0.113133 0.743015 0.154547
0.264627 0.744821 0.156187
0.420364 0.746538 0.157750
0.576174 0.748205 0.159269
0.727309 0.749836 0.160758
0.869105 0.751440 0.162225
0.997059 0.753022 0.163674
1.000000 0.753876 0.164457
1.000000 0.753876 0.164457
0.117655 0.880915 0.159239
0.269659 0.882599 0.160885
0.425657 0.884198 0.162453
0.581513 0.885750 0.163978
0.732495 0.887268 0.165473
0.873948 0.888760 0.166945
1.000000 0.890230 0.168400
1.000000 0.891023 0.169186
1.000000 0.891023 0.169186
0.122162 1.000000 0.163911
0.274663 1.000000 0.165564
0.430914 1.000000 0.167138
0.586809 1.000000 0.168668
0.737631 1.000000 0.170168
0.878738 1.000000 0.171646
1.000000 1.000000 0.173106
1.000000 1.000000 0.173894
1.000000 1.000000 0.173894
0.124369 1.000000 0.166198
0.277110 1.000000 0.167854
0.433482 1.000000 0.169430
0.589393 1.000000 0.170963
0.740136 1.000000 0.172466
0.881070 1.000000 0.173947
1.000000 1.000000 0.175409
1.000000 1.000000 0.176199
1.000000 1.000000 0.176199
0.090232 0.022470 0.235678
0.238992 0.023884 0.237411
0.393272 0.025232 0.239061
0.548735 0.026543 0.240665
0.700550 0.027830 0.242238
0.844000 0.029099 0.243786
0.974543 0.030353 0.245315
1.000000 0.031031 0.246141
1.000000 0.031031 0.246141
0.095043 0.153809 0.241075
0.244400 0.155448 0.242814
0.399005 0.157010 0.244469
0.554557 0.158528 0.246078
0.706242 0.160016 0.247655
0.849356 0.161482 0.249207
0.979365 0.162931 0.250741
1.000000 0.163713 0.251569
1.000000 0.163713 0.251569
0.099757 0.297423 0.246353
0.249687 0.299209 0.248096
0.404600 0.300909 0.249756
0.560231 0.302561 0.251370
0.711783 0.304181 0.252951
0.854562 0.305775 0.254508
0.984042 0.307349 0.256046
1.000000 0.308199 0.256876
1.000000 0.308199 0.256876
0.104385 0.446762 0.251523
0.254866 0.448622 0.253272
0.410073 0.450392 0.254936
0.565773 0.452111 0.256554
0.717187 0.453795 0.258139
0.859631 0.455452 0.259700
0.988588 0.457088 0.261242
1.000000 0.457971 0.262075
1.000000 0.457971 0.262075
0.108963 0.597033 0.256628
0.259980 0.598900 0.258381
0.415468 0.600674 0.260050
0.571229 0.602397 0.261671
0.722500 0.604084 0.263261
0.864607 0.605744 0.264826
0.993041 0.607381 0.266372
1.000000 0.608265 0.267207
1.000000 0.608265 0.267207
0.113510 0.743445 0.261687
0.265047 0.745252 0.263444
0.420806 0.746969 0.265117
0.576620 0.748635 0.266743
0.727742 0.750266 0.268336
0.869510 0.751870 0.269905
0.997420 0.753452 0.271455
1.000000 0.754305 0.272292
1.000000 0.754305 0.272292
0.118033 0.881317 0.266711
0.270079 0.883000 0.268472
0.426099 0.884599 0.270149
0.581959 0.886150 0.271779
0.732927 0.887668 0.273377
0.874352 0.889159 0.274950
1.000000 0.890629 0.276503
1.000000 0.891422 0.277342
1.000000 0.891422 0.277342
0.122542 1.000000 0.271708
0.275085 1.000000 0.273474
0.431356 1.000000 0.275155
0.587254 1.000000 0.276789
0.738063 1.000000 0.278390
0.879140 1.000000 0.279966
1.000000 1.000000 0.281523
1.000000 1.000000 0.282364
1.000000 1.000000 0.282364
0.124749 1.000000 0.274152
0.277532 1.000000 0.275920
0.433924 1.000000 0.277603
0.589838 1.000000 0.279238
0.740567 1.000000 0.280841
0.881472 1.000000 0.282420
1.000000 1.000000 0.283978
1.000000 1.000000 0.284820
1.000000 1.000000 0.284820
0.090613 0.022819 0.351834
0.239421 0.024234 0.353656
0.393727 0.025582 0.355389
0.549198 0.026894 0.357073
0.701002 0.028182 0.358724
0.844426 0.029451 0.360348
0.974926 0.030706 0.361952
1.000000 0.031384 0.362818
1.000000 0.031384 0.362818
0.095426 0.154214 0.357504
0.244830 0.155854 0.359328
0.399460 0.157415 0.361065
0.555019 0.158934 0.362752
0.706694 0.160423 0.364405
0.849781 0.161890 0.366032
0.979747 0.163338 0.367638
1.000000 0.164121 0.368506
1.000000 0.164121 0.368506
0.100142 0.297864 0.363040
0.250118 0.299650 0.364868
0.405056 0.301351 0.366607
0.560693 0.303003 0.368297
0.712234 0.304623 0.369952
0.854985 0.306217 0.371582
0.984422 0.307791 0.373191
1.000000 0.308642 0.374060
1.000000 0.308642 0.374060
0.104772 0.447221 0.368458
0.255299 0.449082 0.370288
0.410529 0.450852 0.372030
0.566235 0.452571 0.373722
0.717637 0.454255 0.375380
0.860053 0.455912 0.377012
0.988966 0.457548 0.378624
1.000000 0.458431 0.379493
1.000000 0.458431 0.379493
0.109352 0.597494 0.373800
0.260413 0.599360 0.375633
0.415925 0.601135 0.377377
0.571691 0.602858 0.379072
0.722949 0.604545 0.380732
0.865028 0.606204 0.382367
0.993417 0.607841 0.383980
1.000000 0.608725 0.384851
1.000000 0.608725 0.384851
0.113900 0.743892 0.379088
0.265481 0.745698 0.380924
0.421263 0.747414 0.382670
0.577081 0.749081 0.384367
0.728191 0.750711 0.386030
0.869929 0.752315 0.387666
0.997794 0.753896 0.389282
1.000000 0.754749 0.390154
1.000000 0.754749 0.390154
0.118425 0.881733 0.384334
0.270515 0.883415 0.386172
0.426557 0.885014 0.387921
0.582420 0.886565 0.389620
0.733375 0.888082 0.391284
0.874769 0.889573 0.392923
1.000000 0.891042 0.394540
1.000000 0.891835 0.395414
1.000000 0.891835 0.395414
0.122935 1.000000 0.389545
0.275521 1.000000 0.391386
0.431814 1.000000 0.393137
0.587715 1.000000 0.394838
0.738510 1.000000 0.396505
0.879557 1.000000 0.398145
1.000000 1.000000 0.399765
1.000000 1.000000 0.400639
1.000000 1.000000 0.400639
0.125144 1.000000 0.392092
0.277969 1.000000 0.393933
0.434383 1.000000 0.395686
0.590299 1.000000 0.397388
0.741013 1.000000 0.399056
0.881888 1.000000 0.400697
1.000000 1.000000 0.402317
1.000000 1.000000 0.403192
1.000000 1.000000 0.403192
0.091004 0.023177 0.475419
0.239861 0.024593 0.477285
0.394194 0.025942 0.479061
0.549671 0.027255 0.480785
0.701466 0.028543 0.482475
0.844862 0.029813 0.484137
0.975320 0.031068 0.485777
1.000000 0.031747 0.486663
1.000000 0.031747 0.486663
0.095819 0.154629 0.481226
0.245271 0.156269 0.483093
0.399927 0.157831 0.484870
0.555493 0.159350 0.486595
0.707157 0.160840 0.488285
0.850216 0.162307 0.489948
0.980138 0.163757 0.491590
1.000000 0.164540 0.492475
1.000000 0.164540 0.492475
0.100537 0.298316 0.486890
0.250560 0.300103 0.488759
0.405524 0.301804 0.490536
0.561167 0.303457 0.492262
0.712696 0.305076 0.493953
0.855419 0.306671 0.495616
0.984811 0.308246 0.497258
1.000000 0.309096 0.498144
1.000000 0.309096 0.498144
0.105169 0.447692 0.492427
0.255742 0.449553 0.494296
0.410998 0.451323 0.496074
0.566709 0.453042 0.497800
0.718099 0.454726 0.499492
0.860486 0.456384 0.501156
0.989353 0.458020 0.502798
1.000000 0.458903 0.503685
1.000000 0.458903 0.503685
0.109751 0.597967 0.497880
0.260858 0.599833 0.499749
0.416393 0.601607 0.501528
0.572164 0.603330 0.503255
0.723410 0.605017 0.504947
0.865459 0.606676 0.506612
0.993802 0.608314 0.508254
1.000000 0.609197 0.509141
1.000000 0.609197 0.509141
0.114300 0.744349 0.503271
0.265927 0.746155 0.505142
0.421732 0.747871 0.506921
0.577555 0.749537 0.508648
0.728651 0.751168 0.510341
0.870359 0.752771 0.512006
0.998178 0.754352 0.513649
1.000000 0.755205 0.514536
1.000000 0.755205 0.514536
0.118828 0.882159 0.508614
0.270962 0.883841 0.510485
0.427026 0.885439 0.512265
0.582893 0.886989 0.513993
0.733834 0.888506 0.515685
0.875198 0.889996 0.517351
1.000000 0.891466 0.518994
1.000000 0.892258 0.519881
1.000000 0.892258 0.519881
0.123339 1.000000 0.513917
0.275969 1.000000 0.515788
0.432284 1.000000 0.517568
0.588188 1.000000 0.519296
0.738968 1.000000 0.520989
0.879983 1.000000 0.522655
1.000000 1.000000 0.524298
1.000000 1.000000 0.525186
1.000000 1.000000 0.525186
0.125548 1.000000 0.516506
0.278418 1.000000 0.518377
0.434853 1.000000 0.520157
0.590772 1.000000 0.521886
0.741471 1.000000 0.523579
0.882314 1.000000 0.525244
1.000000 1.000000 0.526888
1.000000 1.000000 0.527775
1.000000 1.000000 0.527775
0.091403 0.023542 0.602933
0.240309 0.024958 0.604798
0.394669 0.026308 0.606572
0.550155 0.027622 0.608293
0.701939 0.028911 0.609979
0.845307 0.030181 0.611638
0.975721 0.031438 0.613274
1.000000 0.032117 0.614157
1.000000 0.032117 0.614157
0.096220 0.155052 0.608733
0.245720 0.156693 0.610597
0.400403 0.158256 0.612369
0.555976 0.159775 0.614090
0.707629 0.161265 0.615775
0.850660 0.162733 0.617432
0.980537 0.164183 0.619067
1.000000 0.164966 0.619949
1.000000 0.164966 0.619949
0.100940 0.298777 0.614384
0.251011 0.300565 0.616246
0.406000 0.302266 0.618017
0.561650 0.303919 0.619737
0.713167 0.305539 0.621420
0.855861 0.307134 0.623076
0.985208 0.308709 0.624710
1.000000 0.309559 0.625592
1.000000 0.309559 0.625592
0.105573 0.448173 0.619901
0.256194 0.450033 0.621762
0.411475 0.451803 0.623531
0.567192 0.453523 0.625250
0.718569 0.455207 0.626932
0.860926 0.456865 0.628587
0.989748 0.458500 0.630219
1.000000 0.459384 0.631100
1.000000 0.459384 0.631100
0.110157 0.598449 0.625328
0.261311 0.600314 0.627188
0.416871 0.602089 0.628956
0.572647 0.603811 0.630673
0.723880 0.605498 0.632354
0.865898 0.607158 0.634008
0.994195 0.608795 0.635639
1.000000 0.609678 0.636519
1.000000 0.609678 0.636519
0.114709 0.744815 0.630689
0.266382 0.746621 0.632548
0.422210 0.748337 0.634314
0.578037 0.750003 0.636030
0.729120 0.751633 0.637709
0.870797 0.753236 0.639361
0.998568 0.754817 0.640991
1.000000 0.755669 0.641871
1.000000 0.755669 0.641871
0.119238 0.882593 0.635996
0.271417 0.884275 0.637853
0.427505 0.885873 0.639618
0.583376 0.887422 0.641332
0.734302 0.888938 0.643010
0.875634 0.890429 0.644661
1.000000 0.891897 0.646289
1.000000 0.892689 0.647167
1.000000 0.892689 0.647167
0.123751 1.000000 0.641257
0.276426 1.000000 0.643112
0.432764 1.000000 0.644876
0.588670 1.000000 0.646588
0.739436 1.000000 0.648265
0.880419 1.000000 0.649914
1.000000 1.000000 0.651541
1.000000 1.000000 0.652418
1.000000 1.000000 0.652418
0.125961 1.000000 0.643824
0.278875 1.000000 0.645678
0.435332 1.000000 0.647441
0.591254 1.000000 0.649152
0.741938 1.000000 0.650828
0.882748 1.000000 0.652476
1.000000 1.000000 0.654102
1.000000 1.000000 0.654980
1.000000 1.000000 0.654980
0.091808 0.023913 0.730705
0.240765 0.025330 0.732519
0.395152 0.026681 0.734244
0.550645 0.027995 0.735918
0.702419 0.029285 0.737556
0.845759 0.030556 0.739167
0.976128 0.031813 0.740756
1.000000 0.032493 0.741613
1.000000 0.032493 0.741613
0.096627 0.155482 0.736345
0.246177 0.157124 0.738156
0.400887 0.158687 0.739877
0.556466 0.160207 0.741548
0.708108 0.161698 0.743183
0.851110 0.163166 0.744791
0.980942 0.164616 0.746377
1.000000 0.165400 0.747232
1.000000 0.165400 0.747232
0.101349 0.299246 0.741833
0.251469 0.301034 0.743641
0.406485 0.302735 0.745359
0.562140 0.304388 0.747026
0.713646 0.306009 0.748658
0.856310 0.307604 0.750263
0.985610 0.309179 0.751845
1.000000 0.310030 0.752699
1.000000 0.310030 0.752699
0.105985 0.448661 0.747185
0.256654 0.450521 0.748989
0.411960 0.452292 0.750704
0.567682 0.454011 0.752368
0.719047 0.455696 0.753997
0.861374 0.457353 0.755598
0.990148 0.458989 0.757178
1.000000 0.459872 0.758030
1.000000 0.459872 0.758030
0.110570 0.598938 0.752444
0.261772 0.600804 0.754245
0.417357 0.602578 0.755956
0.573137 0.604301 0.757617
0.724357 0.605987 0.759242
0.866345 0.607647 0.760841
0.994594 0.609284 0.762417
1.000000 0.610167 0.763267
1.000000 0.610167 0.763267
0.115124 0.745289 0.757632
0.266843 0.747094 0.759429
0.422696 0.748810 0.761137
0.578528 0.750475 0.762795
0.729596 0.752105 0.764417
0.871242 0.753708 0.766012
0.998965 0.755289 0.767585
1.000000 0.756141 0.768434
1.000000 0.756141 0.768434
0.119655 0.883035 0.762762
0.271880 0.884716 0.764556
0.427992 0.886313 0.766260
0.583866 0.887862 0.767914
0.734778 0.889378 0.769533
0.876078 0.890867 0.771125
1.000000 0.892336 0.772695
1.000000 0.893128 0.773542
1.000000 0.893128 0.773542
0.124170 1.000000 0.767842
0.276890 1.000000 0.769632
0.433250 1.000000 0.771333
0.589160 1.000000 0.772983
0.739910 1.000000 0.774599
0.880861 1.000000 0.776187
1.000000 1.000000 0.777754
1.000000 1.000000 0.778599
1.000000 1.000000 0.778599
0.126381 1.000000 0.770318
0.279340 1.000000 0.772106
0.435819 1.000000 0.773805
0.591744 1.000000 0.775454
0.742412 1.000000 0.777068
0.883190 1.000000 0.778655
1.000000 1.000000 0.780220
1.000000 1.000000 0.781064
1.000000 1.000000 0.781064
0.092219 0.024290 0.854880
0.241227 0.025708 0.856593
0.395642 0.027059 0.858220
0.551143 0.028374 0.859799
0.702905 0.029665 0.861343
0.846217 0.030937 0.862861
0.976540 0.032194 0.864358
1.000000 0.032874 0.865165
1.000000 0.032874 0.865165
0.097040 0.155918 0.860202
0.246641 0.157561 0.861909
0.401377 0.159124 0.863530
0.556964 0.160645 0.865104
0.708594 0.162136 0.866643
0.851567 0.163605 0.868156
0.981352 0.165056 0.869647
1.000000 0.165839 0.870452
1.000000 0.165839 0.870452
0.101764 0.299721 0.865372
0.251934 0.301509 0.867074
0.406976 0.303211 0.868690
0.562638 0.304864 0.870258
0.714131 0.306485 0.871792
0.856765 0.308081 0.873300
0.986018 0.309656 0.874786
1.000000 0.310507 0.875588
1.000000 0.310507 0.875588
0.106402 0.449155 0.870407
0.257120 0.451016 0.872103
0.412451 0.452786 0.873714
0.568179 0.454506 0.875277
0.719531 0.456191 0.876806
0.861828 0.457848 0.878308
0.990554 0.459484 0.879790
1.000000 0.460368 0.880589
1.000000 0.460368 0.880589
0.110989 0.599434 0.875348
0.262239 0.601300 0.877038
0.417849 0.603074 0.878644
0.573634 0.604796 0.880202
0.724840 0.606483 0.881725
0.866797 0.608142 0.883223
0.994998 0.609779 0.884699
1.000000 0.610662 0.885496
1.000000 0.610662 0.885496
0.115544 0.745769 0.880216
0.267312 0.747574 0.881901
0.423189 0.749289 0.883501
0.579024 0.750954 0.885053
0.730078 0.752584 0.886572
0.871692 0.754186 0.888064
0.999367 0.755767 0.889536
1.000000 0.756619 0.890329
1.000000 0.756619 0.890329
0.120077 0.883482 0.885023
0.272350 0.885162 0.886702
0.428485 0.886759 0.888296
0.584362 0.888308 0.889843
0.735259 0.889823 0.891357
0.876527 0.891312 0.892844
1.000000 0.892780 0.894310
1.000000 0.893571 0.895101
1.000000 0.893571 0.895101
0.124594 1.000000 0.889776
0.277360 1.000000 0.891449
0.433744 1.000000 0.893038
0.589657 1.000000 0.894580
0.740391 1.000000 0.896088
0.881308 1.000000 0.897571
1.000000 1.000000 0.899032
1.000000 1.000000 0.899820
1.000000 1.000000 0.899820
0.126806 1.000000 0.892090
0.279811 1.000000 0.893761
0.436313 1.000000 0.895347
0.592240 1.000000 0.896886
0.742893 1.000000 0.898392
0.883637 1.000000 0.899872
1.000000 1.000000 0.901330
1.000000 1.000000 0.902117
1.000000 1.000000 0.902117
