cinelut/luts/asteroid-city.cube
# CineLUT — Asteroid City (2023)
# Gerado por generate_luts.py
LUT_3D_SIZE 5
0.089361 0.021673 0.001659
0.392232 0.024431 0.004328
0.699515 0.027026 0.006841
0.973664 0.029546 0.009282
1.000000 0.030223 0.009937
0.098877 0.296414 0.010106
0.403557 0.299899 0.012814
0.710751 0.303169 0.015362
0.983172 0.306336 0.017837
1.000000 0.307186 0.018502
0.108075 0.595979 0.018303
0.414422 0.599620 0.021047
0.721472 0.603030 0.023629
0.992180 0.606328 0.026136
1.000000 0.607211 0.026809
0.117137 0.880365 0.026409
0.425052 0.883649 0.029187
0.731902 0.886720 0.031801
1.000000 0.889683 0.034338
1.000000 0.890477 0.035020
0.123847 1.000000 0.032430
0.432875 1.000000 0.035233
0.739545 1.000000 0.037869
1.000000 1.000000 0.040429
1.000000 1.000000 0.041117
0.089865 0.022134 0.130360
0.392833 0.024894 0.133497
0.700114 0.027491 0.136444
0.974172 0.030012 0.139302
1.000000 0.030690 0.140070
0.099386 0.296997 0.140267
0.404160 0.300483 0.143431
0.711348 0.303754 0.146404
0.983675 0.306921 0.149287
1.000000 0.307771 0.150061
0.108589 0.596589 0.149830
0.415027 0.600229 0.153020
0.722066 0.603640 0.156017
0.992678 0.606937 0.158922
1.000000 0.607820 0.159702
0.117655 0.880915 0.159239
0.425657 0.884198 0.162453
0.732495 0.887268 0.165473
1.000000 0.890230 0.168400
1.000000 0.891023 0.169186
0.124369 1.000000 0.166198
0.433482 1.000000 0.169430
0.740136 1.000000 0.172466
1.000000 1.000000 0.175409
1.000000 1.000000 0.176199
0.090613 0.022819 0.351834
0.393727 0.025582 0.355389
0.701002 0.028182 0.358724
0.974926 0.030706 0.361952
1.000000 0.031384 0.362818
0.100142 0.297864 0.363040
0.405056 0.301351 0.366607
0.712234 0.304623 0.369952
0.984422 0.307791 0.373191
1.000000 0.308642 0.374060
0.109352 0.597494 0.373800
0.415925 0.601135 0.377377
0.722949 0.604545 0.380732
0.993417 0.607841 0.383980
1.000000 0.608725 0.384851
0.118425 0.881733 0.384334
0.426557 0.885014 0.387921
0.733375 0.888082 0.391284
1.000000 0.891042 0.394540
1.000000 0.891835 0.395414
0.125144 1.000000 0.392092
0.434383 1.000000 0.395686
0.741013 1.000000 0.399056
1.000000 1.000000 0.402317
1.000000 1.000000 0.403192
0.091403 0.023542 0.602933
0.394669 0.026308 0.606572
0.701939 0.028911 0.609979
0.975721 0.031438 0.613274
1.000000 0.032117 0.614157
0.100940 0.298777 0.614384
0.406000 0.302266 0.618017
0.713167 0.305539 0.621420
0.985208 0.308709 0.624710
1.000000 0.309559 0.625592
0.110157 0.598449 0.625328
0.416871 0.602089 0.628956
0.723880 0.605498 0.632354
0.994195 0.608795 0.635639
1.000000 0.609678 0.636519
0.119238 0.882593 0.635996
0.427505 0.885873 0.639618
0.734302 0.888938 0.643010
1.000000 0.891897 0.646289
1.000000 0.892689 0.647167
0.125961 1.000000 0.643824
0.435332 1.000000 0.647441
0.741938 1.000000 0.650828
1.000000 1.000000 0.654102
1.000000 1.000000 0.654980
0.092219 0.024290 0.854880
0.395642 0.027059 0.858220
0.702905 0.029665 0.861343
0.976540 0.032194 0.864358
1.000000 0.032874 0.865165
0.101764 0.299721 0.865372
0.406976 0.303211 0.868690
0.714131 0.306485 0.871792
0.986018 0.309656 0.874786
1.000000 0.310507 0.875588
0.110989 0.599434 0.875348
0.417849 0.603074 0.878644
0.724840 0.606483 0.881725
0.994998 0.609779 0.884699
1.000000 0.610662 0.885496
0.120077 0.883482 0.885023
0.428485 0.886759 0.888296
0.735259 0.889823 0.891357
1.000000 0.892780 0.894310
1.000000 0.893571 0.895101
0.126806 1.000000 0.892090
0.436313 1.000000 0.895347
0.742893 1.000000 0.898392
1.000000 1.000000 0.901330
1.000000 1.000000 0.902117
