cinelut/luts/bottle-rocket.cube
# CineLUT — Bottle Rocket (1996)
# Gerado por generate_luts.py
LUT_3D_SIZE 9
0.030352 0.004905 0.001484
0.142117 0.008521 0.005078
0.260873 0.012006 0.008542
0.384291 0.015437 0.011952
0.509232 0.018837 0.015332
0.632530 0.022219 0.018694
0.751076 0.025588 0.022044
0.861835 0.028950 0.025387
0.898297 0.030128 0.026558
0.041200 0.103967 0.011822
0.154459 0.108113 0.015483
0.274207 0.112102 0.019011
0.398183 0.116020 0.022482
0.523272 0.119896 0.025923
0.646323 0.123743 0.029343
0.764242 0.127570 0.032751
0.874001 0.131381 0.036151
0.910024 0.132715 0.037343
0.052785 0.220704 0.022886
0.167561 0.225258 0.026615
0.288303 0.229632 0.030208
0.412814 0.233922 0.033743
0.538010 0.238159 0.037244
0.660756 0.242359 0.040725
0.777969 0.246529 0.044192
0.886629 0.250678 0.047650
0.922175 0.252129 0.048862
0.064557 0.346386 0.034153
0.180798 0.351195 0.037949
0.302482 0.355807 0.041604
0.427480 0.360325 0.045201
0.552733 0.364782 0.048762
0.675125 0.369194 0.052302
0.791583 0.373570 0.055826
0.899097 0.377918 0.059341
0.934151 0.379438 0.060572
0.076513 0.476903 0.045618
0.194164 0.481812 0.049479
0.316740 0.486515 0.053196
0.442174 0.491117 0.056851
0.567436 0.495652 0.060471
0.689425 0.500136 0.064067
0.805080 0.504580 0.067647
0.911401 0.508990 0.071217
0.945944 0.510530 0.072467
0.088646 0.608141 0.057276
0.207654 0.612998 0.061199
0.331070 0.617645 0.064975
0.456891 0.622187 0.068688
0.582112 0.626658 0.072364
0.703649 0.631075 0.076015
0.818454 0.635447 0.079649
0.923533 0.639780 0.083272
0.957549 0.641293 0.084541
0.100950 0.735989 0.069119
0.221262 0.740639 0.073103
0.345467 0.745084 0.076937
0.471625 0.749423 0.080706
0.596756 0.753689 0.084436
0.717793 0.757897 0.088141
0.831698 0.762058 0.091827
0.935488 0.766178 0.095501
0.968960 0.767615 0.096788
0.113419 0.856334 0.081144
0.234982 0.860625 0.085186
0.359925 0.864720 0.089076
0.486369 0.868712 0.092899
0.611362 0.872630 0.096681
0.731850 0.876491 0.100437
0.844808 0.880302 0.104175
0.947260 0.884071 0.107898
0.980172 0.885384 0.109202
0.126048 0.965065 0.093343
0.248809 0.968843 0.097442
0.374439 0.972441 0.101386
0.501120 0.975942 0.105261
0.625924 0.979372 0.109094
0.745814 0.982744 0.112900
0.857776 0.986067 0.116686
0.958843 0.989347 0.120457
0.991179 0.990487 0.121778
0.030999 0.005525 0.052561
0.142855 0.009145 0.056458
0.261672 0.012634 0.060211
0.385125 0.016069 0.063901
0.510076 0.019473 0.067555
0.633360 0.022858 0.071184
0.751870 0.026230 0.074797
0.862571 0.029596 0.078398
0.899006 0.030775 0.079660
0.041858 0.104678 0.063761
0.155205 0.108828 0.067717
0.275012 0.112819 0.071526
0.399019 0.116741 0.075270
0.524115 0.120619 0.078975
0.647151 0.124469 0.082656
0.765031 0.128298 0.086319
0.874728 0.132112 0.089970
0.910724 0.133447 0.091249
0.053453 0.221486 0.075704
0.168315 0.226042 0.079720
0.289112 0.230418 0.083585
0.413653 0.234710 0.087384
0.538853 0.238949 0.091143
0.661580 0.243150 0.094877
0.778751 0.247323 0.098591
0.887347 0.251473 0.102292
0.922866 0.252925 0.103588
0.065237 0.347212 0.087825
0.181559 0.352022 0.091899
0.303296 0.356635 0.095819
0.428320 0.361154 0.099671
0.553575 0.365612 0.103482
0.675945 0.370025 0.107265
0.792359 0.374402 0.111029
0.899806 0.378751 0.114779
0.934831 0.380271 0.116092
0.077203 0.477747 0.100118
0.194933 0.482656 0.104248
0.317558 0.487359 0.108220
0.443016 0.491961 0.112123
0.568277 0.496496 0.115984
0.690241 0.500981 0.119816
0.805849 0.505424 0.123628
0.912100 0.509834 0.127425
0.946613 0.511374 0.128754
0.089345 0.608976 0.112576
0.208430 0.613832 0.116760
0.331892 0.618478 0.120783
0.457734 0.623020 0.124736
0.582951 0.627490 0.128645
0.704461 0.631906 0.132524
0.819215 0.636277 0.136382
0.924222 0.640609 0.140224
0.958207 0.642121 0.141569
0.101659 0.736789 0.125194
0.222045 0.741438 0.129430
0.346293 0.745880 0.133503
0.472468 0.750218 0.137503
0.597593 0.754482 0.141458
0.718600 0.758688 0.145383
0.832452 0.762848 0.149285
0.936166 0.766966 0.153170
0.969608 0.768402 0.154530
0.114137 0.857073 0.137967
0.235771 0.861361 0.142253
0.360755 0.865453 0.146373
0.487214 0.869442 0.150418
0.612196 0.873358 0.154418
0.732652 0.877216 0.158386
0.845554 0.881025 0.162331
0.947928 0.884791 0.166258
0.980808 0.886103 0.167633
0.126775 0.965716 0.150888
0.249603 0.969491 0.155222
0.375271 0.973085 0.159387
0.501964 0.976582 0.163477
0.626756 0.980008 0.167519
0.746610 0.983377 0.171529
0.858514 0.986697 0.175515
0.959501 0.989972 0.179482
0.991803 0.991112 0.180871
0.031973 0.006458 0.136491
0.143966 0.010084 0.140771
0.262874 0.013579 0.144886
0.386379 0.017019 0.148926
0.511345 0.020428 0.152921
0.634608 0.023819 0.156884
0.753063 0.027197 0.160824
0.863675 0.030567 0.164747
0.900071 0.031749 0.166119
0.042848 0.105749 0.148772
0.156327 0.109903 0.153098
0.276221 0.113899 0.157257
0.400277 0.117824 0.161339
0.525384 0.121707 0.165375
0.648394 0.125561 0.169378
0.766215 0.129394 0.173357
0.875819 0.133212 0.177318
0.911775 0.134548 0.178704
0.054460 0.222662 0.161813
0.169449 0.227221 0.166186
0.290329 0.231600 0.170388
0.414913 0.235895 0.174513
0.540120 0.240137 0.178590
0.662818 0.244341 0.182633
0.779926 0.248516 0.186652
0.888425 0.252669 0.190651
0.923902 0.254121 0.192051
0.066259 0.348454 0.174992
0.182704 0.353266 0.179409
0.304520 0.357880 0.183653
0.429583 0.362401 0.187819
0.554841 0.366860 0.191935
0.677178 0.371274 0.196017
0.793524 0.375653 0.200073
0.900870 0.380003 0.204110
0.935851 0.381523 0.205522
0.078240 0.479015 0.188302
0.196089 0.483925 0.192762
0.318788 0.488628 0.197047
0.444281 0.493230 0.201251
0.569540 0.497765 0.205405
0.691467 0.502249 0.209524
0.807004 0.506693 0.213616
0.913149 0.511103 0.217687
0.947618 0.512642 0.219112
0.090398 0.610231 0.201739
0.209596 0.615086 0.206240
0.333128 0.619731 0.210563
0.459001 0.624271 0.214804
0.584212 0.628740 0.218994
0.705680 0.633154 0.223148
0.820359 0.637524 0.227274
0.925256 0.641855 0.231379
0.959196 0.643367 0.232814
0.102726 0.737991 0.215296
0.223221 0.742637 0.219836
0.347535 0.747077 0.224195
0.473736 0.751412 0.228472
0.598851 0.755673 0.232696
0.719812 0.759877 0.236883
0.833584 0.764033 0.241042
0.937185 0.768149 0.245178
0.970579 0.769584 0.246625
0.115218 0.858182 0.228968
0.236957 0.862467 0.233544
0.362001 0.866554 0.237939
0.488482 0.870539 0.242249
0.613450 0.874451 0.246505
0.733856 0.878305 0.250724
0.846674 0.882110 0.254913
0.948931 0.885872 0.259079
0.981762 0.887182 0.260536
0.127869 0.966693 0.242749
0.250798 0.970462 0.247360
0.376522 0.974051 0.251787
0.503233 0.977543 0.256129
0.628006 0.980963 0.260416
0.747807 0.984327 0.264664
0.859622 0.987641 0.268882
0.960487 0.990911 0.273077
0.992739 0.992049 0.274543
0.032981 0.007423 0.230497
0.145114 0.011056 0.235078
0.264116 0.014556 0.239476
0.387675 0.018003 0.243790
0.512656 0.021418 0.248050
0.635897 0.024813 0.252271
0.754295 0.028197 0.256464
0.864814 0.031573 0.260633
0.901170 0.032756 0.262092
0.043872 0.106856 0.243625
0.157488 0.111015 0.248239
0.277471 0.115015 0.252668
0.401576 0.118945 0.257012
0.526694 0.122832 0.261301
0.649679 0.126690 0.265551
0.767438 0.130528 0.269771
0.876946 0.134349 0.273967
0.912860 0.135687 0.275434
0.055501 0.223877 0.257516
0.170621 0.228440 0.262162
0.291586 0.232822 0.266622
0.416216 0.237120 0.270996
0.541429 0.241365 0.275313
0.664097 0.245572 0.279591
0.781139 0.249750 0.283838
0.889537 0.253905 0.288060
0.924971 0.255358 0.289537
0.067316 0.349738 0.271503
0.183889 0.354551 0.276180
0.305784 0.359167 0.280669
0.430888 0.363689 0.285070
0.556148 0.368150 0.289415
0.678451 0.372565 0.293719
0.794727 0.376946 0.297991
0.901968 0.381297 0.302238
0.936904 0.382818 0.303723
0.079314 0.480325 0.285581
0.197284 0.485235 0.290287
0.320060 0.489939 0.294804
0.445588 0.494541 0.299231
0.570845 0.499076 0.303601
0.692733 0.503560 0.307929
0.808195 0.508004 0.312225
0.914232 0.512413 0.316495
0.948654 0.513953 0.317988
0.091487 0.611527 0.299744
0.210802 0.616381 0.304478
0.334406 0.621024 0.309020
0.460309 0.625563 0.313471
0.585514 0.630031 0.317864
0.706940 0.634444 0.322215
0.821540 0.638812 0.326533
0.926324 0.643142 0.330824
0.960215 0.644653 0.332324
0.103829 0.739232 0.313987
0.224437 0.743875 0.318746
0.348818 0.748312 0.323312
0.475046 0.752644 0.327786
0.600150 0.756903 0.332200
0.721064 0.761104 0.336572
0.834753 0.765258 0.340910
0.938237 0.769370 0.345220
0.971581 0.770804 0.346727
0.116336 0.859327 0.328304
0.238182 0.863607 0.333086
0.363290 0.867691 0.337673
0.489793 0.871672 0.342168
0.614746 0.875579 0.346603
0.735100 0.879429 0.350993
0.847831 0.883229 0.355349
0.949966 0.886987 0.359677
0.982746 0.888296 0.361190
0.129001 0.967701 0.342689
0.252033 0.971464 0.347492
0.377815 0.975047 0.352099
0.504544 0.978533 0.356613
0.629297 0.981949 0.361065
0.749042 0.985307 0.365473
0.860766 0.988615 0.369846
0.961505 0.991880 0.374190
0.993704 0.993015 0.375708
0.034010 0.008410 0.331932
0.146287 0.012048 0.336720
0.265384 0.015555 0.341312
0.388996 0.019007 0.345812
0.513993 0.022428 0.350251
0.637212 0.025829 0.354646
0.755550 0.029219 0.359007
0.865975 0.032600 0.363339
0.902290 0.033785 0.364853
0.044918 0.107986 0.345641
0.158672 0.112150 0.350448
0.278747 0.116155 0.355059
0.402901 0.120090 0.359576
0.528030 0.123981 0.364032
0.650988 0.127844 0.368443
0.768684 0.131685 0.372819
0.878093 0.135510 0.377166
0.913965 0.136850 0.378686
0.056564 0.225118 0.360100
0.171818 0.229685 0.364926
0.292870 0.234069 0.369555
0.417544 0.238370 0.374089
0.542764 0.242618 0.378561
0.665401 0.246828 0.382987
0.782375 0.251008 0.387377
0.890671 0.255166 0.391738
0.926060 0.256621 0.393262
0.068396 0.351048 0.374614
0.185098 0.355863 0.379458
0.307075 0.360480 0.384102
0.432220 0.365004 0.388651
0.557481 0.369466 0.393137
0.679748 0.373883 0.397576
0.795952 0.378264 0.401979
0.903087 0.382617 0.406353
0.937977 0.384138 0.407881
0.080410 0.481662 0.389178
0.198505 0.486572 0.394037
0.321357 0.491275 0.398695
0.446922 0.495878 0.403256
0.572176 0.500413 0.407755
0.694024 0.504897 0.412206
0.809410 0.509341 0.416620
0.915335 0.513750 0.421004
0.949710 0.515290 0.422535
0.092598 0.612849 0.403785
0.212034 0.617701 0.408657
0.335710 0.622343 0.413327
0.461645 0.626881 0.417900
0.586842 0.631347 0.422409
0.708223 0.635759 0.426870
0.822743 0.640125 0.431294
0.927411 0.644453 0.435686
0.961253 0.645964 0.437221
0.104956 0.740497 0.418430
0.225679 0.745138 0.423314
0.350127 0.749572 0.427994
0.476383 0.753901 0.432576
0.601474 0.758156 0.437094
0.722340 0.762355 0.441563
0.835944 0.766506 0.445994
0.939307 0.770615 0.450394
0.972601 0.772048 0.451930
0.117478 0.860494 0.433107
0.239434 0.864769 0.438000
0.364604 0.868849 0.442689
0.491130 0.872825 0.447279
0.616067 0.876729 0.451804
0.736367 0.880574 0.456279
0.849009 0.884370 0.460716
0.951019 0.888123 0.465121
0.983747 0.889431 0.466659
0.130157 0.968728 0.447811
0.253293 0.972485 0.452711
0.379134 0.976062 0.457407
0.505881 0.979542 0.462002
0.630613 0.982952 0.466532
0.750301 0.986304 0.471013
0.861931 0.989607 0.475453
0.962541 0.992866 0.479861
0.994687 0.993999 0.481401
0.035056 0.009412 0.438348
0.147477 0.013057 0.443243
0.266671 0.016571 0.447935
0.390338 0.020028 0.452527
0.515349 0.023455 0.457054
0.638544 0.026862 0.461531
0.756823 0.030257 0.465970
0.867152 0.033643 0.470376
0.903424 0.034830 0.471915
0.045981 0.109134 0.452353
0.159875 0.113303 0.457255
0.280042 0.117313 0.461952
0.404246 0.121252 0.466549
0.529385 0.125148 0.471080
0.652316 0.129015 0.475562
0.769948 0.132860 0.480003
0.879257 0.136690 0.484412
0.915084 0.138030 0.485952
0.057644 0.226378 0.467082
0.173034 0.230948 0.471989
0.294173 0.235336 0.476690
0.418892 0.239640 0.481291
0.544118 0.243890 0.485825
0.666723 0.248103 0.490309
0.783628 0.252286 0.494752
0.891819 0.256447 0.499162
0.927163 0.257902 0.500702
0.069494 0.352377 0.481824
0.186325 0.357193 0.486734
0.308385 0.361813 0.491437
0.433570 0.366338 0.496040
0.558833 0.370801 0.500575
0.681064 0.375220 0.505059
0.797195 0.379603 0.509503
0.904220 0.383957 0.513912
0.939064 0.385478 0.515452
0.081523 0.483018 0.496573
0.199744 0.487928 0.501484
0.322674 0.492632 0.506188
0.448275 0.497234 0.510791
0.573526 0.501769 0.515325
0.695333 0.506254 0.519808
0.810641 0.510697 0.524250
0.916453 0.515106 0.528657
0.950780 0.516646 0.530196
0.093728 0.614190 0.511324
0.213283 0.619040 0.516234
0.337033 0.623681 0.520937
0.462999 0.628217 0.525537
0.588189 0.632682 0.530069
0.709525 0.637092 0.534549
0.823962 0.641457 0.538987
0.928512 0.645784 0.543390
0.962305 0.647294 0.544928
0.106101 0.741780 0.526070
0.226939 0.746417 0.530977
0.351456 0.750848 0.535677
0.477738 0.755175 0.540273
0.602818 0.759427 0.544801
0.723633 0.763623 0.549276
0.837151 0.767771 0.553709
0.940392 0.771877 0.558107
0.973635 0.773309 0.559642
0.118637 0.861677 0.540806
0.240704 0.865947 0.545709
0.365938 0.870022 0.550403
0.492486 0.873994 0.554994
0.617406 0.877893 0.559515
0.737652 0.881734 0.563984
0.850203 0.885526 0.568410
0.952087 0.889275 0.572800
0.984762 0.890581 0.574333
0.131330 0.969768 0.555526
0.254573 0.973518 0.560422
0.380473 0.977090 0.565109
0.507237 0.980564 0.569693
0.631948 0.983968 0.574207
0.751577 0.987314 0.578667
0.863112 0.990611 0.583084
0.963591 0.993864 0.587465
0.995682 0.994996 0.588995
0.036115 0.010428 0.547272
0.148683 0.014080 0.552173
0.267973 0.017599 0.556864
0.391695 0.021063 0.561452
0.516720 0.024495 0.565971
0.639892 0.027908 0.570436
0.758109 0.031308 0.574858
0.868340 0.034700 0.579245
0.904570 0.035889 0.580776
0.047058 0.110297 0.561278
0.161093 0.114471 0.566171
0.281353 0.118485 0.570855
0.405606 0.122429 0.575435
0.530756 0.126329 0.579946
0.653658 0.130200 0.584403
0.771225 0.134050 0.588816
0.880431 0.137884 0.593193
0.916215 0.139226 0.594721
0.058738 0.227653 0.575966
0.174264 0.232226 0.580850
0.295491 0.236617 0.585524
0.420256 0.240924 0.590095
0.545487 0.245178 0.594595
0.668059 0.249393 0.599041
0.784895 0.253580 0.603443
0.892979 0.257743 0.607808
0.928278 0.259199 0.609332
0.070605 0.353721 0.590624
0.187568 0.358540 0.595497
0.309711 0.363161 0.600160
0.434937 0.367687 0.604719
0.560201 0.372152 0.609207
0.682394 0.376572 0.613640
0.798450 0.380956 0.618030
0.905365 0.385312 0.622382
0.940161 0.386834 0.623900
0.082651 0.484389 0.605246
0.200998 0.489300 0.610106
0.324006 0.494003 0.614756
0.449643 0.498606 0.619301
0.574890 0.503141 0.623775
0.696656 0.507625 0.628195
0.811885 0.512068 0.632570
0.917582 0.516477 0.636906
0.951859 0.518017 0.638420
0.094871 0.615545 0.619827
0.214548 0.620394 0.624672
0.338371 0.625033 0.629307
0.464369 0.629568 0.633837
0.589551 0.634031 0.638295
0.710840 0.638440 0.642699
0.825194 0.642803 0.647057
0.929625 0.647128 0.651377
0.963367 0.648638 0.652885
0.107260 0.743076 0.634361
0.228214 0.747710 0.639189
0.352800 0.752139 0.643807
0.479109 0.756462 0.648320
0.604176 0.760712 0.652761
0.724941 0.764904 0.657146
0.838371 0.769049 0.661487
0.941487 0.773153 0.665788
0.974678 0.774584 0.667289
0.119811 0.862871 0.648842
0.241989 0.867137 0.653650
0.367287 0.871207 0.658250
0.493858 0.875175 0.662744
0.618760 0.879070 0.667166
0.738951 0.882906 0.671532
0.851410 0.886694 0.675852
0.953165 0.890438 0.680134
0.985786 0.891742 0.681628
0.132518 0.970817 0.663264
0.255867 0.974562 0.668052
0.381827 0.978127 0.672630
0.508608 0.981596 0.677104
0.633298 0.984993 0.681505
0.752866 0.988334 0.685850
0.864305 0.991625 0.690149
0.964650 0.994872 0.694408
0.996687 0.996002 0.695894
0.037186 0.011455 0.656174
0.149900 0.015113 0.660972
0.269289 0.018639 0.665561
0.393064 0.022108 0.670045
0.518104 0.025547 0.674456
0.641251 0.028965 0.678812
0.759406 0.032371 0.683122
0.869538 0.035769 0.687392
0.905725 0.036960 0.688882
0.048146 0.111472 0.669875
0.162324 0.115651 0.674652
0.282676 0.119670 0.679221
0.406980 0.123618 0.683684
0.532139 0.127523 0.688075
0.655012 0.131398 0.692409
0.772512 0.135252 0.696698
0.881616 0.139090 0.700946
0.917354 0.140434 0.702429
0.059844 0.228941 0.684200
0.175507 0.233517 0.688954
0.296822 0.237912 0.693499
0.421633 0.242222 0.697939
0.546869 0.246478 0.702306
0.669407 0.250697 0.706617
0.786172 0.254886 0.710882
0.894149 0.259052 0.715106
0.929401 0.260509 0.716579
0.071728 0.355079 0.698453
0.188823 0.359899 0.703181
0.311049 0.364522 0.707701
0.436316 0.369050 0.712116
0.561580 0.373516 0.716458
0.683736 0.377938 0.720743
0.799717 0.382323 0.724982
0.906519 0.386680 0.729180
0.941267 0.388202 0.730644
0.083791 0.485773 0.712627
0.202264 0.490684 0.717328
0.325352 0.495388 0.721821
0.451024 0.499990 0.726209
0.576268 0.504525 0.730523
0.697991 0.509009 0.734781
0.813140 0.513453 0.738992
0.918719 0.517861 0.743162
0.952948 0.519401 0.744617
0.096027 0.616912 0.726716
0.215826 0.621760 0.731387
0.339723 0.626398 0.735852
0.465752 0.630931 0.740211
0.590925 0.635393 0.744497
0.712167 0.639800 0.748726
0.826437 0.644162 0.752907
0.930746 0.648485 0.757047
0.964437 0.649994 0.758491
0.108431 0.744384 0.740715
0.229502 0.749015 0.745355
0.354157 0.753440 0.749789
0.480493 0.757760 0.754117
0.605547 0.762007 0.758372
0.726259 0.766197 0.762570
0.839601 0.770338 0.766721
0.942591 0.774439 0.770830
0.975729 0.775869 0.772263
0.120997 0.864075 0.754618
0.243287 0.868337 0.759224
0.368650 0.872402 0.763626
0.495242 0.876366 0.767922
0.620127 0.880256 0.772144
0.740261 0.884088 0.776310
0.852626 0.887871 0.780427
0.954251 0.891610 0.784503
0.986818 0.892913 0.785924
0.133719 0.971875 0.768419
0.257175 0.975613 0.772990
0.383194 0.979172 0.777357
0.509993 0.982635 0.781619
0.634660 0.986027 0.785807
0.754167 0.989361 0.789938
0.865507 0.992647 0.794021
0.965718 0.995888 0.798062
0.997699 0.997015 0.799471
0.038267 0.012492 0.762452
0.151129 0.016157 0.767039
0.270615 0.019688 0.771421
0.394445 0.023164 0.775698
0.519499 0.026608 0.779901
0.642621 0.030033 0.784047
0.760713 0.033444 0.788145
0.870744 0.036848 0.792202
0.906887 0.038041 0.793616
0.049244 0.112657 0.775535
0.163565 0.116841 0.780088
0.284010 0.120865 0.784436
0.408364 0.124818 0.788679
0.533533 0.128727 0.792850
0.656377 0.132607 0.796962
0.773809 0.136465 0.801026
0.882808 0.140307 0.805048
0.918501 0.141652 0.806451
0.060960 0.230240 0.789170
0.176761 0.234820 0.793684
0.298165 0.239217 0.797995
0.423020 0.243530 0.802202
0.548261 0.247790 0.806335
0.670766 0.252011 0.810410
0.787458 0.256203 0.814437
0.895326 0.260372 0.818422
0.930531 0.261830 0.819811
0.072861 0.356448 0.802689
0.190089 0.361270 0.807162
0.312399 0.365894 0.811435
0.437706 0.370424 0.815603
0.562971 0.374892 0.819697
0.685087 0.379314 0.823733
0.800992 0.383701 0.827721
0.907680 0.388059 0.831667
0.942380 0.389582 0.833042
0.084941 0.487168 0.816084
0.203542 0.492079 0.820516
0.326708 0.496783 0.824748
0.452417 0.501386 0.828875
0.577656 0.505921 0.832929
0.699335 0.510405 0.836925
0.814403 0.514848 0.840872
0.919865 0.519256 0.844777
0.954043 0.520796 0.846138
0.097193 0.618290 0.829352
0.217115 0.623136 0.833740
0.341086 0.627773 0.837929
0.467146 0.632304 0.842014
0.592310 0.636765 0.846026
0.713504 0.641170 0.849979
0.827688 0.645530 0.853884
0.931874 0.649852 0.857746
0.965514 0.651360 0.859092
0.109613 0.745700 0.842486
0.230802 0.750328 0.846828
0.355526 0.754751 0.850972
0.481888 0.759068 0.855013
0.606928 0.763312 0.858981
0.727588 0.767498 0.862890
0.840839 0.771637 0.866751
0.943702 0.775734 0.870569
0.976787 0.777163 0.871899
0.122194 0.865288 0.855480
0.244597 0.869544 0.859775
0.370023 0.873605 0.863873
0.496637 0.877564 0.867867
0.621504 0.881450 0.871789
0.741581 0.885277 0.875653
0.853851 0.889056 0.879467
0.955344 0.892791 0.883239
0.987856 0.894092 0.884553
0.134930 0.972939 0.868329
0.258494 0.976671 0.872574
0.384572 0.980224 0.876623
0.511388 0.983681 0.880570
0.636032 0.987066 0.884445
0.755478 0.990395 0.888261
0.866718 0.993674 0.892027
0.966793 0.996909 0.895751
0.998717 0.998035 0.897048
