cinelut/luts/bottle-rocket.cube
# CineLUT — Bottle Rocket (1996)
# Gerado por generate_luts.py
LUT_3D_SIZE 33
0.030352 0.004905 0.001484
0.057668 0.005833 0.002407
0.085344 0.006740 0.003308
0.113489 0.007635 0.004198
0.142117 0.008521 0.005078
0.171207 0.009399 0.005951
0.200724 0.010273 0.006819
0.230628 0.011141 0.007682
0.260873 0.012006 0.008542
0.291410 0.012868 0.009398
0.322192 0.013726 0.010252
0.353169 0.014583 0.011103
0.384291 0.015437 0.011952
0.415508 0.016289 0.012800
0.446770 0.017140 0.013645
0.478028 0.017989 0.014489
0.509232 0.018837 0.015332
0.540333 0.019684 0.016174
0.571282 0.020530 0.017015
0.602030 0.021375 0.017855
0.632530 0.022219 0.018694
0.662731 0.023062 0.019532
0.692588 0.023905 0.020370
0.722052 0.024747 0.021207
0.751076 0.025588 0.022044
0.779613 0.026429 0.022880
0.807616 0.027270 0.023716
0.835039 0.028110 0.024551
0.861835 0.028950 0.025387
0.887959 0.029790 0.026222
0.898297 0.030128 0.026558
0.898297 0.030128 0.026558
0.898297 0.030128 0.026558
0.032639 0.024758 0.003662
0.060047 0.025718 0.004588
0.087807 0.026657 0.005493
0.116028 0.027583 0.006386
0.144725 0.028498 0.007270
0.173877 0.029407 0.008147
0.203451 0.030310 0.009018
0.233406 0.031208 0.009885
0.263695 0.032102 0.010747
0.294272 0.032992 0.011607
0.325087 0.033880 0.012464
0.356091 0.034765 0.013319
0.387235 0.035647 0.014171
0.418469 0.036528 0.015022
0.449743 0.037406 0.015870
0.481007 0.038283 0.016718
0.512212 0.039159 0.017564
0.543308 0.040033 0.018409
0.574248 0.040907 0.019253
0.604981 0.041779 0.020096
0.635460 0.042650 0.020938
0.665637 0.043520 0.021780
0.695464 0.044390 0.022621
0.724893 0.045259 0.023461
0.753878 0.046127 0.024301
0.782370 0.046994 0.025140
0.810323 0.047862 0.025979
0.837691 0.048728 0.026817
0.864428 0.049594 0.027656
0.890487 0.050460 0.028494
0.900798 0.050810 0.028832
0.900798 0.050810 0.028832
0.900798 0.050810 0.028832
0.035480 0.050238 0.006369
0.063001 0.051235 0.007299
0.090864 0.052211 0.008209
0.119179 0.053172 0.009106
0.147960 0.054123 0.009994
0.177190 0.055067 0.010875
0.206833 0.056004 0.011751
0.236850 0.056936 0.012622
0.267193 0.057864 0.013489
0.297817 0.058788 0.014353
0.328673 0.059709 0.015214
0.359711 0.060627 0.016072
0.390882 0.061543 0.016929
0.422136 0.062456 0.017783
0.453423 0.063367 0.018636
0.484693 0.064277 0.019487
0.515899 0.065185 0.020337
0.546989 0.066091 0.021186
0.577916 0.066996 0.022034
0.608631 0.067900 0.022881
0.639085 0.068803 0.023727
0.669230 0.069705 0.024573
0.699020 0.070606 0.025417
0.728405 0.071506 0.026261
0.757339 0.072405 0.027105
0.785775 0.073304 0.027948
0.813666 0.074202 0.028791
0.840966 0.075099 0.029633
0.867628 0.075996 0.030475
0.893607 0.076892 0.031317
0.903884 0.077254 0.031656
0.903884 0.077254 0.031656
0.903884 0.077254 0.031656
0.038334 0.076662 0.009089
0.065967 0.077695 0.010024
0.093932 0.078704 0.010938
0.122339 0.079699 0.011840
0.151205 0.080683 0.012732
0.180511 0.081659 0.013617
0.210223 0.082628 0.014497
0.240300 0.083593 0.015372
0.270698 0.084552 0.016243
0.301368 0.085508 0.017111
0.332264 0.086460 0.017976
0.363334 0.087409 0.018839
0.394531 0.088355 0.019699
0.425804 0.089299 0.020558
0.457104 0.090241 0.021414
0.488381 0.091181 0.022270
0.519585 0.092119 0.023124
0.550669 0.093055 0.023977
0.581583 0.093990 0.024828
0.612278 0.094924 0.025679
0.642706 0.095856 0.026529
0.672819 0.096787 0.027378
0.702570 0.097717 0.028227
0.731910 0.098646 0.029075
0.760794 0.099574 0.029922
0.789173 0.100502 0.030769
0.817001 0.101428 0.031615
0.844232 0.102354 0.032461
0.870819 0.103280 0.033307
0.896717 0.104204 0.034152
0.906959 0.104577 0.034493
0.906959 0.104577 0.034493
0.906959 0.104577 0.034493
0.041200 0.103967 0.011822
0.068945 0.105032 0.012762
0.097010 0.106073 0.013681
0.125509 0.107098 0.014586
0.154459 0.108113 0.015483
0.183840 0.109120 0.016372
0.213619 0.110119 0.017256
0.243757 0.111113 0.018135
0.274207 0.112102 0.019011
0.304924 0.113087 0.019882
0.335858 0.114068 0.020752
0.366961 0.115045 0.021618
0.398183 0.116020 0.022482
0.429474 0.116993 0.023345
0.460786 0.117963 0.024206
0.492068 0.118930 0.025065
0.523272 0.119896 0.025923
0.554348 0.120860 0.026780
0.585247 0.121823 0.027635
0.615922 0.122784 0.028490
0.646323 0.123743 0.029343
0.676404 0.124702 0.030196
0.706115 0.125659 0.031049
0.735410 0.126615 0.031900
0.764242 0.127570 0.032751
0.792564 0.128524 0.033602
0.820328 0.129477 0.034452
0.847489 0.130429 0.035302
0.874001 0.131381 0.036151
0.899816 0.132332 0.037000
0.910024 0.132715 0.037343
0.910024 0.132715 0.037343
0.910024 0.132715 0.037343
0.044078 0.132087 0.014569
0.071933 0.133182 0.015513
0.100099 0.134253 0.016436
0.128689 0.135307 0.017346
0.157721 0.136350 0.018247
0.187177 0.137385 0.019140
0.217023 0.138412 0.020028
0.247220 0.139433 0.020911
0.277723 0.140449 0.021791
0.308485 0.141460 0.022667
0.339457 0.142468 0.023540
0.370591 0.143473 0.024410
0.401837 0.144474 0.025279
0.433146 0.145472 0.026145
0.464469 0.146468 0.027010
0.495756 0.147462 0.027873
0.526957 0.148453 0.028735
0.558025 0.149443 0.029595
0.588909 0.150431 0.030454
0.619563 0.151417 0.031313
0.649937 0.152402 0.032170
0.679984 0.153385 0.033027
0.709655 0.154367 0.033883
0.738904 0.155348 0.034738
0.767684 0.156327 0.035593
0.795947 0.157306 0.036447
0.823647 0.158283 0.037301
0.850737 0.159260 0.038155
0.877172 0.160235 0.039008
0.902905 0.161210 0.039860
0.913078 0.161603 0.040204
0.913078 0.161603 0.040204
0.913078 0.161603 0.040204
0.046968 0.160960 0.017328
0.074933 0.162083 0.018277
0.103198 0.163180 0.019204
0.131879 0.164261 0.020118
0.160992 0.165330 0.021023
0.190522 0.166389 0.021921
0.220434 0.167442 0.022813
0.250690 0.168488 0.023700
0.281244 0.169529 0.024584
0.312050 0.170565 0.025464
0.343060 0.171597 0.026341
0.374224 0.172626 0.027215
0.405494 0.173651 0.028087
0.436820 0.174674 0.028958
0.468153 0.175693 0.029826
0.499443 0.176711 0.030693
0.530642 0.177726 0.031559
0.561701 0.178739 0.032423
0.592570 0.179750 0.033286
0.623201 0.180759 0.034148
0.653547 0.181766 0.035010
0.683559 0.182773 0.035870
0.713190 0.183777 0.036730
0.742392 0.184780 0.037589
0.771119 0.185782 0.038447
0.799323 0.186783 0.039305
0.826958 0.187783 0.040163
0.853977 0.188782 0.041020
0.880334 0.189779 0.041877
0.905984 0.190776 0.042733
0.916121 0.191178 0.043078
0.916121 0.191178 0.043078
0.916121 0.191178 0.043078
0.049871 0.190520 0.020101
0.077944 0.191668 0.021054
0.106307 0.192789 0.021985
0.135078 0.193894 0.022904
0.164272 0.194987 0.023813
0.193875 0.196070 0.024715
0.223852 0.197145 0.025611
0.254166 0.198214 0.026502
0.284771 0.199278 0.027389
0.315620 0.200337 0.028273
0.346666 0.201391 0.029154
0.377860 0.202442 0.030033
0.409153 0.203489 0.030909
0.440495 0.204533 0.031783
0.471838 0.205574 0.032655
0.503131 0.206613 0.033526
0.534326 0.207649 0.034395
0.565375 0.208683 0.035263
0.596228 0.209715 0.036130
0.626837 0.210745 0.036996
0.657153 0.211773 0.037861
0.687130 0.212800 0.038726
0.716720 0.213825 0.039589
0.745874 0.214849 0.040452
0.774547 0.215871 0.041314
0.802691 0.216892 0.042175
0.830260 0.217912 0.043037
0.857207 0.218931 0.043897
0.883486 0.219948 0.044757
0.909052 0.220965 0.045617
0.919154 0.221375 0.045964
0.919154 0.221375 0.045964
0.919154 0.221375 0.045964
0.052785 0.220704 0.022886
0.080966 0.221874 0.023843
0.109427 0.223018 0.024779
0.138286 0.224144 0.025702
0.167561 0.225258 0.026615
0.197235 0.226362 0.027521
0.227277 0.227458 0.028421
0.257648 0.228548 0.029316
0.288303 0.229632 0.030208
0.319195 0.230710 0.031095
0.350276 0.231785 0.031980
0.381499 0.232855 0.032863
0.412814 0.233922 0.033743
0.444172 0.234985 0.034620
0.475523 0.236046 0.035497
0.506819 0.237104 0.036371
0.538010 0.238159 0.037244
0.569048 0.239212 0.038116
0.599883 0.240263 0.038987
0.630469 0.241312 0.039857
0.660756 0.242359 0.040725
0.690697 0.243404 0.041593
0.720244 0.244447 0.042460
0.749350 0.245489 0.043327
0.777969 0.246529 0.044192
0.806052 0.247568 0.045058
0.833554 0.248606 0.045922
0.860428 0.249643 0.046787
0.886629 0.250678 0.047650
0.912110 0.251712 0.048514
0.922175 0.252129 0.048862
0.922175 0.252129 0.048862
0.922175 0.252129 0.048862
0.055710 0.251446 0.025684
0.083999 0.252637 0.026645
0.112557 0.253800 0.027586
0.141503 0.254946 0.028512
0.170857 0.256079 0.029430
0.200603 0.257201 0.030340
0.230709 0.258316 0.031244
0.261136 0.259424 0.032143
0.291840 0.260525 0.033038
0.322774 0.261622 0.033930
0.353890 0.262714 0.034819
0.385141 0.263802 0.035705
0.416478 0.264886 0.036589
0.447850 0.265967 0.037470
0.479209 0.267044 0.038350
0.510506 0.268119 0.039229
0.541692 0.269191 0.040106
0.572719 0.270261 0.040981
0.603536 0.271329 0.041856
0.634098 0.272394 0.042729
0.664354 0.273457 0.043601
0.694259 0.274519 0.044473
0.723763 0.275578 0.045344
0.752820 0.276636 0.046214
0.781383 0.277693 0.047083
0.809405 0.278748 0.047952
0.836839 0.279801 0.048820
0.863640 0.280853 0.049688
0.889761 0.281904 0.050555
0.915157 0.282953 0.051422
0.925186 0.283376 0.051772
0.925186 0.283376 0.051772
0.925186 0.283376 0.051772
0.058648 0.282684 0.028494
0.087043 0.283892 0.029460
0.115697 0.285073 0.030405
0.144730 0.286235 0.031336
0.174162 0.287384 0.032257
0.203979 0.288523 0.033171
0.234148 0.289654 0.034079
0.264630 0.290778 0.034982
0.295382 0.291895 0.035881
0.326357 0.293008 0.036777
0.357508 0.294115 0.037670
0.388786 0.295218 0.038560
0.420143 0.296317 0.039447
0.451529 0.297413 0.040333
0.482896 0.298506 0.041216
0.514194 0.299595 0.042099
0.545374 0.300682 0.042979
0.576388 0.301767 0.043858
0.607187 0.302848 0.044737
0.637723 0.303928 0.045614
0.667949 0.305006 0.046490
0.697815 0.306081 0.047365
0.727276 0.307155 0.048239
0.756283 0.308227 0.049113
0.784790 0.309297 0.049986
0.812750 0.310365 0.050858
0.840116 0.311432 0.051730
0.866843 0.312498 0.052601
0.892883 0.313562 0.053472
0.918193 0.314625 0.054343
0.928185 0.315053 0.054694
0.928185 0.315053 0.054694
0.928185 0.315053 0.054694
0.061597 0.314352 0.031318
0.090098 0.315576 0.032288
0.118846 0.316771 0.033236
0.147966 0.317948 0.034171
0.177476 0.319111 0.035097
0.207362 0.320264 0.036015
0.237593 0.321409 0.036927
0.268130 0.322546 0.037834
0.298929 0.323677 0.038737
0.329945 0.324803 0.039636
0.361129 0.325923 0.040533
0.392434 0.327040 0.041426
0.423811 0.328152 0.042318
0.455210 0.329260 0.043207
0.486583 0.330366 0.044095
0.517880 0.331468 0.044980
0.549054 0.332567 0.045865
0.580055 0.333664 0.046748
0.610835 0.334758 0.047629
0.641346 0.335849 0.048510
0.671539 0.336939 0.049390
0.701367 0.338026 0.050268
0.730784 0.339112 0.051146
0.759740 0.340196 0.052024
0.788190 0.341277 0.052900
0.816087 0.342357 0.053776
0.843384 0.343436 0.054651
0.870036 0.344513 0.055526
0.895996 0.345588 0.056401
0.921218 0.346662 0.057275
0.931174 0.347095 0.057627
0.931174 0.347095 0.057627
0.931174 0.347095 0.057627
0.064557 0.346386 0.034153
0.093163 0.347623 0.035128
0.122006 0.348830 0.036080
0.151210 0.350019 0.037019
0.180798 0.351195 0.037949
0.210753 0.352360 0.038871
0.241045 0.353516 0.039787
0.271636 0.354664 0.040698
0.302482 0.355807 0.041604
0.333537 0.356943 0.042508
0.364754 0.358075 0.043408
0.396084 0.359202 0.044306
0.427480 0.360325 0.045201
0.458891 0.361444 0.046094
0.490270 0.362560 0.046985
0.521567 0.363672 0.047874
0.552733 0.364782 0.048762
0.583720 0.365888 0.049649
0.614480 0.366992 0.050534
0.644964 0.368094 0.051418
0.675125 0.369194 0.052302
0.704914 0.370291 0.053184
0.734285 0.371386 0.054066
0.763190 0.372479 0.054946
0.791583 0.373570 0.055826
0.819416 0.374660 0.056706
0.846644 0.375747 0.057585
0.873220 0.376834 0.058463
0.899097 0.377918 0.059341
0.924232 0.379001 0.060218
0.934151 0.379438 0.060572
0.934151 0.379438 0.060572
0.934151 0.379438 0.060572
0.067529 0.378723 0.037001
0.096238 0.379970 0.037980
0.125175 0.381187 0.038937
0.154464 0.382386 0.039880
0.184127 0.383571 0.040813
0.214151 0.384745 0.041739
0.244503 0.385910 0.042659
0.275147 0.387068 0.043574
0.306039 0.388219 0.044484
0.337133 0.389365 0.045391
0.368382 0.390505 0.046295
0.399737 0.391641 0.047197
0.431151 0.392772 0.048095
0.462574 0.393899 0.048992
0.493958 0.395023 0.049887
0.525253 0.396144 0.050780
0.556411 0.397262 0.051672
0.587384 0.398376 0.052562
0.618123 0.399488 0.053451
0.648579 0.400598 0.054339
0.678707 0.401705 0.055226
0.708456 0.402809 0.056111
0.737781 0.403912 0.056996
0.766634 0.405013 0.057881
0.794969 0.406111 0.058764
0.822737 0.407208 0.059647
0.849895 0.408303 0.060530
0.876394 0.409396 0.061411
0.902189 0.410487 0.062293
0.927235 0.411577 0.063174
0.937116 0.412017 0.063529
0.937116 0.412017 0.063529
0.937116 0.412017 0.063529
0.070513 0.411297 0.039861
0.099325 0.412552 0.040844
0.128354 0.413777 0.041805
0.157726 0.414983 0.042752
0.187465 0.416175 0.043690
0.217556 0.417357 0.044619
0.247968 0.418529 0.045543
0.278664 0.419693 0.046462
0.309601 0.420851 0.047376
0.340733 0.422003 0.048287
0.372013 0.423150 0.049195
0.403393 0.424292 0.050100
0.434824 0.425429 0.051002
0.466258 0.426563 0.051903
0.497645 0.427693 0.052801
0.528938 0.428819 0.053698
0.560087 0.429943 0.054593
0.591045 0.431063 0.055487
0.621762 0.432181 0.056379
0.652191 0.433296 0.057271
0.682284 0.434408 0.058161
0.711993 0.435519 0.059050
0.741271 0.436626 0.059939
0.770071 0.437732 0.060827
0.798347 0.438836 0.061714
0.826050 0.439938 0.062600
0.853136 0.441038 0.063486
0.879558 0.442136 0.064371
0.905270 0.443232 0.065256
0.930226 0.444327 0.066140
0.940070 0.444768 0.066497
0.940070 0.444768 0.066497
0.940070 0.444768 0.066497
0.073507 0.444045 0.042734
0.102421 0.445305 0.043721
0.131542 0.446536 0.044686
0.160998 0.447747 0.045637
0.190811 0.448944 0.046578
0.220968 0.450130 0.047512
0.251439 0.451307 0.048439
0.282187 0.452476 0.049362
0.313168 0.453638 0.050280
0.344337 0.454794 0.051195
0.375647 0.455945 0.052106
0.407050 0.457091 0.053015
0.438498 0.458232 0.053921
0.469942 0.459370 0.054825
0.501333 0.460504 0.055727
0.532623 0.461634 0.056627
0.563762 0.462761 0.057526
0.594704 0.463885 0.058423
0.625399 0.465006 0.059319
0.655799 0.466125 0.060214
0.685857 0.467240 0.061108
0.715524 0.468354 0.062001
0.744755 0.469465 0.062893
0.773502 0.470574 0.063784
0.801717 0.471680 0.064675
0.829355 0.472785 0.065565
0.856369 0.473888 0.066454
0.882713 0.474988 0.067342
0.908341 0.476087 0.068231
0.933207 0.477185 0.069118
0.943013 0.477627 0.069476
0.943013 0.477627 0.069476
0.943013 0.477627 0.069476
0.076513 0.476903 0.045618
0.105528 0.478166 0.046609
0.134740 0.479399 0.047578
0.164277 0.480613 0.048533
0.194164 0.481812 0.049479
0.224387 0.483000 0.050416
0.254917 0.484180 0.051347
0.285715 0.485351 0.052274
0.316740 0.486515 0.053196
0.347945 0.487673 0.054114
0.379285 0.488826 0.055029
0.410710 0.489974 0.055941
0.442174 0.491117 0.056851
0.473627 0.492256 0.057759
0.505021 0.493392 0.058664
0.536306 0.494524 0.059568
0.567436 0.495652 0.060471
0.598360 0.496777 0.061372
0.629032 0.497900 0.062271
0.659403 0.499019 0.063170
0.689425 0.500136 0.064067
0.719051 0.501251 0.064963
0.748233 0.502363 0.065859
0.776925 0.503472 0.066753
0.805080 0.504580 0.067647
0.832651 0.505685 0.068540
0.859592 0.506789 0.069433
0.885857 0.507890 0.070325
0.911401 0.508990 0.071217
0.936176 0.510087 0.072108
0.945944 0.510530 0.072467
0.945944 0.510530 0.072467
0.945944 0.510530 0.072467
0.079530 0.509805 0.048515
0.108645 0.511069 0.049510
0.137947 0.512302 0.050483
0.167566 0.513516 0.051442
0.197525 0.514716 0.052391
0.227813 0.515904 0.053332
0.258400 0.517083 0.054267
0.289248 0.518254 0.055197
0.320316 0.519419 0.056123
0.351557 0.520577 0.057045
0.382925 0.521729 0.057964
0.414373 0.522876 0.058880
0.445851 0.524019 0.059793
0.477313 0.525158 0.060704
0.508708 0.526293 0.061614
0.539989 0.527424 0.062521
0.571108 0.528552 0.063427
0.602015 0.529676 0.064331
0.632662 0.530797 0.065234
0.663003 0.531916 0.066136
0.692988 0.533032 0.067037
0.722571 0.534145 0.067937
0.751705 0.535256 0.068836
0.780342 0.536364 0.069734
0.808435 0.537471 0.070631
0.835939 0.538575 0.071528
0.862807 0.539676 0.072424
0.888992 0.540776 0.073319
0.914450 0.541874 0.074214
0.939134 0.542970 0.075108
0.948863 0.543412 0.075469
0.948863 0.543412 0.075469
0.948863 0.543412 0.075469
0.082558 0.542689 0.051423
0.111773 0.543950 0.052423
0.141164 0.545181 0.053400
0.170862 0.546393 0.054362
0.200894 0.547591 0.055315
0.231246 0.548777 0.056260
0.261889 0.549954 0.057199
0.292787 0.551123 0.058133
0.323896 0.552284 0.059062
0.355172 0.553440 0.059988
0.386568 0.554590 0.060910
0.418037 0.555734 0.061830
0.449530 0.556875 0.062747
0.480999 0.558010 0.063661
0.512396 0.559142 0.064574
0.543671 0.560271 0.065485
0.574778 0.561395 0.066395
0.605666 0.562517 0.067302
0.636289 0.563635 0.068209
0.666599 0.564750 0.069114
0.696547 0.565863 0.070019
0.726086 0.566973 0.070922
0.755170 0.568080 0.071824
0.783751 0.569185 0.072725
0.811783 0.570288 0.073626
0.839218 0.571389 0.074526
0.866012 0.572487 0.075425
0.892117 0.573583 0.076324
0.917488 0.574677 0.077222
0.942080 0.575769 0.078120
0.951770 0.576209 0.078482
0.951770 0.576209 0.078482
0.951770 0.576209 0.078482
0.085596 0.575489 0.054344
0.114910 0.576746 0.055347
0.144389 0.577972 0.056328
0.174168 0.579180 0.057294
0.204270 0.580373 0.058251
0.234686 0.581555 0.059200
0.265385 0.582727 0.060142
0.296330 0.583891 0.061080
0.327481 0.585048 0.062013
0.358791 0.586198 0.062942
0.390214 0.587343 0.063868
0.421703 0.588483 0.064791
0.453210 0.589619 0.065712
0.484686 0.590749 0.066630
0.516083 0.591876 0.067546
0.547352 0.592999 0.068461
0.578446 0.594119 0.069374
0.609315 0.595235 0.070285
0.639913 0.596348 0.071195
0.670190 0.597458 0.072104
0.700100 0.598565 0.073011
0.729596 0.599670 0.073918
0.758629 0.600772 0.074823
0.787153 0.601871 0.075728
0.815122 0.602968 0.076632
0.842489 0.604063 0.077536
0.869207 0.605155 0.078438
0.895232 0.606246 0.079340
0.920516 0.607334 0.080242
0.945015 0.608420 0.081143
0.954666 0.608858 0.081506
0.954666 0.608858 0.081506
0.954666 0.608858 0.081506
0.088646 0.608141 0.057276
0.118057 0.609391 0.058283
0.147624 0.610611 0.059268
0.177481 0.611811 0.060238
0.207654 0.612998 0.061199
0.238132 0.614172 0.062151
0.268886 0.615338 0.063097
0.299879 0.616495 0.064038
0.331070 0.617645 0.064975
0.362413 0.618788 0.065908
0.393863 0.619926 0.066837
0.425371 0.621059 0.067764
0.456891 0.622187 0.068688
0.488373 0.623311 0.069610
0.519769 0.624430 0.070530
0.551032 0.625546 0.071448
0.582112 0.626658 0.072364
0.612962 0.627767 0.073279
0.643533 0.628873 0.074192
0.673778 0.629975 0.075104
0.703649 0.631075 0.076015
0.733099 0.632172 0.076925
0.762081 0.633266 0.077834
0.790548 0.634357 0.078742
0.818454 0.635447 0.079649
0.845751 0.636533 0.080556
0.872394 0.637618 0.081462
0.898336 0.638700 0.082367
0.923533 0.639780 0.083272
0.947938 0.640858 0.084176
0.957549 0.641293 0.084541
0.957549 0.641293 0.084541
0.957549 0.641293 0.084541
0.091706 0.640581 0.060219
0.121214 0.641822 0.061231
0.150868 0.643033 0.062219
0.180803 0.644224 0.063194
0.211045 0.645401 0.064158
0.241585 0.646566 0.065114
0.272393 0.647723 0.066064
0.303433 0.648870 0.067008
0.334663 0.650011 0.067949
0.366039 0.651146 0.068885
0.397514 0.652274 0.069818
0.429041 0.653398 0.070748
0.460573 0.654516 0.071676
0.492060 0.655630 0.072601
0.523456 0.656741 0.073524
0.554710 0.657847 0.074446
0.585776 0.658949 0.075365
0.616605 0.660048 0.076284
0.647149 0.661144 0.077200
0.677361 0.662237 0.078116
0.707193 0.663327 0.079030
0.736597 0.664414 0.079943
0.765527 0.665498 0.080856
0.793936 0.666580 0.081767
0.821777 0.667659 0.082678
0.849004 0.668736 0.083588
0.875570 0.669810 0.084497
0.901430 0.670882 0.085405
0.926538 0.671952 0.086313
0.950849 0.673020 0.087221
0.960420 0.673450 0.087586
0.960420 0.673450 0.087586
0.960420 0.673450 0.087586
0.094777 0.672746 0.063175
0.124381 0.673974 0.064190
0.154121 0.675173 0.065182
0.184132 0.676353 0.066160
0.214444 0.677519 0.067128
0.245044 0.678673 0.068088
0.275906 0.679817 0.069042
0.306992 0.680953 0.069990
0.338261 0.682083 0.070934
0.369668 0.683205 0.071873
0.401168 0.684322 0.072810
0.432713 0.685434 0.073744
0.464256 0.686541 0.074675
0.495748 0.687644 0.075604
0.527141 0.688742 0.076530
0.558387 0.689837 0.077455
0.589438 0.690927 0.078378
0.620246 0.692015 0.079300
0.650762 0.693099 0.080220
0.680940 0.694180 0.081138
0.710731 0.695257 0.082056
0.740089 0.696332 0.082973
0.768967 0.697405 0.083888
0.797316 0.698474 0.084803
0.825092 0.699541 0.085717
0.852248 0.700606 0.086630
0.878737 0.701668 0.087542
0.904514 0.702728 0.088454
0.929533 0.703785 0.089365
0.953748 0.704841 0.090276
0.963279 0.705266 0.090643
0.963279 0.705266 0.090643
0.963279 0.705266 0.090643
0.097858 0.704570 0.066141
0.127557 0.705784 0.067160
0.157382 0.706969 0.068157
0.187470 0.708135 0.069138
0.217849 0.709286 0.070110
0.248510 0.710426 0.071073
0.279424 0.711557 0.072031
0.310555 0.712679 0.072982
0.341862 0.713795 0.073930
0.373300 0.714904 0.074873
0.404824 0.716007 0.075813
0.436387 0.717105 0.076750
0.467940 0.718198 0.077685
0.499436 0.719287 0.078617
0.530826 0.720371 0.079547
0.562063 0.721452 0.080475
0.593098 0.722529 0.081402
0.623884 0.723602 0.082326
0.654372 0.724672 0.083250
0.684515 0.725739 0.084172
0.714265 0.726802 0.085093
0.743575 0.727863 0.086013
0.772399 0.728921 0.086932
0.800689 0.729976 0.087850
0.828399 0.731029 0.088767
0.855483 0.732079 0.089683
0.881894 0.733127 0.090598
0.907587 0.734172 0.091513
0.932516 0.735215 0.092428
0.956635 0.736256 0.093341
0.966126 0.736675 0.093710
0.966126 0.736675 0.093710
0.966126 0.736675 0.093710
0.100950 0.735989 0.069119
0.130743 0.737186 0.070142
0.160652 0.738355 0.071142
0.190816 0.739504 0.072128
0.221262 0.740639 0.073103
0.251982 0.741763 0.074070
0.282947 0.742878 0.075031
0.314123 0.743984 0.075986
0.345467 0.745084 0.076937
0.376936 0.746177 0.077884
0.408483 0.747264 0.078827
0.440062 0.748346 0.079768
0.471625 0.749423 0.080706
0.503123 0.750495 0.081641
0.534510 0.751564 0.082575
0.565737 0.752628 0.083506
0.596756 0.753689 0.084436
0.627518 0.754746 0.085364
0.657977 0.755799 0.086291
0.688084 0.756850 0.087216
0.717793 0.757897 0.088141
0.747055 0.758941 0.089064
0.775825 0.759983 0.089986
0.804054 0.761022 0.090907
0.831698 0.762058 0.091827
0.858709 0.763092 0.092747
0.885042 0.764123 0.093665
0.910650 0.765152 0.094583
0.935488 0.766178 0.095501
0.959510 0.767202 0.096418
0.968960 0.767615 0.096788
0.968960 0.767615 0.096788
0.968960 0.767615 0.096788
0.104052 0.766939 0.072109
0.133939 0.768117 0.073136
0.163931 0.769267 0.074139
0.194169 0.770397 0.075128
0.224682 0.771514 0.076107
0.255460 0.772620 0.077078
0.286477 0.773716 0.078042
0.317696 0.774804 0.079001
0.349076 0.775885 0.079955
0.380574 0.776960 0.080906
0.412144 0.778028 0.081853
0.443738 0.779092 0.082797
0.475310 0.780151 0.083738
0.506811 0.781205 0.084677
0.538194 0.782255 0.085614
0.569410 0.783301 0.086548
0.600411 0.784343 0.087481
0.631150 0.785381 0.088413
0.661579 0.786417 0.089343
0.691650 0.787449 0.090272
0.721315 0.788478 0.091199
0.750529 0.789503 0.092125
0.779243 0.790526 0.093051
0.807412 0.791547 0.093975
0.834988 0.792564 0.094898
0.861926 0.793579 0.095821
0.888179 0.794592 0.096743
0.913702 0.795602 0.097664
0.938448 0.796609 0.098585
0.962373 0.797614 0.099505
0.971782 0.798019 0.099876
0.971782 0.798019 0.099876
0.971782 0.798019 0.099876
0.107164 0.797356 0.075109
0.137144 0.798513 0.076140
0.167219 0.799641 0.077147
0.197530 0.800751 0.078140
0.228109 0.801846 0.079123
0.258944 0.802931 0.080097
0.290011 0.804006 0.081065
0.321273 0.805074 0.082027
0.352689 0.806134 0.082985
0.384216 0.807188 0.083938
0.415807 0.808236 0.084889
0.447416 0.809279 0.085836
0.478996 0.810318 0.086781
0.510499 0.811351 0.087723
0.541876 0.812381 0.088663
0.573081 0.813406 0.089601
0.604064 0.814427 0.090538
0.634778 0.815445 0.091472
0.665176 0.816460 0.092405
0.695210 0.817471 0.093337
0.724832 0.818480 0.094268
0.753996 0.819485 0.095197
0.782655 0.820487 0.096126
0.810762 0.821486 0.097053
0.838270 0.822483 0.097980
0.865134 0.823477 0.098906
0.891306 0.824469 0.099831
0.916743 0.825458 0.100755
