cinelut/luts/bottle-rocket.cube
# CineLUT — Bottle Rocket (1996)
# Gerado por generate_luts.py
LUT_3D_SIZE 5
0.030352 0.004905 0.001484
0.260873 0.012006 0.008542
0.509232 0.018837 0.015332
0.751076 0.025588 0.022044
0.898297 0.030128 0.026558
0.052785 0.220704 0.022886
0.288303 0.229632 0.030208
0.538010 0.238159 0.037244
0.777969 0.246529 0.044192
0.922175 0.252129 0.048862
0.076513 0.476903 0.045618
0.316740 0.486515 0.053196
0.567436 0.495652 0.060471
0.805080 0.504580 0.067647
0.945944 0.510530 0.072467
0.100950 0.735989 0.069119
0.345467 0.745084 0.076937
0.596756 0.753689 0.084436
0.831698 0.762058 0.091827
0.968960 0.767615 0.096788
0.126048 0.965065 0.093343
0.374439 0.972441 0.101386
0.625924 0.979372 0.109094
0.857776 0.986067 0.116686
0.991179 0.990487 0.121778
0.031973 0.006458 0.136491
0.262874 0.013579 0.144886
0.511345 0.020428 0.152921
0.753063 0.027197 0.160824
0.900071 0.031749 0.166119
0.054460 0.222662 0.161813
0.290329 0.231600 0.170388
0.540120 0.240137 0.178590
0.779926 0.248516 0.186652
0.923902 0.254121 0.192051
0.078240 0.479015 0.188302
0.318788 0.488628 0.197047
0.569540 0.497765 0.205405
0.807004 0.506693 0.213616
0.947618 0.512642 0.219112
0.102726 0.737991 0.215296
0.347535 0.747077 0.224195
0.598851 0.755673 0.232696
0.833584 0.764033 0.241042
0.970579 0.769584 0.246625
0.127869 0.966693 0.242749
0.376522 0.974051 0.251787
0.628006 0.980963 0.260416
0.859622 0.987641 0.268882
0.992739 0.992049 0.274543
0.034010 0.008410 0.331932
0.265384 0.015555 0.341312
0.513993 0.022428 0.350251
0.755550 0.029219 0.359007
0.902290 0.033785 0.364853
0.056564 0.225118 0.360100
0.292870 0.234069 0.369555
0.542764 0.242618 0.378561
0.782375 0.251008 0.387377
0.926060 0.256621 0.393262
0.080410 0.481662 0.389178
0.321357 0.491275 0.398695
0.572176 0.500413 0.407755
0.809410 0.509341 0.416620
0.949710 0.515290 0.422535
0.104956 0.740497 0.418430
0.350127 0.749572 0.427994
0.601474 0.758156 0.437094
0.835944 0.766506 0.445994
0.972601 0.772048 0.451930
0.130157 0.968728 0.447811
0.379134 0.976062 0.457407
0.630613 0.982952 0.466532
0.861931 0.989607 0.475453
0.994687 0.993999 0.481401
0.036115 0.010428 0.547272
0.267973 0.017599 0.556864
0.516720 0.024495 0.565971
0.758109 0.031308 0.574858
0.904570 0.035889 0.580776
0.058738 0.227653 0.575966
0.295491 0.236617 0.585524
0.545487 0.245178 0.594595
0.784895 0.253580 0.603443
0.928278 0.259199 0.609332
0.082651 0.484389 0.605246
0.324006 0.494003 0.614756
0.574890 0.503141 0.623775
0.811885 0.512068 0.632570
0.951859 0.518017 0.638420
0.107260 0.743076 0.634361
0.352800 0.752139 0.643807
0.604176 0.760712 0.652761
0.838371 0.769049 0.661487
0.974678 0.774584 0.667289
0.132518 0.970817 0.663264
0.381827 0.978127 0.672630
0.633298 0.984993 0.681505
0.864305 0.991625 0.690149
0.996687 0.996002 0.695894
0.038267 0.012492 0.762452
0.270615 0.019688 0.771421
0.519499 0.026608 0.779901
0.760713 0.033444 0.788145
0.906887 0.038041 0.793616
0.060960 0.230240 0.789170
0.298165 0.239217 0.797995
0.548261 0.247790 0.806335
0.787458 0.256203 0.814437
0.930531 0.261830 0.819811
0.084941 0.487168 0.816084
0.326708 0.496783 0.824748
0.577656 0.505921 0.832929
0.814403 0.514848 0.840872
0.954043 0.520796 0.846138
0.109613 0.745700 0.842486
0.355526 0.754751 0.850972
0.606928 0.763312 0.858981
0.840839 0.771637 0.866751
0.976787 0.777163 0.871899
0.134930 0.972939 0.868329
0.384572 0.980224 0.876623
0.636032 0.987066 0.884445
0.866718 0.993674 0.892027
0.998717 0.998035 0.897048
