cinelut/luts/french-dispatch.cube
# CineLUT — The French Dispatch (2021)
# Gerado por generate_luts.py
LUT_3D_SIZE 33
0.013694 0.007687 0.004627
0.034882 0.009023 0.005949
0.057008 0.010348 0.007261
0.080089 0.011667 0.008567
0.104085 0.012986 0.009872
0.128944 0.014303 0.011177
0.154607 0.015622 0.012483
0.181013 0.016942 0.013790
0.208099 0.018264 0.015099
0.235803 0.019588 0.016411
0.264062 0.020914 0.017725
0.292814 0.022244 0.019041
0.321996 0.023576 0.020361
0.351546 0.024911 0.021684
0.381402 0.026249 0.023010
0.411501 0.027591 0.024339
0.441783 0.028936 0.025672
0.472186 0.030284 0.027008
0.502648 0.031635 0.028347
0.533109 0.032990 0.029691
0.563508 0.034349 0.031037
0.593784 0.035711 0.032388
0.623877 0.037077 0.033741
0.653727 0.038446 0.035099
0.683273 0.039819 0.036460
0.712456 0.041196 0.037825
0.741217 0.042576 0.039194
0.769496 0.043960 0.040566
0.797233 0.045348 0.041942
0.824369 0.046739 0.043322
0.850846 0.048134 0.044706
0.863147 0.048797 0.045363
0.863147 0.048797 0.045363
0.017960 0.030034 0.008770
0.039410 0.031463 0.010111
0.061780 0.032877 0.011440
0.085088 0.034287 0.012765
0.109296 0.035693 0.014087
0.134352 0.037099 0.015410
0.160196 0.038505 0.016733
0.186768 0.039911 0.018057
0.214006 0.041319 0.019383
0.241847 0.042729 0.020712
0.270230 0.044140 0.022043
0.299091 0.045554 0.023376
0.328368 0.046970 0.024713
0.357999 0.048389 0.026052
0.387922 0.049811 0.027395
0.418075 0.051235 0.028741
0.448397 0.052662 0.030090
0.478825 0.054092 0.031442
0.509299 0.055525 0.032798
0.539759 0.056962 0.034157
0.570142 0.058401 0.035520
0.600389 0.059844 0.036886
0.630440 0.061289 0.038256
0.660234 0.062738 0.039630
0.689711 0.064191 0.041007
0.718812 0.065646 0.042387
0.747477 0.067105 0.043772
0.775646 0.068567 0.045160
0.803260 0.070033 0.046551
0.830260 0.071501 0.047947
0.856587 0.072973 0.049346
0.868813 0.073672 0.050010
0.868813 0.073672 0.050010
0.022281 0.053828 0.012970
0.043990 0.055342 0.014329
0.066601 0.056842 0.015676
0.090134 0.058335 0.017018
0.114550 0.059825 0.018358
0.139799 0.061313 0.019698
0.165821 0.062800 0.021038
0.192557 0.064288 0.022379
0.219944 0.065776 0.023723
0.247920 0.067266 0.025068
0.276423 0.068757 0.026416
0.305390 0.070250 0.027766
0.334759 0.071745 0.029119
0.364469 0.073242 0.030475
0.394456 0.074742 0.031834
0.424659 0.076244 0.033196
0.455017 0.077748 0.034561
0.485468 0.079255 0.035930
0.515951 0.080764 0.037302
0.546406 0.082276 0.038677
0.576771 0.083791 0.040056
0.606987 0.085309 0.041438
0.636992 0.086829 0.042823
0.666727 0.088352 0.044213
0.696132 0.089879 0.045605
0.725147 0.091408 0.047002
0.753713 0.092940 0.048401
0.781770 0.094475 0.049805
0.809258 0.096013 0.051212
0.836119 0.097554 0.052622
0.862294 0.099098 0.054037
0.874442 0.099830 0.054708
0.874442 0.099830 0.054708
0.026657 0.078976 0.017226
0.048622 0.080571 0.018603
0.071471 0.082150 0.019968
0.095225 0.083721 0.021327
0.119847 0.085289 0.022684
0.145285 0.086854 0.024041
0.171483 0.088417 0.025398
0.198379 0.089981 0.026757
0.225912 0.091545 0.028117
0.254020 0.093109 0.029478
0.282640 0.094675 0.030843
0.311710 0.096241 0.032209
0.341169 0.097810 0.033579
0.370953 0.099380 0.034951
0.401001 0.100952 0.036326
0.431252 0.102526 0.037704
0.461643 0.104102 0.039086
0.492114 0.105680 0.040470
0.522604 0.107260 0.041858
0.553051 0.108843 0.043249
0.583395 0.110428 0.044643
0.613576 0.112015 0.046041
0.643533 0.113605 0.047442
0.673206 0.115197 0.048847
0.702536 0.116792 0.050255
0.731462 0.118390 0.051667
0.759926 0.119990 0.053082
0.787867 0.121592 0.054500
0.815226 0.123197 0.055923
0.841945 0.124805 0.057348
0.867965 0.126416 0.058777
0.880035 0.127180 0.059456
0.880035 0.127180 0.059456
0.031087 0.105388 0.021538
0.053305 0.107058 0.022933
0.076389 0.108711 0.024315
0.100360 0.110355 0.025691
0.125185 0.111994 0.027065
0.150810 0.113630 0.028439
0.177180 0.115265 0.029813
0.204233 0.116899 0.031188
0.231909 0.118532 0.032564
0.260146 0.120166 0.033943
0.288880 0.121801 0.035323
0.318051 0.123436 0.036706
0.347595 0.125072 0.038092
0.377452 0.126710 0.039480
0.407558 0.128349 0.040871
0.437853 0.129990 0.042265
0.468275 0.131632 0.043662
0.498763 0.133276 0.045063
0.529255 0.134922 0.046466
0.559692 0.136570 0.047873
0.590012 0.138220 0.049283
0.620155 0.139872 0.050696
0.650061 0.141526 0.052112
0.679669 0.143182 0.053532
0.708921 0.144840 0.054956
0.737756 0.146500 0.056382
0.766114 0.148163 0.057813
0.793937 0.149828 0.059246
0.821165 0.151495 0.060683
0.847739 0.153165 0.062124
0.873600 0.154836 0.063568
0.885590 0.155630 0.064254
0.885590 0.155630 0.064254
0.035571 0.132972 0.025905
0.058038 0.134712 0.027317
0.081353 0.136433 0.028716
0.105540 0.138144 0.030109
0.130564 0.139850 0.031500
0.156373 0.141552 0.032891
0.182912 0.143252 0.034281
0.210120 0.144951 0.035672
0.237936 0.146649 0.037065
0.266298 0.148347 0.038460
0.295143 0.150045 0.039857
0.324411 0.151743 0.041256
0.354039 0.153442 0.042657
0.383964 0.155142 0.044061
0.414126 0.156843 0.045468
0.444462 0.158545 0.046878
0.474911 0.160248 0.048291
0.505413 0.161953 0.049706
0.535906 0.163659 0.051125
0.566329 0.165367 0.052547
0.596622 0.167076 0.053973
0.626724 0.168787 0.055401
0.656576 0.170500 0.056833
0.686117 0.172215 0.058268
0.715287 0.173931 0.059706
0.744027 0.175649 0.061148
0.772278 0.177369 0.062593
0.799979 0.179091 0.064042
0.827073 0.180815 0.065493
0.853498 0.182541 0.066949
0.879198 0.184269 0.068407
0.891107 0.185088 0.069100
0.891107 0.185088 0.069100
0.040107 0.161638 0.030325
0.062821 0.163441 0.031755
0.086364 0.165225 0.033171
0.110763 0.166998 0.034581
0.135983 0.168765 0.035989
0.161974 0.170528 0.037395
0.188679 0.172288 0.038802
0.216038 0.174046 0.040210
0.243990 0.175803 0.041619
0.272475 0.177559 0.043029
0.301429 0.179315 0.044442
0.330791 0.181071 0.045857
0.360498 0.182828 0.047274
0.390490 0.184584 0.048694
0.420704 0.186342 0.050116
0.451078 0.188100 0.051542
0.481552 0.189859 0.052970
0.512065 0.191619 0.054401
0.542555 0.193380 0.055835
0.572961 0.195143 0.057273
0.603224 0.196906 0.058713
0.633283 0.198671 0.060156
0.663077 0.200437 0.061603
0.692548 0.202205 0.063053
0.721634 0.203974 0.064506
0.750277 0.205745 0.065963
0.778416 0.207517 0.067423
0.805993 0.209291 0.068886
0.832949 0.211066 0.070352
0.859224 0.212843 0.071822
0.884759 0.214622 0.073295
0.896586 0.215465 0.073994
0.896586 0.215465 0.073994
0.044695 0.191294 0.034800
0.067653 0.193155 0.036246
0.091421 0.194996 0.037679
0.116029 0.196825 0.039106
0.141442 0.198648 0.040530
0.167611 0.200466 0.041953
0.194479 0.202280 0.043376
0.221986 0.204093 0.044799
0.250073 0.205903 0.046224
0.278676 0.207713 0.047651
0.307736 0.209521 0.049079
0.337189 0.211330 0.050509
0.366973 0.213138 0.051942
0.397028 0.214946 0.053378
0.427291 0.216755 0.054816
0.457701 0.218564 0.056256
0.488197 0.220373 0.057700
0.518717 0.222183 0.059146
0.549201 0.223994 0.060595
0.579588 0.225806 0.062047
0.609818 0.227618 0.063503
0.639830 0.229432 0.064961
0.669564 0.231246 0.066423
0.698961 0.233062 0.067887
0.727960 0.234878 0.069355
0.756502 0.236696 0.070826
0.784528 0.238515 0.072300
0.811978 0.240335 0.073778
0.838793 0.242157 0.075259
0.864914 0.243980 0.076743
0.890282 0.245804 0.078230
0.902025 0.246668 0.078936
0.902025 0.246668 0.078936
0.049335 0.221849 0.039327
0.072533 0.223763 0.040790
0.096524 0.225655 0.042239
0.121337 0.227535 0.043682
0.146940 0.229408 0.045123
0.173284 0.231275 0.046562
0.200311 0.233139 0.048001
0.227964 0.235000 0.049440
0.256182 0.236859 0.050881
0.284902 0.238716 0.052323
0.314064 0.240572 0.053767
0.343605 0.242427 0.055213
0.373463 0.244282 0.056661
0.403578 0.246137 0.058112
0.433887 0.247991 0.059565
0.464330 0.249845 0.061020
0.494844 0.251700 0.062479
0.525369 0.253554 0.063940
0.555844 0.255410 0.065404
0.586209 0.257265 0.066871
0.616403 0.259121 0.068341
0.646365 0.260978 0.069814
0.676036 0.262835 0.071290
0.705357 0.264694 0.072770
0.734266 0.266552 0.074252
0.762704 0.268412 0.075737
0.790613 0.270273 0.077226
0.817933 0.272134 0.078718
0.844604 0.273996 0.080213
0.870568 0.275860 0.081711
0.895766 0.277724 0.083212
0.907424 0.278608 0.083925
0.907424 0.278608 0.083925
0.054026 0.253212 0.043906
0.077461 0.255173 0.045386
0.101671 0.257111 0.046852
0.126686 0.259036 0.048311
0.152477 0.260954 0.049767
0.178992 0.262865 0.051222
0.206177 0.264773 0.052677
0.233972 0.266677 0.054132
0.262317 0.268578 0.055588
0.291151 0.270478 0.057046
0.320412 0.272376 0.058505
0.350038 0.274273 0.059966
0.379967 0.276169 0.061429
0.410139 0.278064 0.062895
0.440492 0.279959 0.064363
0.470963 0.281853 0.065834
0.501493 0.283747 0.067307
0.532020 0.285641 0.068783
0.562484 0.287536 0.070262
0.592823 0.289430 0.071744
0.622978 0.291324 0.073228
0.652888 0.293219 0.074716
0.682493 0.295114 0.076206
0.711733 0.297009 0.077700
0.740550 0.298905 0.079196
0.768882 0.300801 0.080696
0.796671 0.302698 0.082198
0.823857 0.304596 0.083704
0.850382 0.306493 0.085213
0.876186 0.308392 0.086725
0.901211 0.310291 0.088240
0.912782 0.311191 0.088959
0.912782 0.311191 0.088959
0.058766 0.285291 0.048537
0.082436 0.287294 0.050034
0.106861 0.289272 0.051515
0.132077 0.291237 0.052991
0.158051 0.293194 0.054463
0.184735 0.295144 0.055933
0.212074 0.297090 0.057403
0.240008 0.299032 0.058874
0.268478 0.300971 0.060345
0.297422 0.302907 0.061818
0.326779 0.304842 0.063293
0.356487 0.306775 0.064769
0.386485 0.308707 0.066247
0.416711 0.310638 0.067728
0.447104 0.312567 0.069211
0.477602 0.314497 0.070696
0.508144 0.316425 0.072184
0.538670 0.318353 0.073674
0.569119 0.320281 0.075168
0.599430 0.322209 0.076664
0.629542 0.324136 0.078163
0.659397 0.326063 0.079664
0.688933 0.327991 0.081169
0.718091 0.329918 0.082677
0.746811 0.331845 0.084187
0.775034 0.333773 0.085701
0.802700 0.335701 0.087217
0.829751 0.337629 0.088737
0.856126 0.339557 0.090260
0.881767 0.341485 0.091785
0.906616 0.343414 0.093314
0.918099 0.344328 0.094040
0.918099 0.344328 0.094040
0.063557 0.317997 0.053219
0.087457 0.320035 0.054732
0.112095 0.322048 0.056229
0.137507 0.324048 0.057720
0.163662 0.326038 0.059208
0.190512 0.328021 0.060694
0.218002 0.330000 0.062180
0.246072 0.331974 0.063665
0.274664 0.333945 0.065152
0.303715 0.335913 0.066640
0.333166 0.337879 0.068129
0.362953 0.339843 0.069620
0.393016 0.341805 0.071113
0.423293 0.343766 0.072608
0.453723 0.345726 0.074106
0.484244 0.347684 0.075606
0.514796 0.349642 0.077108
0.545318 0.351599 0.078613
0.575749 0.353555 0.080121
0.606028 0.355510 0.081631
0.636096 0.357465 0.083144
0.665892 0.359420 0.084660
0.695356 0.361374 0.086179
0.724429 0.363328 0.087700
0.753050 0.365282 0.089225
0.781161 0.367236 0.090752
0.808701 0.369189 0.092282
0.835612 0.371142 0.093815
0.861835 0.373096 0.095352
0.887311 0.375049 0.096891
0.911981 0.377002 0.098433
0.923374 0.377928 0.099165
0.923374 0.377928 0.099165
0.068396 0.351237 0.057952
0.092524 0.353305 0.059480
0.117372 0.355347 0.060993
0.142977 0.357376 0.062500
0.169310 0.359394 0.064003
0.196323 0.361406 0.065504
0.223960 0.363411 0.067005
0.252164 0.365413 0.068506
0.280874 0.367410 0.070007
0.310030 0.369405 0.071510
0.339570 0.371396 0.073014
0.369434 0.373386 0.074520
0.399559 0.375373 0.076027
0.429884 0.377358 0.077537
0.460348 0.379342 0.079049
0.490890 0.381325 0.080563
0.521448 0.383306 0.082080
0.551963 0.385286 0.083599
0.582373 0.387266 0.085121
0.612618 0.389244 0.086645
0.642638 0.391221 0.088172
0.672373 0.393198 0.089702
0.701762 0.395174 0.091234
0.730746 0.397149 0.092769
0.759266 0.399124 0.094307
0.787261 0.401098 0.095848
0.814673 0.403072 0.097392
0.841442 0.405046 0.098939
0.867509 0.407019 0.100488
0.892816 0.408991 0.102041
0.917304 0.410964 0.103596
0.928607 0.411898 0.104335
0.928607 0.411898 0.104335
0.073283 0.384921 0.062733
0.097636 0.387013 0.064278
0.122691 0.389079 0.065807
0.148486 0.391130 0.067328
0.174994 0.393172 0.068847
0.202166 0.395206 0.070363
0.229948 0.397233 0.071878
0.258282 0.399256 0.073394
0.287108 0.401275 0.074910
0.316365 0.403290 0.076428
0.345993 0.405302 0.077946
0.375929 0.407312 0.079466
0.406113 0.409319 0.080989
0.436483 0.411323 0.082512
0.466978 0.413326 0.084039
0.497538 0.415328 0.085567
0.528100 0.417327 0.087098
0.558605 0.419326 0.088631
0.588991 0.421322 0.090166
0.619199 0.423318 0.091704
0.649168 0.425312 0.093245
0.678838 0.427306 0.094789
0.708149 0.429298 0.096335
0.737042 0.431290 0.097883
0.765457 0.433280 0.099435
0.793334 0.435270 0.100989
0.820614 0.437259 0.102546
0.847238 0.439247 0.104106
0.873147 0.441235 0.105669
0.898282 0.443221 0.107235
0.922585 0.445208 0.108803
0.933796 0.446149 0.109548
0.933796 0.446149 0.109548
0.078218 0.418956 0.067564
0.102792 0.421068 0.069124
0.128050 0.423152 0.070668
0.154033 0.425221 0.072205
0.180713 0.427280 0.073738
0.208041 0.429330 0.075270
0.235965 0.431374 0.076800
0.264426 0.433413 0.078330
0.293365 0.435448 0.079861
0.322720 0.437478 0.081393
0.352432 0.439506 0.082926
0.382438 0.441530 0.084460
0.412678 0.443551 0.085996
0.443091 0.445570 0.087534
0.473614 0.447587 0.089075
0.504188 0.449601 0.090617
0.534751 0.451614 0.092161
0.565243 0.453625 0.093708
0.595602 0.455634 0.095257
0.625770 0.457642 0.096809
0.655685 0.459648 0.098363
0.685288 0.461653 0.099920
0.714518 0.463656 0.101480
0.743316 0.465659 0.103042
0.771623 0.467660 0.104607
0.799379 0.469659 0.106174
0.826524 0.471658 0.107745
0.853001 0.473656 0.109318
0.878748 0.475653 0.110893
0.903709 0.477648 0.112472
0.927824 0.479643 0.114053
0.938941 0.480588 0.114804
0.938941 0.480588 0.114804
0.083200 0.453253 0.072444
0.107992 0.455378 0.074019
0.133451 0.457475 0.075578
0.159618 0.459556 0.077130
0.186466 0.461626 0.078678
0.213948 0.463688 0.080224
0.242011 0.465744 0.081768
0.270596 0.467793 0.083313
0.299644 0.469838 0.084858
0.329095 0.471879 0.086404
0.358888 0.473915 0.087951
0.388961 0.475949 0.089500
0.419254 0.477979 0.091050
0.449705 0.480007 0.092602
0.480254 0.482032 0.094156
0.510839 0.484055 0.095712
0.541400 0.486075 0.097270
0.571876 0.488093 0.098831
0.602206 0.490110 0.100393
0.632330 0.492124 0.101958
0.662188 0.494137 0.103526
0.691721 0.496147 0.105096
0.720867 0.498157 0.106669
0.749568 0.500164 0.108244
0.777764 0.502171 0.109822
0.805396 0.504175 0.111403
0.832403 0.506179 0.112986
0.858729 0.508181 0.114572
0.884312 0.510181 0.116160
0.909096 0.512181 0.117752
0.933020 0.514179 0.119346
0.944041 0.515125 0.120102
0.944041 0.515125 0.120102
0.088229 0.487720 0.077370
0.113236 0.489852 0.078961
0.138892 0.491956 0.080535
0.165240 0.494044 0.082102
0.192253 0.496121 0.083664
0.219886 0.498189 0.085224
0.248084 0.500250 0.086783
0.276790 0.502305 0.088342
0.305945 0.504355 0.089902
0.335488 0.506400 0.091462
0.365359 0.508441 0.093023
0.395496 0.510478 0.094585
0.425839 0.512512 0.096149
0.456327 0.514543 0.097715
0.486898 0.516571 0.099282
0.517491 0.518596 0.100852
0.548047 0.520619 0.102423
0.578503 0.522640 0.103997
0.608801 0.524658 0.105573
0.638879 0.526673 0.107152
0.668677 0.528687 0.108732
0.698136 0.530699 0.110316
0.727196 0.532709 0.111901
0.755797 0.534717 0.113490
0.783879 0.536723 0.115080
0.811383 0.538727 0.116674
0.838251 0.540730 0.118270
0.864422 0.542730 0.119868
0.889838 0.544730 0.121469
0.914441 0.546727 0.123073
0.938171 0.548723 0.124680
0.949097 0.549669 0.125442
0.949097 0.549669 0.125442
0.093302 0.522266 0.082344
0.118522 0.524400 0.083950
0.144372 0.526506 0.085539
0.170898 0.528595 0.087120
0.198073 0.530672 0.088697
0.225854 0.532741 0.090271
0.254184 0.534802 0.091844
0.283008 0.536857 0.093417
0.312267 0.538906 0.094990
0.341899 0.540950 0.096564
0.371845 0.542990 0.098139
0.402044 0.545026 0.099715
0.432434 0.547059 0.101293
0.462954 0.549088 0.102872
0.493545 0.551113 0.104453
0.524144 0.553136 0.106036
0.554691 0.555156 0.107620
0.585125 0.557173 0.109207
0.615387 0.559187 0.110797
0.645416 0.561199 0.112388
0.675152 0.563209 0.113982
0.704534 0.565216 0.115578
0.733504 0.567221 0.117176
0.762001 0.569224 0.118777
0.789967 0.571224 0.120381
0.817341 0.573223 0.121987
0.844065 0.575219 0.123595
0.870080 0.577214 0.125206
0.895326 0.579207 0.126820
0.919745 0.581197 0.128436
0.943279 0.583186 0.130055
0.954106 0.584128 0.130823
0.954106 0.584128 0.130823
0.098421 0.556800 0.087365
0.123849 0.558930 0.088985
0.149890 0.561032 0.090588
0.176591 0.563116 0.092184
0.203926 0.565189 0.093775
0.231851 0.567253 0.095363
0.260311 0.569309 0.096950
0.289250 0.571358 0.098537
0.318609 0.573401 0.100124
0.348328 0.575440 0.101711
0.378346 0.577473 0.103300
0.408602 0.579502 0.104889
0.439036 0.581527 0.106480
0.469587 0.583549 0.108073
0.500194 0.585567 0.109667
0.530795 0.587582 0.111263
0.561331 0.589593 0.112861
0.591741 0.591601 0.114461
0.621964 0.593607 0.116063
0.651940 0.595610 0.117667
0.681610 0.597610 0.119274
0.710914 0.599607 0.120882
0.739791 0.601602 0.122494
0.768182 0.603594 0.124107
0.796027 0.605584 0.125723
0.823269 0.607572 0.127341
0.849846 0.609557 0.128962
0.875701 0.611540 0.130585
0.900774 0.613521 0.132211
0.925007 0.615499 0.133839
0.948341 0.617476 0.135470
0.959069 0.618412 0.136244
0.959069 0.618412 0.136244
0.103584 0.591230 0.092431
0.129218 0.593351 0.094065
0.155447 0.595443 0.095683
0.182320 0.597518 0.097293
0.209811 0.599581 0.098897
0.237877 0.601634 0.100500
0.266464 0.603679 0.102101
0.295515 0.605717 0.103701
0.324971 0.607749 0.105302
0.354773 0.609776 0.106903
0.384860 0.611798 0.108504
0.415172 0.613815 0.110107
0.445647 0.615827 0.111711
0.476225 0.617836 0.113317
0.506844 0.619841 0.114924
0.537445 0.621842 0.116533
0.567967 0.623840 0.118144
0.598349 0.625835 0.119756
0.628530 0.627826 0.121371
0.658452 0.629814 0.122988
0.688053 0.631799 0.124607
0.717274 0.633782 0.126228
0.746055 0.635761 0.127852
0.774337 0.637738 0.129478
0.802060 0.639712 0.131106
0.829165 0.641683 0.132737
0.855593 0.643652 0.134370
0.881285 0.645618 0.136005
0.906182 0.647581 0.137643
0.930226 0.649542 0.139283
0.953357 0.651501 0.140926
0.963984 0.652428 0.141705
0.963984 0.652428 0.141705
0.108791 0.625466 0.097542
0.134627 0.627572 0.099191
0.161041 0.629649 0.100823
0.188083 0.631708 0.102446
0.215728 0.633756 0.104065
0.243931 0.635793 0.105681
0.272642 0.637822 0.107295
0.301801 0.639844 0.108909
0.331352 0.641859 0.110523
0.361234 0.643869 0.112137
0.391388 0.645873 0.113752
0.421751 0.647873 0.115368
0.452264 0.649868 0.116985
0.482866 0.651858 0.118603
0.513496 0.653845 0.120223
0.544093 0.655827 0.121845
0.574598 0.657806 0.123468
0.604949 0.659781 0.125094
0.635086 0.661753 0.126721
0.664949 0.663721 0.128350
0.694478 0.665687 0.129982
0.723614 0.667648 0.131615
0.752297 0.669607 0.133251
0.780466 0.671563 0.134889
0.808064 0.673515 0.136529
0.835030 0.675465 0.138172
0.861306 0.677412 0.139817
0.886832 0.679356 0.141464
0.911550 0.681297 0.143114
0.935401 0.683235 0.144766
0.958327 0.685171 0.146420
0.968852 0.686087 0.147205
0.968852 0.686087 0.147205
0.114041 0.659417 0.102698
0.140076 0.661502 0.104361
0.166672 0.663558 0.106006
0.193879 0.665596 0.107643
0.221674 0.667623 0.109276
0.250013 0.669639 0.110905
0.278844 0.671646 0.112533
0.308110 0.673646 0.114160
0.337752 0.675639 0.115787
0.367711 0.677627 0.117414
0.397927 0.679608 0.119042
0.428340 0.681585 0.120670
0.458888 0.683557 0.122300
0.489511 0.685524 0.123931
0.520148 0.687487 0.125564
0.550739 0.689445 0.127198
0.581223 0.691400 0.128834
0.611540 0.693350 0.130472
0.641630 0.695297 0.132111
0.671432 0.697240 0.133753
0.700886 0.699180 0.135397
0.729934 0.701116 0.137042
0.758515 0.703049 0.138690
0.786569 0.704978 0.140340
0.814038 0.706904 0.141992
0.840863 0.708827 0.143647
0.866983 0.710747 0.145303
0.892341 0.712663 0.146962
0.916877 0.714577 0.148624
0.940533 0.716487 0.150287
0.963250 0.718394 0.151953
0.973672 0.719297 0.152743
0.973672 0.719297 0.152743
0.119333 0.692990 0.107897
0.145565 0.695049 0.109574
0.172339 0.697079 0.111233
0.199709 0.699091 0.112884
0.227651 0.701091 0.114529
0.256122 0.703080 0.116172
0.285070 0.705060 0.117813
0.314439 0.707033 0.119453
0.344169 0.708999 0.121093
0.374203 0.710958 0.122733
0.404479 0.712912 0.124373
0.434938 0.714860 0.126015
0.465518 0.716804 0.127657
0.496159 0.718742 0.129301
0.526800 0.720676 0.130946
0.557382 0.722605 0.132592
0.587842 0.724530 0.134240
0.618122 0.726450 0.135890
0.648161 0.728367 0.137542
0.677899 0.730280 0.139196
0.707276 0.732189 0.140851
0.736233 0.734094 0.142509
0.764709 0.735995 0.144169
0.792645 0.737893 0.145830
0.819983 0.739787 0.147494
0.846662 0.741678 0.149160
0.872624 0.743565 0.150829
0.897810 0.745449 0.152499
0.922161 0.747329 0.154172
0.945619 0.749206 0.155847
0.968125 0.751080 0.157524
0.978442 0.751967 0.158319
0.978442 0.751967 0.158319
0.124667 0.726096 0.113140
0.151092 0.728123 0.114830
0.178042 0.730121 0.116503
0.205571 0.732101 0.118167
0.233657 0.734069 0.119825
0.262257 0.736026 0.121481
0.291319 0.737974 0.123135
0.320788 0.739914 0.124788
0.350604 0.741847 0.126440
0.380709 0.743773 0.128093
0.411042 0.745693 0.129746
0.441543 0.747608 0.131400
0.472152 0.749517 0.133055
0.502808 0.751421 0.134711
0.533451 0.753321 0.136368
0.564020 0.755215 0.138027
0.594455 0.757105 0.139687
0.624695 0.758991 0.141349
0.654680 0.760872 0.143012
0.684351 0.762749 0.144678
0.713648 0.764621 0.146345
0.742510 0.766490 0.148015
0.770878 0.768355 0.149686
0.798694 0.770216 0.151359
0.825897 0.772073 0.153035
0.852428 0.773926 0.154712
0.878229 0.775776 0.156392
0.903240 0.777621 0.158073
0.927404 0.779463 0.159757
0.950660 0.781302 0.161443
0.972951 0.783137 0.163132
0.983162 0.784005 0.163933
0.983162 0.784005 0.163933
0.130042 0.758642 0.118425
0.156657 0.760632 0.120129
0.183779 0.762592 0.121815
0.211465 0.764536 0.123492
0.239692 0.766466 0.125163
0.268418 0.768385 0.126832
0.297591 0.770295 0.128498
0.327156 0.772197 0.130164
0.357055 0.774092 0.131829
0.387228 0.775979 0.133494
0.417615 0.777861 0.135159
0.448156 0.779737 0.136825
0.478791 0.781607 0.138492
0.509460 0.783471 0.140160
0.540101 0.785331 0.141830
0.570654 0.787185 0.143500
0.601060 0.789035 0.145173
0.631257 0.790880 0.146846
0.661186 0.792720 0.148522
0.690787 0.794556 0.150199
0.719999 0.796387 0.151878
0.748764 0.798214 0.153559
0.777022 0.800037 0.155241
0.804714 0.801856 0.156926
0.831779 0.803670 0.158613
0.858160 0.805481 0.160301
0.883796 0.807287 0.161992
0.908630 0.809090 0.163685
0.932603 0.810888 0.165380
0.955655 0.812683 0.167077
0.977729 0.814474 0.168776
0.987832 0.815321 0.169582
0.987832 0.815321 0.169582
0.135458 0.790539 0.123751
0.162259 0.792485 0.125469
0.189551 0.794403 0.127168
0.217389 0.796303 0.128858
0.245754 0.798190 0.130542
0.274604 0.800066 0.132223
0.303885 0.801933 0.133902
0.333544 0.803791 0.135580
0.363522 0.805642 0.137258
0.393760 0.807486 0.138935
0.424198 0.809324 0.140612
0.454776 0.811155 0.142291
0.485434 0.812980 0.143970
0.516112 0.814800 0.145649
0.546748 0.816614 0.147331
0.577283 0.818423 0.149013
0.607656 0.820227 0.150697
0.637808 0.822026 0.152382
0.667677 0.823820 0.154069
0.697205 0.825610 0.155758
0.726331 0.827394 0.157448
0.754996 0.829175 0.159140
0.783140 0.830950 0.160834
0.810705 0.832721 0.162530
0.837630 0.834488 0.164228
0.863857 0.836251 0.165928
0.889326 0.838009 0.167629
0.913979 0.839763 0.169333
0.937758 0.841513 0.171039
0.960603 0.843258 0.172747
0.982457 0.844999 0.174456
0.992451 0.845823 0.175268
0.992451 0.845823 0.175268
0.140913 0.821694 0.129119
0.167898 0.823592 0.130850
0.195356 0.825461 0.132562
0.223345 0.827313 0.134264
0.251845 0.829151 0.135961
0.280813 0.830979 0.137655
0.310200 0.832797 0.139346
0.339950 0.834606 0.141036
0.370004 0.836408 0.142726
0.400304 0.838203 0.144415
0.430790 0.839990 0.146105
0.461402 0.841772 0.147795
0.492080 0.843547 0.149485
0.522764 0.845317 0.151177
0.553393 0.847081 0.152870
0.583906 0.848839 0.154564
0.614244 0.850592 0.156259
0.644347 0.852340 0.157956
0.674154 0.854082 0.159654
0.703605 0.855820 0.161354
0.732642 0.857553 0.163055
0.761204 0.859280 0.164759
0.789232 0.861004 0.166464
0.816666 0.862722 0.168171
0.843448 0.864436 0.169879
0.869518 0.866145 0.171590
0.894817 0.867849 0.173302
