cinelut/luts/french-dispatch.cube
# CineLUT — The French Dispatch (2021)
# Gerado por generate_luts.py
LUT_3D_SIZE 5
0.013694 0.007687 0.004627
0.208099 0.018264 0.015099
0.441783 0.028936 0.025672
0.683273 0.039819 0.036460
0.863147 0.048797 0.045363
0.049335 0.221849 0.039327
0.256182 0.236859 0.050881
0.494844 0.251700 0.062479
0.734266 0.266552 0.074252
0.907424 0.278608 0.083925
0.088229 0.487720 0.077370
0.305945 0.504355 0.089902
0.548047 0.520619 0.102423
0.783879 0.536723 0.115080
0.949097 0.549669 0.125442
0.130042 0.758642 0.118425
0.357055 0.774092 0.131829
0.601060 0.789035 0.145173
0.831779 0.803670 0.158613
0.987832 0.815321 0.169582
0.172622 0.980167 0.160360
0.407079 0.991836 0.174504
0.651464 1.000000 0.188541
0.875843 1.000000 0.202639
1.000000 1.000000 0.214115
0.016822 0.010755 0.157947
0.212434 0.021435 0.172053
0.446639 0.032204 0.186053
0.688003 0.043181 0.200116
0.867311 0.052232 0.211566
0.052775 0.226236 0.203817
0.260685 0.241299 0.218598
0.499727 0.256189 0.233226
0.738883 0.271087 0.247880
0.911363 0.283177 0.259784
0.091950 0.492602 0.251731
0.310586 0.509239 0.267082
0.552926 0.525504 0.282237
0.788352 0.541605 0.297381
0.952780 0.554548 0.309657
0.134015 0.763193 0.301355
0.361803 0.778596 0.317173
0.605905 0.793491 0.332752
0.836079 0.808077 0.348286
0.991229 0.819685 0.360853
0.176807 0.983625 0.350294
0.411901 0.995200 0.366462
0.656248 1.000000 0.382352
0.879947 1.000000 0.398166
1.000000 1.000000 0.410937
0.020117 0.013989 0.356280
0.216975 0.024775 0.372484
0.451711 0.035645 0.388406
0.692929 0.046720 0.404247
0.871636 0.055846 0.417037
0.056393 0.230830 0.408392
0.265399 0.245948 0.424846
0.504823 0.260888 0.440981
0.743688 0.275833 0.457003
0.915450 0.287959 0.469916
0.095860 0.497697 0.461190
0.315440 0.514337 0.477790
0.558016 0.530602 0.494037
0.793005 0.546699 0.510138
0.956597 0.559637 0.523094
0.138184 0.767928 0.514341
0.366766 0.783282 0.530983
0.610956 0.798126 0.547240
0.840547 0.812658 0.563321
0.994744 0.824221 0.576237
0.181195 0.987204 0.565390
0.416938 0.998680 0.581975
0.661232 1.000000 0.598146
0.884208 1.000000 0.614111
1.000000 1.000000 0.626914
0.023480 0.017291 0.573860
0.221583 0.028184 0.590426
0.456840 0.039155 0.606573
0.697897 0.050326 0.622511
0.875985 0.059528 0.635287
0.060080 0.235492 0.626660
0.270178 0.250663 0.643048
0.509975 0.265653 0.658989
0.748531 0.280645 0.674692
0.919555 0.292805 0.687258
0.099838 0.502847 0.678775
0.320358 0.519489 0.694880
0.563158 0.535752 0.710514
0.797691 0.551846 0.725881
0.960427 0.564778 0.738156
0.142421 0.772698 0.729872
0.371791 0.788002 0.745591
0.616056 0.802793 0.760815
0.845043 0.817270 0.775747
0.998266 0.828786 0.787648
0.185651 0.990792 0.777659
0.422035 1.000000 0.792908
0.666260 1.000000 0.807644
0.888492 1.000000 0.822062
1.000000 1.000000 0.833530
0.026900 0.020650 0.786858
0.226242 0.031648 0.802004
0.462009 0.042720 0.816633
0.702888 0.053988 0.830940
0.880342 0.063266 0.842313
0.063822 0.240202 0.834643
0.275006 0.255427 0.849179
0.515163 0.270467 0.863180
0.753394 0.285504 0.876834
0.923664 0.297699 0.887661
0.103870 0.508034 0.880362
0.325323 0.524677 0.894184
0.568333 0.540938 0.907455
0.802392 0.557026 0.920356
0.964254 0.569952 0.930555
0.146711 0.777486 0.923683
0.376859 0.792738 0.936686
0.621185 0.807475 0.949126
0.849550 0.821896 0.961173
1.000000 0.833365 0.970663
0.190158 0.994373 0.962705
0.427173 1.000000 0.974824
0.671315 1.000000 0.986370
0.892783 1.000000 0.997503
1.000000 1.000000 1.000000
