cinelut/luts/french-dispatch.cube
# CineLUT — The French Dispatch (2021)
# Gerado por generate_luts.py
LUT_3D_SIZE 9
0.013694 0.007687 0.004627
0.104085 0.012986 0.009872
0.208099 0.018264 0.015099
0.321996 0.023576 0.020361
0.441783 0.028936 0.025672
0.563508 0.034349 0.031037
0.683273 0.039819 0.036460
0.797233 0.045348 0.041942
0.863147 0.048797 0.045363
0.031087 0.105388 0.021538
0.125185 0.111994 0.027065
0.231909 0.118532 0.032564
0.347595 0.125072 0.038092
0.468275 0.131632 0.043662
0.590012 0.138220 0.049283
0.708921 0.144840 0.054956
0.821165 0.151495 0.060683
0.885590 0.155630 0.064254
0.049335 0.221849 0.039327
0.146940 0.229408 0.045123
0.256182 0.236859 0.050881
0.373463 0.244282 0.056661
0.494844 0.251700 0.062479
0.616403 0.259121 0.068341
0.734266 0.266552 0.074252
0.844604 0.273996 0.080213
0.907424 0.278608 0.083925
0.068396 0.351237 0.057952
0.169310 0.359394 0.064003
0.280874 0.367410 0.070007
0.399559 0.375373 0.076027
0.521448 0.383306 0.082080
0.642638 0.391221 0.088172
0.759266 0.399124 0.094307
0.867509 0.407019 0.100488
0.928607 0.411898 0.104335
0.088229 0.487720 0.077370
0.192253 0.496121 0.083664
0.305945 0.504355 0.089902
0.425839 0.512512 0.096149
0.548047 0.520619 0.102423
0.668677 0.528687 0.108732
0.783879 0.536723 0.115080
0.889838 0.544730 0.121469
0.949097 0.549669 0.125442
0.108791 0.625466 0.097542
0.215728 0.633756 0.104065
0.331352 0.641859 0.110523
0.452264 0.649868 0.116985
0.574598 0.657806 0.123468
0.694478 0.665687 0.129982
0.808064 0.673515 0.136529
0.911550 0.681297 0.143114
0.968852 0.686087 0.147205
0.130042 0.758642 0.118425
0.239692 0.766466 0.125163
0.357055 0.774092 0.131829
0.478791 0.781607 0.138492
0.601060 0.789035 0.145173
0.719999 0.796387 0.151878
0.831779 0.803670 0.158613
0.932603 0.810888 0.165380
0.987832 0.815321 0.169582
0.151940 0.881416 0.139976
0.264104 0.888418 0.146918
0.383011 0.895219 0.153778
0.505379 0.901897 0.160631
0.627391 0.908472 0.167495
0.745199 0.914956 0.174379
0.854983 0.921355 0.181289
0.952955 0.927671 0.188226
1.000000 0.931537 0.192532
0.172622 0.980167 0.160360
0.286924 0.986101 0.167476
0.407079 0.991836 0.174504
0.529858 0.997438 0.181519
0.651464 1.000000 0.188541
0.768063 1.000000 0.195579
0.875843 1.000000 0.202639
0.971024 1.000000 0.209722
1.000000 1.000000 0.214115
0.015209 0.009173 0.073292
0.105939 0.014497 0.079537
0.210201 0.019800 0.085727
0.324266 0.025136 0.091929
0.444141 0.030519 0.098158
0.565874 0.035955 0.104423
0.685571 0.041448 0.110728
0.799385 0.046999 0.117075
0.865171 0.050461 0.121023
0.032680 0.107245 0.093311
0.127098 0.113870 0.099788
0.234055 0.120427 0.106201
0.349891 0.126985 0.112620
0.470641 0.133563 0.119061
0.592370 0.140168 0.125534
0.711193 0.146805 0.132041
0.823275 0.153476 0.138586
0.887562 0.157621 0.142653
0.051002 0.223977 0.114050
0.148910 0.231549 0.120746
0.258366 0.239013 0.127369
0.375781 0.246448 0.133992
0.497215 0.253878 0.140633
0.618748 0.261310 0.147299
0.736509 0.268753 0.153997
0.846668 0.276207 0.160727
0.909339 0.280825 0.164907
0.070133 0.353536 0.135467
0.171333 0.361700 0.142368
0.283094 0.369723 0.149189
0.401894 0.377692 0.156004
0.523820 0.385631 0.162831
0.644968 0.393552 0.169679
0.761476 0.401460 0.176554
0.869524 0.409359 0.183457
0.930462 0.414241 0.187742
0.090033 0.490090 0.157521
0.194325 0.498492 0.164614
0.308197 0.506726 0.171620
0.428190 0.514884 0.178613
0.550416 0.522991 0.185614
0.670988 0.531059 0.192631
0.786053 0.539094 0.199670
0.891800 0.547100 0.206734
0.950888 0.552038 0.211116
0.110658 0.627807 0.180169
0.217845 0.636091 0.187441
0.333632 0.644189 0.194619
0.454625 0.652192 0.201778
0.576961 0.660125 0.208940
0.696765 0.667999 0.216114
0.810198 0.675822 0.223305
0.913454 0.683596 0.230517
0.970576 0.688382 0.234988
0.131969 0.760854 0.203370
0.241850 0.768666 0.210809
0.359359 0.776281 0.218145
0.481160 0.783784 0.225457
0.603413 0.791200 0.232768
0.722259 0.798541 0.240086
0.833869 0.805812 0.247417
0.934446 0.813017 0.254764
0.989485 0.817442 0.259316
0.153922 0.883398 0.227083
0.266301 0.890383 0.234675
0.385336 0.897167 0.242157
0.507751 0.903827 0.249610
0.629730 0.910385 0.257056
0.747428 0.916851 0.264505
0.857025 0.923231 0.271963
0.954734 0.929529 0.279433
1.000000 0.933384 0.284059
0.174652 0.981849 0.249315
0.289152 0.987760 0.257036
0.409419 0.993473 0.264640
0.532230 0.999052 0.272212
0.653787 1.000000 0.279771
0.770261 1.000000 0.287330
0.877839 1.000000 0.294894
0.972740 1.000000 0.302466
1.000000 1.000000 0.307154
0.016822 0.010755 0.157947
0.107908 0.016106 0.165044
0.212434 0.021435 0.172053
0.326674 0.026796 0.179049
0.446639 0.032204 0.186053
0.568380 0.037665 0.193074
0.688003 0.043181 0.200116
0.801662 0.048756 0.207183
0.867311 0.052232 0.211566
0.034375 0.109218 0.180606
0.129131 0.115864 0.187882
0.236332 0.122441 0.195062
0.352326 0.129018 0.202224
0.473148 0.135614 0.209389
0.594867 0.142237 0.216566
0.713598 0.148892 0.223760
0.825506 0.155580 0.230975
0.889646 0.159735 0.235447
0.052775 0.226236 0.203817
0.151002 0.233822 0.211259
0.260685 0.241299 0.218598
0.378239 0.248747 0.225913
0.499727 0.256189 0.233226
0.621232 0.263634 0.240547
0.738883 0.271087 0.247880
0.848851 0.278553 0.255230
0.911363 0.283177 0.259784
0.071981 0.355974 0.227540
0.173481 0.364146 0.235134
0.285450 0.372176 0.242618
0.404371 0.380151 0.250074
0.526333 0.388096 0.257523
0.647435 0.396023 0.264974
0.763815 0.403936 0.272435
0.871653 0.411840 0.279906
0.932422 0.416725 0.284535
0.091950 0.492602 0.251731
0.196524 0.501004 0.259465
0.310586 0.509239 0.267082
0.430681 0.517398 0.274665
0.552926 0.525504 0.282237
0.673433 0.533571 0.289807
0.788352 0.541605 0.297381
0.893872 0.549610 0.304963
0.952780 0.554548 0.309657
0.112642 0.630285 0.276350
0.220092 0.638564 0.284210
0.336050 0.646657 0.291947
0.457128 0.654654 0.299645
0.579464 0.662580 0.307327
0.699186 0.670448 0.315003
0.812454 0.678263 0.322679
0.915466 0.686030 0.330358
0.972396 0.690812 0.335111
0.134015 0.763193 0.301355
0.244141 0.770993 0.309329
0.361803 0.778596 0.317173
0.483670 0.786088 0.324973
0.605905 0.793491 0.332752
0.724651 0.800819 0.340521
0.836079 0.808077 0.348286
0.936393 0.815268 0.356050
0.991229 0.819685 0.360853
0.156027 0.885493 0.326704
0.268632 0.892460 0.334778
0.387801 0.899225 0.342716
0.510264 0.905866 0.350605
0.632207 0.912405 0.358469
0.749787 0.918852 0.366319
0.859184 0.925213 0.374161
0.956612 0.931492 0.381998
1.000000 0.935334 0.386843
0.176807 0.983625 0.350294
0.291516 0.989512 0.358448
0.411901 0.995200 0.366462
0.534742 1.000000 0.374422
0.656248 1.000000 0.382352
0.772586 1.000000 0.390265
0.879947 1.000000 0.398166
0.974552 1.000000 0.406058
1.000000 1.000000 0.410937
0.018460 0.012362 0.253244
0.109905 0.017740 0.260986
0.214694 0.023095 0.268611
0.329110 0.028482 0.276202
0.449166 0.033915 0.283780
0.570913 0.039400 0.291357
0.690458 0.044941 0.298938
0.803958 0.050538 0.306527
0.869469 0.054029 0.311225
0.036095 0.111219 0.277888
0.131191 0.117886 0.285756
0.238638 0.124482 0.293500
0.354789 0.131078 0.301204
0.475683 0.137693 0.308893
0.597390 0.144334 0.316575
0.716026 0.151006 0.324256
0.827757 0.157712 0.331942
0.891746 0.161878 0.336697
0.054574 0.228523 0.302916
0.153122 0.236123 0.310896
0.263032 0.243613 0.318746
0.380724 0.251074 0.326552
0.502266 0.258528 0.334337
0.623741 0.265985 0.342111
0.741279 0.273450 0.349881
0.851052 0.280927 0.357651
0.913402 0.285558 0.362456
0.073855 0.358441 0.328285
0.175657 0.366620 0.336364
0.287834 0.374657 0.344308
0.406876 0.382638 0.352202
0.528873 0.390590 0.360071
0.649926 0.398522 0.367925
0.766175 0.406440 0.375771
0.873800 0.414349 0.383612
0.934396 0.419237 0.388460
0.093895 0.495140 0.353954
0.198752 0.503544 0.362120
0.313003 0.511779 0.370144
0.433201 0.519938 0.378114
0.555463 0.528044 0.386054
0.675903 0.536111 0.393976
0.790673 0.544144 0.401884
0.895961 0.552147 0.409785
0.954685 0.557084 0.414667
0.114654 0.632789 0.379882
0.222367 0.641062 0.388121
0.338497 0.649149 0.396212
0.459658 0.657139 0.404245
0.581993 0.665059 0.412244
0.701630 0.672920 0.420220
0.814731 0.680728 0.428180
0.917493 0.688488 0.436127
0.974229 0.693264 0.441036
0.136090 0.765554 0.406027
0.246461 0.773342 0.414326
0.364274 0.780933 0.422472
0.486207 0.788412 0.430555
0.608422 0.795803 0.438600
0.727066 0.803117 0.446618
0.838308 0.810361 0.454615
0.938354 0.817539 0.462596
0.992984 0.821947 0.467525
0.158161 0.887604 0.432347
0.270991 0.894552 0.440693
0.390294 0.901299 0.448880
0.512804 0.907922 0.457001
0.634709 0.914442 0.465079
0.752168 0.920869 0.473127
0.861361 0.927211 0.481150
0.958503 0.933469 0.489152
1.000000 0.937299 0.494092
0.178991 0.985412 0.456681
0.293908 0.991274 0.465058
0.414410 0.996938 0.473273
0.537281 1.000000 0.481416
0.658732 1.000000 0.489514
0.774932 1.000000 0.497577
0.882073 1.000000 0.505613
0.976376 1.000000 0.513624
1.000000 1.000000 0.518568
0.020117 0.013989 0.356280
0.111922 0.019394 0.364453
0.216975 0.024775 0.372484
0.331566 0.030187 0.380460
0.451711 0.035645 0.388406
0.573462 0.041155 0.396333
0.692929 0.046720 0.404247
0.806267 0.052341 0.412152
0.871636 0.055846 0.417037
0.037835 0.113240 0.382230
0.133272 0.119927 0.390474
0.240964 0.126543 0.398571
0.357271 0.133159 0.406609
0.478236 0.139792 0.414613
0.599929 0.146451 0.422593
0.718468 0.153141 0.430556
0.830019 0.159865 0.438507
0.893855 0.164041 0.443419
0.056393 0.230830 0.408392
0.155263 0.238445 0.416695
0.265399 0.245948 0.424846
0.383229 0.253422 0.432933
0.504823 0.260888 0.440981
0.626266 0.268357 0.449002
0.743688 0.275833 0.457003
0.853263 0.283321 0.464986
0.915450 0.287959 0.469916
0.075748 0.360927 0.434726
0.177853 0.369113 0.443075
0.290238 0.377157 0.451266
0.409399 0.385145 0.459389
0.531430 0.393102 0.467470
0.652433 0.401040 0.475519
0.768547 0.408964 0.483544
0.875956 0.416877 0.491548
0.936377 0.421768 0.496488
0.095860 0.497697 0.461190
0.201000 0.506101 0.469571
0.315440 0.514337 0.477790
0.435739 0.522495 0.485937
0.558016 0.530602 0.494037
0.678388 0.538667 0.502102
0.793005 0.546699 0.510138
0.898059 0.554701 0.518150
0.956597 0.559637 0.523094
0.116686 0.635308 0.487742
0.224663 0.643575 0.496143
0.340963 0.651656 0.504376
0.462207 0.659640 0.512534
0.584538 0.667554 0.520641
0.704088 0.675407 0.528709
0.817019 0.683208 0.536744
0.919528 0.690960 0.544751
0.976066 0.695732 0.549691
0.138184 0.767928 0.514341
0.248800 0.775704 0.522748
0.366766 0.783282 0.530983
0.488762 0.790748 0.539139
0.610956 0.798126 0.547240
0.729494 0.805427 0.555299
0.840547 0.812658 0.563321
0.940323 0.819822 0.571311
0.994744 0.824221 0.576237
0.160314 0.889725 0.540945
0.273370 0.896654 0.549345
0.392806 0.903382 0.557570
0.515362 0.909985 0.565711
0.637227 0.916486 0.573793
0.754562 0.922894 0.581829
0.863548 0.929215 0.589825
0.960401 0.935453 0.597786
1.000000 0.939271 0.602692
0.181195 0.987204 0.565390
0.296321 0.993042 0.573772
0.416938 0.998680 0.581975
0.539838 1.000000 0.590091
0.661232 1.000000 0.598146
0.777291 1.000000 0.606150
0.884208 1.000000 0.614111
0.978205 1.000000 0.622033
1.000000 1.000000 0.626914
0.021791 0.015633 0.464139
0.113955 0.021065 0.472523
0.219272 0.026472 0.480744
0.334038 0.031910 0.488892
0.454270 0.037392 0.496994
0.576024 0.042927 0.505060
0.695409 0.048515 0.513097
0.808583 0.054160 0.521109
0.873809 0.057680 0.526052
0.039592 0.115278 0.490698
0.135369 0.121986 0.499100
0.243306 0.128621 0.507334
0.359769 0.135256 0.515493
0.480803 0.141907 0.523600
0.602480 0.148585 0.531667
0.720919 0.155293 0.539702
0.832287 0.162034 0.547707
0.895970 0.166220 0.552646
0.058229 0.233154 0.517300
0.157420 0.240782 0.525706
0.267782 0.248299 0.533941
0.385749 0.255785 0.542096
0.507394 0.263264 0.550196
0.628802 0.270744 0.558252
0.746106 0.278232 0.566272
0.855480 0.285731 0.574259
0.917502 0.290375 0.579184
0.077659 0.363428 0.543902
0.180066 0.371622 0.552300
0.292658 0.379672 0.560523
0.411937 0.387666 0.568661
0.534001 0.395629 0.576741
0.654951 0.403572 0.584774
0.770929 0.411501 0.592766
0.878118 0.419420 0.600722
0.938363 0.424314 0.605626
0.097841 0.500266 0.570463
0.203265 0.508672 0.578840
0.317893 0.516908 0.587037
0.438291 0.525066 0.595147
0.560582 0.533172 0.603194
0.680882 0.541237 0.611190
0.795345 0.549267 0.619143
0.900161 0.557268 0.627055
0.958511 0.562202 0.631930
0.118734 0.637838 0.596942
0.226975 0.646100 0.605283
0.343444 0.654174 0.613443
0.464769 0.662152 0.621511
0.587096 0.670058 0.629512
0.706556 0.677905 0.637460
0.819314 0.685698 0.645360
0.921567 0.693443 0.653216
0.977906 0.698209 0.658055
0.140295 0.770310 0.623296
0.251156 0.778073 0.631589
0.369272 0.785639 0.639698
0.491330 0.793092 0.647711
0.613501 0.800457 0.655655
0.731931 0.807744 0.663541
0.842793 0.814961 0.671376
0.942295 0.822111 0.679164
0.996505 0.826501 0.683958
0.162484 0.891850 0.649484
0.275766 0.898760 0.657717
0.395333 0.905469 0.665761
0.517933 0.912053 0.673707
0.639756 0.918535 0.681581
0.756964 0.924923 0.689393
0.865741 0.931224 0.697150
0.962302 0.937442 0.704856
1.000000 0.941246 0.709599
0.183416 0.988998 0.673395
0.298749 0.994810 0.681560
0.419481 1.000000 0.689534
0.542407 1.000000 0.697407
0.663742 1.000000 0.705204
0.779658 1.000000 0.712937
0.886349 1.000000 0.720612
0.980036 1.000000 0.728233
1.000000 1.000000 0.732920
0.023480 0.017291 0.573860
0.116004 0.022750 0.582233
0.221583 0.028184 0.590426
0.336522 0.033647 0.598531
0.456840 0.039155 0.606573
0.578595 0.044713 0.614564
0.697897 0.050326 0.622511
0.810904 0.055994 0.630417
0.875985 0.059528 0.635287
0.041365 0.117331 0.600325
0.137481 0.124059 0.608661
0.245662 0.130714 0.616815
0.362279 0.137367 0.624876
0.483381 0.144038 0.632872
0.605040 0.150733 0.640812
0.723377 0.157459 0.648704
0.834560 0.164217 0.656553
0.898087 0.168414 0.661386
0.060080 0.235492 0.626660
0.159592 0.243133 0.634947
0.270178 0.250663 0.643048
0.388281 0.258162 0.651053
0.509975 0.265653 0.658989
0.631347 0.273145 0.666866
0.748531 0.280645 0.674692
0.857701 0.288154 0.682470
0.919555 0.292805 0.687258
0.079585 0.365941 0.652824
0.182293 0.374142 0.661048
0.295091 0.382199 0.669083
0.414487 0.390200 0.677020
0.536581 0.398169 0.684884
0.657476 0.406117 0.692685
0.773316 0.414051 0.700431
0.880284 0.421975 0.708127
0.940349 0.426871 0.712862
0.099838 0.502847 0.678775
0.205543 0.511253 0.686923
0.320358 0.519489 0.694880
0.440855 0.527647 0.702735
0.563158 0.535752 0.710514
0.683385 0.543816 0.718227
0.797691 0.551846 0.725881
0.902267 0.559845 0.733481
0.960427 0.564778 0.738156
0.120797 0.640377 0.704472
0.229301 0.648633 0.712531
0.345939 0.656701 0.720396
0.467343 0.664672 0.728157
0.589663 0.672571 0.735838
0.709032 0.680410 0.743450
0.821614 0.688196 0.751000
0.923609 0.695933 0.758493
0.979746 0.700694 0.763099
0.142421 0.772698 0.729872
0.253525 0.780449 0.737829
0.371791 0.788002 0.745591
0.493910 0.795442 0.753245
0.616056 0.802793 0.760815
0.734375 0.810067 0.768314
0.845043 0.817270 0.775747
0.944268 0.824406 0.783118
0.998266 0.828786 0.787648
0.164669 0.893979 0.754935
0.278174 0.900870 0.762777
0.397873 0.907559 0.770421
0.520514 0.914124 0.777955
0.642294 0.920585 0.785403
0.759373 0.926953 0.792775
0.867938 0.933234 0.800079
0.964203 0.939431 0.807318
1.000000 0.943223 0.811763
0.185651 0.990792 0.777659
0.301190 0.996578 0.785383
0.422035 1.000000 0.792908
0.544987 1.000000 0.800321
0.666260 1.000000 0.807644
0.782031 1.000000 0.814889
0.888492 1.000000 0.822062
0.981867 1.000000 0.829168
1.000000 1.000000 0.833530
0.025184 0.018964 0.682445
0.118066 0.024450 0.690582
0.223907 0.029909 0.698526
0.339017 0.035398 0.706369
0.459420 0.040931 0.714134
0.581174 0.046514 0.721834
0.700390 0.052151 0.729474
0.813228 0.057843 0.737060
0.878163 0.061391 0.741725
0.043151 0.119397 0.708102
0.139607 0.126145 0.716148
0.248030 0.132820 0.723999
0.364800 0.139492 0.731746
0.485968 0.146181 0.739412
0.607607 0.152895 0.747009
0.725841 0.159638 0.754543
0.836836 0.166413 0.762019
0.900205 0.170620 0.766614
0.061945 0.237841 0.733458
0.161776 0.245497 0.741399
0.272587 0.253040 0.749144
0.390824 0.260552 0.756782
0.512565 0.268054 0.764336
0.633900 0.275558 0.771817
0.750960 0.283069 0.779233
0.859924 0.290590 0.786586
0.921610 0.295247 0.791105
0.081524 0.368466 0.758469
0.184533 0.376674 0.766293
0.297536 0.384737 0.773920
0.417048 0.392744 0.781436
0.539170 0.400719 0.788865
0.660009 0.408672 0.796218
0.775707 0.416611 0.803502
0.882451 0.424539 0.810721
0.942336 0.429438 0.815155
0.101848 0.505437 0.783095
0.207834 0.513843 0.790789
0.322835 0.522079 0.798284
0.443429 0.530237 0.805666
0.565742 0.538342 0.812957
0.685894 0.546405 0.820170
0.800040 0.554432 0.827310
0.904373 0.562430 0.834382
0.962341 0.567361 0.838722
0.122874 0.642923 0.807295
0.231640 0.651172 0.814845
0.348444 0.659234 0.822195
0.469927 0.667198 0.829430
0.592238 0.675090 0.836571
0.711513 0.682922 0.843631
0.823917 0.690700 0.850614
0.925650 0.698428 0.857526
0.981585 0.703184 0.861767
0.144560 0.775091 0.831026
0.255907 0.782829 0.838419
0.374320 0.790368 0.845612
0.496499 0.797795 0.852687
0.618617 0.805133 0.859665
0.736825 0.812393 0.866559
0.847296 0.819582 0.873374
0.946241 0.826703 0.880113
1.000000 0.831075 0.884245
0.166866 0.896109 0.854247
0.280595 0.902980 0.861471
0.400422 0.909650 0.868493
0.523104 0.916195 0.875395
0.644838 0.922636 0.882198
0.761787 0.928984 0.888913
0.870136 0.935245 0.895546
0.966103 0.941421 0.902101
1.000000 0.945200 0.906117
0.187898 0.992583 0.875124
0.303643 0.998345 0.882180
0.424600 1.000000 0.889034
0.547575 1.000000 0.895766
0.668785 1.000000 0.902396
0.784408 1.000000 0.908936
0.890637 1.000000 0.915391
0.983697 1.000000 0.921765
1.000000 1.000000 0.925668
0.026900 0.020650 0.786858
0.120140 0.026163 0.794531
0.226242 0.031648 0.802004
0.341523 0.037163 0.809364
0.462009 0.042720 0.816633
0.583760 0.048328 0.823823
0.702888 0.053988 0.830940
0.815555 0.059704 0.837988
0.880342 0.063266 0.842313
0.044950 0.121475 0.810988
0.141744 0.128244 0.818515
0.250409 0.134938 0.825842
0.367331 0.141629 0.833053
0.488563 0.148337 0.840170
0.610181 0.155068 0.847204
0.728309 0.161829 0.854163
0.839114 0.168621 0.861049
0.902324 0.172839 0.865273
0.063822 0.240202 0.834643
0.163973 0.247872 0.842011
0.275006 0.255427 0.849179
0.393376 0.262952 0.856228
0.515163 0.270467 0.863180
0.636457 0.277982 0.870047
0.753394 0.285504 0.876834
0.862149 0.293035 0.883546
0.923664 0.297699 0.887661
0.083476 0.371000 0.857782
0.186784 0.379215 0.864978
0.299991 0.387285 0.871973
0.419617 0.395298 0.878847
0.541767 0.403278 0.885622
0.662547 0.411237 0.892309
0.778102 0.419180 0.898913
0.884618 0.427113 0.905438
0.944321 0.432014 0.909436
0.103870 0.508034 0.880362
0.210137 0.516441 0.887374
0.325323 0.524677 0.894184
0.446012 0.532834 0.900870
0.568333 0.540938 0.907455
0.688408 0.549000 0.913949
0.802392 0.557026 0.920356
0.906479 0.565021 0.926682
0.964254 0.569952 0.930555
0.124963 0.645474 0.902343
0.233989 0.653717 0.909157
0.350959 0.661772 0.915768
0.472518 0.669730 0.922255
0.594819 0.677615 0.928637
0.713998 0.685439 0.934925
0.826222 0.693209 0.941124
0.927692 0.700929 0.947238
0.983421 0.705679 0.950978
0.146711 0.777486 0.923683
0.258299 0.785211 0.930285
0.376859 0.792738 0.936686
0.499096 0.800151 0.942959
0.621185 0.807475 0.949126
0.739278 0.814721 0.955195
0.849550 0.821896 0.961173
0.948213 0.829002 0.967063
1.000000 0.833365 0.970663
0.169075 0.898239 0.944340
0.283026 0.905091 0.950717
0.402981 0.911741 0.956894
0.525702 0.918266 0.962942
0.647388 0.924687 0.968880
0.764204 0.931015 0.974719
0.872336 0.937255 0.980463
0.968002 0.943410 0.986116
1.000000 0.947175 0.989568
0.190158 0.994373 0.962705
0.306107 1.000000 0.968864
0.427173 1.000000 0.974824
0.550170 1.000000 0.980653
0.671315 1.000000 0.986370
0.786788 1.000000 0.991985
0.892783 1.000000 0.997503
0.985525 1.000000 1.000000
1.000000 1.000000 1.000000
