cinelut/luts/isle-of-dogs.cube
# CineLUT — Isle of Dogs (2018)
# Gerado por generate_luts.py
LUT_3D_SIZE 9
0.023570 0.016886 0.009519
0.108003 0.027089 0.019670
0.194500 0.037171 0.029702
0.282939 0.047226 0.039709
0.372728 0.057283 0.049719
0.463192 0.067353 0.059743
0.553628 0.077444 0.069790
0.643326 0.087559 0.079862
0.698456 0.093868 0.086145
0.056652 0.121057 0.042293
0.142670 0.131884 0.052667
0.230388 0.142562 0.062913
0.319705 0.153192 0.073127
0.410043 0.163804 0.083337
0.500731 0.174412 0.093557
0.591072 0.185023 0.103792
0.680358 0.195643 0.114048
0.735072 0.202257 0.120442
0.090405 0.230684 0.075764
0.177873 0.241970 0.086344
0.266674 0.253083 0.096787
0.356737 0.264128 0.107191
0.447490 0.275137 0.117585
0.538269 0.286125 0.127982
0.628382 0.297099 0.138390
0.717124 0.308065 0.148814
0.771341 0.314887 0.155309
0.124777 0.344136 0.109875
0.213555 0.355717 0.120644
0.303305 0.367104 0.131268
0.393978 0.378404 0.141845
0.485013 0.389651 0.152407
0.575752 0.400861 0.162966
0.665504 0.412040 0.173530
0.753570 0.423196 0.184104
0.807208 0.430128 0.190690
0.159711 0.459783 0.144573
0.249662 0.471494 0.155514
0.340226 0.482993 0.166301
0.431375 0.494389 0.177036
0.522559 0.505716 0.187748
0.613123 0.516988 0.198452
0.702383 0.528216 0.209156
0.789641 0.539405 0.219865
0.842618 0.546350 0.226532
0.195153 0.575994 0.179803
0.286138 0.587672 0.190899
0.377381 0.599121 0.201832
0.468873 0.610453 0.212707
0.560071 0.621700 0.223554
0.650329 0.632878 0.234386
0.738965 0.643997 0.245214
0.825282 0.655062 0.256040
0.877517 0.661921 0.262779
0.231049 0.691138 0.215510
0.322930 0.702618 0.226743
0.414715 0.713857 0.237806
0.506415 0.724965 0.248804
0.597496 0.735973 0.259769
0.687314 0.746899 0.270714
0.775193 0.757751 0.281648
0.860439 0.768535 0.292576
0.911849 0.775212 0.299375
0.267342 0.803585 0.251638
0.359982 0.814703 0.262991
0.452174 0.825570 0.274168
0.543949 0.836294 0.285273
0.634778 0.846906 0.296339
0.724024 0.857421 0.307380
0.811014 0.867849 0.318404
0.895057 0.878194 0.329418
0.945560 0.884592 0.336267
0.298684 0.896464 0.282858
0.391864 0.907141 0.294300
0.484297 0.917563 0.305560
0.576028 0.927831 0.316744
0.666536 0.937977 0.327883
0.755188 0.948015 0.338993
0.841311 0.957954 0.350082
0.924219 0.967800 0.361155
0.973881 0.973881 0.368040
0.026392 0.019695 0.071574
0.110967 0.029917 0.082130
0.197575 0.040018 0.092549
0.286094 0.050092 0.102931
0.375936 0.060166 0.113303
0.466424 0.070253 0.123679
0.556858 0.080360 0.134066
0.646526 0.090492 0.144470
0.701623 0.096811 0.150953
0.059534 0.124040 0.105609
0.145683 0.134881 0.116356
0.233499 0.145574 0.126958
0.322886 0.156218 0.137515
0.413264 0.166843 0.148056
0.503966 0.177464 0.158596
0.594292 0.188087 0.169142
0.683536 0.198719 0.179698
0.738211 0.205339 0.186274
0.093343 0.233796 0.140238
0.180929 0.245092 0.151158
0.269817 0.256214 0.161926
0.359938 0.267269 0.172642
0.450720 0.278287 0.183336
0.541501 0.289283 0.194023
0.631588 0.300265 0.204711
0.720277 0.311239 0.215403
0.774447 0.318064 0.222061
0.127765 0.347331 0.175405
0.216649 0.358917 0.186482
0.306475 0.370309 0.197398
0.397195 0.381615 0.208256
0.488248 0.392866 0.219087
0.578976 0.404079 0.229905
0.668692 0.415263 0.240718
0.756693 0.426422 0.251530
0.810277 0.433355 0.258260
0.162745 0.463015 0.211055
0.252790 0.474728 0.222272
0.343418 0.486227 0.233320
0.434602 0.497624 0.244304
0.525792 0.508950 0.255254
0.616336 0.520223 0.266186
0.705547 0.531450 0.277108
0.792729 0.542637 0.288025
0.845645 0.549581 0.294817
0.198229 0.579218 0.247134
0.289296 0.590893 0.258473
0.380590 0.602339 0.269636
0.472106 0.613666 0.280729
0.563299 0.624909 0.291783
0.653525 0.636082 0.302813
0.742100 0.647196 0.313827
0.828331 0.658255 0.324831
0.880497 0.665111 0.331675
0.234160 0.694309 0.283587
0.326113 0.705782 0.295031
0.417938 0.717013 0.306293
0.509650 0.728112 0.317478
0.600714 0.739112 0.328619
0.690488 0.750028 0.339730
0.778296 0.760870 0.350820
0.863443 0.771644 0.361895
0.914778 0.778315 0.368781
0.270485 0.806658 0.320358
0.363184 0.817764 0.331891
0.455405 0.828619 0.343234
0.547180 0.839329 0.354495
0.637981 0.849928 0.365706
0.727172 0.860429 0.376882
0.814079 0.870843 0.388032
0.898012 0.881174 0.399162
0.948433 0.887563 0.406079
0.301851 0.899417 0.352047
0.395079 0.910078 0.363642
0.487532 0.920483 0.375041
0.579253 0.930734 0.386353
0.669723 0.940863 0.397611
0.758309 0.950884 0.408830
0.844340 0.960805 0.420018
0.927128 0.970633 0.431181
0.976703 0.976703 0.438117
0.029491 0.022780 0.142187
0.114220 0.033023 0.153116
0.200948 0.043145 0.163893
0.289555 0.053238 0.174617
0.379453 0.063331 0.185320
0.469967 0.073437 0.196014
0.560396 0.083563 0.206709
0.650030 0.093712 0.217409
0.705091 0.100041 0.224071
0.062698 0.127314 0.177382
0.148989 0.138172 0.188468
0.236912 0.148880 0.199392
0.326374 0.159539 0.210257
0.416796 0.170178 0.221095
0.507510 0.180812 0.231920
0.597820 0.191449 0.242739
0.687017 0.202093 0.253558
0.741648 0.208722 0.260292
0.096567 0.237209 0.213058
0.184281 0.248516 0.224282
0.273264 0.259649 0.235337
0.363447 0.270714 0.246327
0.454261 0.281741 0.257284
0.545043 0.292746 0.268222
0.635100 0.303737 0.279150
0.723729 0.314718 0.290072
0.777848 0.321549 0.296867
0.131045 0.350833 0.249159
0.220044 0.362426 0.260505
0.309952 0.373824 0.271674
0.400721 0.385134 0.282772
0.491792 0.396391 0.293832
0.582509 0.407608 0.304867
0.672183 0.418795 0.315886
0.760112 0.429957 0.326894
0.813637 0.436892 0.333740
0.166075 0.466558 0.285631
0.256222 0.478272 0.297081
0.346918 0.489772 0.308348
0.438140 0.501169 0.319538
0.529336 0.512495 0.330683
0.619855 0.523767 0.341798
0.709012 0.534992 0.352892
0.796109 0.546178 0.363971
0.848958 0.553121 0.370858
0.201603 0.582751 0.322419
0.292760 0.594422 0.333957
0.384110 0.605864 0.345304
0.475649 0.617187 0.356568
0.566836 0.628424 0.367782
0.657025 0.639592 0.378962
0.745534 0.650700 0.390115
0.831667 0.661752 0.401247
0.883759 0.668604 0.408165
0.237574 0.697783 0.359468
0.329602 0.709246 0.371076
0.421471 0.720468 0.382486
0.513195 0.731558 0.393809
0.604239 0.742548 0.405076
0.693965 0.753454 0.416303
0.781692 0.764285 0.427498
0.866731 0.775048 0.438667
0.917983 0.781712 0.445606
0.273933 0.810022 0.396723
0.366696 0.821114 0.408384
0.458947 0.831955 0.419841
0.550720 0.842651 0.431205
0.641490 0.853235 0.442508
0.730619 0.863721 0.453766
0.817434 0.874119 0.464987
0.901245 0.884435 0.476178
0.951576 0.890813 0.483127
0.305324 0.902648 0.428735
0.398605 0.913291 0.440428
0.491076 0.923678 0.451912
0.582786 0.933911 0.463298
0.673213 0.944021 0.474619
0.761727 0.954022 0.485890
0.847655 0.963924 0.497121
0.930311 0.973732 0.508317
0.979789 0.979789 0.515267
0.032630 0.025904 0.215865
0.117514 0.036170 0.227099
0.204362 0.046312 0.238163
0.293056 0.056425 0.249163
0.383010 0.066537 0.260128
0.473549 0.076662 0.271074
0.563972 0.086805 0.282010
0.653570 0.096972 0.292939
0.708593 0.103312 0.299738
0.065903 0.130628 0.251997
0.152335 0.141502 0.263351
0.240365 0.152226 0.274529
0.329902 0.162900 0.285635
0.420367 0.173554 0.296701
0.511094 0.184202 0.307743
0.601385 0.194852 0.318769
0.690533 0.205508 0.329783
0.745119 0.212145 0.336633
0.099832 0.240662 0.288495
0.187675 0.251981 0.299953
0.276752 0.263125 0.311226
0.366997 0.274200 0.322423
0.457841 0.285236 0.333574
0.548622 0.296250 0.344695
0.638649 0.307249 0.355794
0.727217 0.318238 0.366877
0.781282 0.325074 0.373767
0.134365 0.354376 0.325306
0.223480 0.365975 0.336849
0.313468 0.377378 0.348202
0.404286 0.388694 0.359471
0.495376 0.399955 0.370690
0.586079 0.411176 0.381874
0.675709 0.422366 0.393031
0.763565 0.433532 0.404167
0.817028 0.440468 0.411087
0.169445 0.470139 0.362373
0.259694 0.481854 0.373985
0.350459 0.493355 0.385400
0.441717 0.504752 0.396726
0.532917 0.516078 0.407997
0.623411 0.527349 0.419227
0.712512 0.538573 0.430425
0.799523 0.549758 0.441596
0.852303 0.556698 0.448536
0.205017 0.586321 0.399641
0.296263 0.597988 0.411305
0.387669 0.609425 0.422766
0.479232 0.620744 0.434133
0.570411 0.631976 0.445438
0.660561 0.643138 0.456697
0.749001 0.654239 0.467920
0.835036 0.665285 0.479111
0.887051 0.672133 0.486061
0.241028 0.701291 0.437057
0.333132 0.712746 0.448756
0.425043 0.723958 0.460245
0.516777 0.735038 0.471635
0.607802 0.746018 0.482958
0.697476 0.756913 0.494231
0.785122 0.767734 0.505462
0.870049 0.778485 0.516657
0.921217 0.785142 0.523607
0.277422 0.813419 0.474564
0.370247 0.824496 0.486281
0.462527 0.835323 0.497782
0.554299 0.846005 0.509179
0.645035 0.856573 0.520504
0.734100 0.867044 0.531774
0.820821 0.877426 0.542997
0.904508 0.887725 0.554178
0.954747 0.894094 0.561117
0.308837 0.905909 0.506703
0.402170 0.916534 0.518420
0.494660 0.926902 0.529919
0.586356 0.937116 0.541308
0.676739 0.947206 0.552622
0.765178 0.957188 0.563875
0.851001 0.967070 0.575078
0.933523 0.976857 0.586236
0.982902 0.982902 0.593158
0.035798 0.029058 0.291896
0.120837 0.039344 0.303362
0.207804 0.049507 0.314644
0.296585 0.059640 0.325848
0.386594 0.069771 0.337006
0.477156 0.079914 0.348133
0.567573 0.090076 0.359238
0.657133 0.100261 0.370327
0.712118 0.106611 0.377221
0.069136 0.133971 0.328732
0.155710 0.144861 0.340283
0.243846 0.155600 0.351642
0.333457 0.166289 0.362918
0.423964 0.176957 0.374142
0.514702 0.187619 0.385331
0.604973 0.198282 0.396492
0.694072 0.208952 0.407632
0.748611 0.215595 0.414554
0.103126 0.244144 0.365820
0.191097 0.255474 0.377438
0.280267 0.266628 0.388858
0.370573 0.277713 0.400189
0.461446 0.288759 0.411463
0.552226 0.299781 0.422697
0.642220 0.310788 0.433898
0.730725 0.321786 0.445072
0.784736 0.328625 0.452013
0.137713 0.357946 0.403105
0.226943 0.369551 0.414773
0.317012 0.380959 0.426237
0.407878 0.392280 0.437606
0.498984 0.403545 0.448914
0.589673 0.414770 0.460175
0.679258 0.425964 0.471400
0.767038 0.437132 0.482592
0.820440 0.444071 0.489542
0.172843 0.473746 0.440531
0.263194 0.485462 0.452233
0.354026 0.496964 0.463724
0.445319 0.508360 0.475115
0.536524 0.519686 0.486439
0.626990 0.530956 0.497713
0.716033 0.542179 0.508943
0.802956 0.553361 0.520138
0.855666 0.560300 0.527087
0.208460 0.589915 0.478045
0.299794 0.601578 0.489762
0.391254 0.613011 0.501263
0.482840 0.624324 0.512660
0.574010 0.635551 0.523985
0.664120 0.646707 0.535253
0.752489 0.657802 0.546474
0.838423 0.668841 0.557654
0.890361 0.675684 0.564592
0.244510 0.704821 0.515590
0.336689 0.716267 0.527306
0.428642 0.727470 0.538801
0.520385 0.738540 0.550187
0.611388 0.749509 0.561495
0.701009 0.760394 0.572742
0.788572 0.771203 0.583937
0.873386 0.781942 0.595086
0.924468 0.788592 0.602002
0.280937 0.816835 0.553113
0.373824 0.827898 0.564811
0.466134 0.838710 0.576283
0.557901 0.849377 0.587640
0.648603 0.859930 0.598915
0.737602 0.870385 0.610124
0.824227 0.880752 0.621277
0.907789 0.891034 0.632379
0.957934 0.897392 0.639263
0.312378 0.909187 0.585173
0.405761 0.919793 0.596841
0.498268 0.930142 0.608280
0.589950 0.940337 0.619600
0.680287 0.950408 0.630834
0.768650 0.960370 0.641998
0.854367 0.970232 0.653101
0.936751 0.979998 0.664149
0.986029 0.986029 0.670998
0.038988 0.032234 0.369675
0.124181 0.042542 0.381299
0.211268 0.052725 0.392724
0.300135 0.062878 0.404060
0.390197 0.073029 0.415338
0.480783 0.083190 0.426575
0.571191 0.093370 0.437779
0.660712 0.103572 0.448956
0.715658 0.109933 0.455899
0.072392 0.137336 0.406977
0.159106 0.148243 0.418649
0.247349 0.158997 0.430116
0.337032 0.169701 0.441489
0.427581 0.180383 0.452799
0.518329 0.191058 0.464062
0.608579 0.201735 0.475288
0.697626 0.212417 0.486481
0.752118 0.219068 0.493432
0.106442 0.247647 0.444415
0.194540 0.258988 0.456118
0.283804 0.270152 0.467611
0.374169 0.281247 0.479004
0.465071 0.292302 0.490329
0.555848 0.303333 0.501602
0.645808 0.314349 0.512833
0.734249 0.325354 0.524027
0.788205 0.332198 0.530975
0.141084 0.361536 0.481934
0.230428 0.373147 0.493652
0.320577 0.384561 0.505153
0.411490 0.395886 0.516549
0.502611 0.407155 0.527873
0.593285 0.418384 0.539140
0.682823 0.429582 0.550359
0.770526 0.440753 0.561537
0.823865 0.447692 0.568472
0.176263 0.477372 0.519480
0.266715 0.489089 0.531194
0.357614 0.500591 0.542688
0.448941 0.511988 0.554071
0.540148 0.523312 0.565376
0.630586 0.534581 0.576620
0.719569 0.545802 0.587812
0.806403 0.556983 0.598957
0.859042 0.563920 0.605870
0.211924 0.593526 0.556997
0.303347 0.605185 0.568691
0.394860 0.616613 0.580160
0.486466 0.627921 0.591513
0.577626 0.639142 0.602784
0.667695 0.650292 0.613989
0.755992 0.661381 0.625136
0.841824 0.672413 0.636232
0.893682 0.679252 0.643112
0.248013 0.708367 0.594431
0.340267 0.719803 0.606088
0.432260 0.730996 0.617515
0.524012 0.742056 0.628822
0.614991 0.753015 0.640041
0.704558 0.763889 0.651190
0.792036 0.774686 0.662277
0.876735 0.785414 0.673307
0.927730 0.792055 0.680145
0.284474 0.820264 0.631726
0.377422 0.831313 0.643329
0.469759 0.842110 0.654698
0.561522 0.852762 0.665941
0.652187 0.863300 0.677093
0.741120 0.873739 0.688170
0.827647 0.884089 0.699179
0.911080 0.894354 0.710128
0.961131 0.900701 0.716912
0.315939 0.912476 0.663500
0.409372 0.923063 0.675043
0.501895 0.933394 0.686348
0.593561 0.943569 0.697524
0.683852 0.953620 0.708605
0.772136 0.963562 0.719606
0.857744 0.973403 0.730537
0.939990 0.983149 0.741403
0.989166 0.989166 0.748134
0.042199 0.035431 0.448625
0.127545 0.045760 0.460331
0.214750 0.055963 0.471826
0.303702 0.066136 0.483220
0.393818 0.076305 0.494545
0.484425 0.086485 0.505819
0.574823 0.096683 0.517049
0.664304 0.106902 0.528242
0.719209 0.113274 0.535189
0.075667 0.140720 0.486150
0.162522 0.151643 0.497868
0.250870 0.162413 0.509370
0.340625 0.173131 0.520765
0.431214 0.183827 0.532088
0.521970 0.194516 0.543353
0.612198 0.205206 0.554570
0.701192 0.215900 0.565744
0.755635 0.222559 0.572678
0.109777 0.251168 0.523695
0.198003 0.262520 0.535408
0.287358 0.273695 0.546900
0.377782 0.284799 0.558280
0.468711 0.295863 0.569583
0.559484 0.306903 0.580823
0.649409 0.317926 0.592011
0.737784 0.328939 0.603151
0.791683 0.335788 0.610061
0.144474 0.365142 0.561206
0.233932 0.376759 0.572897
0.324159 0.388178 0.584362
0.415118 0.399508 0.595710
0.506254 0.410782 0.606977
0.596910 0.422014 0.618176
0.686400 0.433215 0.629317
0.774025 0.444389 0.640406
0.827299 0.451330 0.647282
0.179702 0.481014 0.598627
0.270254 0.492731 0.610279
0.361219 0.504233 0.621700
0.452579 0.515629 0.633000
0.543787 0.526953 0.644213
0.634194 0.538221 0.655355
0.723117 0.549440 0.666434
0.809859 0.560618 0.677456
0.862426 0.567555 0.684288
0.215407 0.597151 0.635903
0.306916 0.608805 0.647499
0.398482 0.620229 0.658860
0.490108 0.631531 0.670095
0.581257 0.642747 0.681239
0.671282 0.653891 0.692306
0.759506 0.664972 0.703306
0.845234 0.675998 0.714245
0.897011 0.682831 0.721022
0.251534 0.711925 0.672981
0.343862 0.723351 0.684503
0.435894 0.734534 0.695787
0.527653 0.745584 0.706941
0.618607 0.756532 0.717998
0.708119 0.767394 0.728974
0.795510 0.778180 0.739879
0.880092 0.788896 0.750718
0.930999 0.795530 0.757431
0.288029 0.823703 0.709804
0.381037 0.834737 0.721236
0.473400 0.845519 0.732425
0.565156 0.856156 0.743481
0.655784 0.866678 0.754436
0.744648 0.877101 0.765305
0.831076 0.887434 0.776098
0.914380 0.897683 0.786821
0.964334 0.904019 0.793459
0.319518 0.915773 0.741082
0.412999 0.926341 0.752422
0.505537 0.936652 0.763518
0.597186 0.946808 0.774476
0.687428 0.956839 0.785330
0.775633 0.966760 0.796094
0.861131 0.976581 0.806778
0.943236 0.986305 0.817389
0.992309 0.992309 0.823955
0.045427 0.038645 0.528182
0.130926 0.048995 0.539894
0.218248 0.059218 0.551383
0.307284 0.069411 0.562761
0.397452 0.079599 0.574060
0.488079 0.089798 0.585296
0.578467 0.100013 0.596479
0.667906 0.110250 0.607614
0.722770 0.116632 0.614520
0.078960 0.144121 0.565685
0.165955 0.155060 0.577373
0.254406 0.165845 0.588833
0.344232 0.176578 0.600177
0.434860 0.187288 0.611438
0.525624 0.197990 0.622631
0.615828 0.208693 0.633765
0.704768 0.219399 0.644848
0.759162 0.226066 0.651719
0.113129 0.254704 0.603092
0.201481 0.266067 0.614738
0.290927 0.277252 0.626153
0.381409 0.288366 0.637447
0.472364 0.299439 0.648652
0.563131 0.310487 0.659786
0.653020 0.321519 0.670856
0.741328 0.332539 0.681869
0.795170 0.339392 0.688695
0.147880 0.368763 0.640348
0.237451 0.380386 0.651936
0.327756 0.391810 0.663288
0.418760 0.403145 0.674515
0.509908 0.414422 0.685649
0.600546 0.425658 0.696706
0.689987 0.436862 0.707695
0.777531 0.448038 0.718623
0.830740 0.454980 0.725393
0.183157 0.484668 0.677398
0.273809 0.496386 0.688910
0.364838 0.507888 0.700183
0.456230 0.519284 0.711326
0.547438 0.530606 0.722372
0.637814 0.541872 0.733337
0.726675 0.553090 0.744229
0.813324 0.564266 0.755055
0.865818 0.571200 0.761759
0.218906 0.600788 0.714187
0.310501 0.612437 0.725607
0.402118 0.623855 0.736784
0.493763 0.635152 0.747827
0.584898 0.646362 0.758768
0.674880 0.657499 0.769623
0.763028 0.668574 0.780402
0.848650 0.679592 0.791109
0.900347 0.686421 0.797738
0.255071 0.715492 0.750661
0.347471 0.726908 0.761971
0.439541 0.738081 0.773035
0.531306 0.749120 0.783961
0.622234 0.760057 0.794781
0.711689 0.770908 0.805510
0.798992 0.781683 0.816159
0.883455 0.792386 0.826732
0.934273 0.799012 0.833275
0.291599 0.827150 0.786764
0.384666 0.838168 0.797947
0.477053 0.848936 0.808882
0.568803 0.859556 0.819674
0.659391 0.870062 0.830356
0.748185 0.880469 0.840944
0.834513 0.890785 0.851446
0.917685 0.901017 0.861868
0.967542 0.907342 0.868315
0.323112 0.919076 0.817333
0.416640 0.929624 0.828394
0.509192 0.939916 0.839204
0.600822 0.950051 0.849868
0.691014 0.960062 0.860419
0.779138 0.969963 0.870872
0.864524 0.979762 0.881236
0.946486 0.989465 0.891516
0.995456 0.995456 0.897872
0.048671 0.041875 0.607787
0.134322 0.052246 0.619427
0.221760 0.062490 0.630835
0.310879 0.072701 0.642121
0.401098 0.082909 0.653319
0.491744 0.093126 0.664443
0.582120 0.103359 0.675505
0.671517 0.113613 0.686508
0.726338 0.120005 0.693327
0.082269 0.147537 0.645020
0.169402 0.158492 0.656600
0.257956 0.169292 0.667943
0.347853 0.180039 0.679160
0.438518 0.190763 0.690284
0.529288 0.201479 0.701330
0.619467 0.212194 0.712309
0.708351 0.222913 0.723224
0.762695 0.229587 0.729987
0.116497 0.258255 0.682041
0.204974 0.269628 0.693542
0.294510 0.280823 0.704804
0.385049 0.291946 0.715936
0.476028 0.303029 0.726969
0.566789 0.314085 0.737921
0.656639 0.325124 0.748800
0.744879 0.336152 0.759612
0.798663 0.343009 0.766307
0.151302 0.372397 0.718793
0.240984 0.384025 0.730200
0.331366 0.395454 0.741364
0.422414 0.406793 0.752393
0.513573 0.418074 0.763320
0.604192 0.429314 0.774160
0.693582 0.440520 0.784923
0.781044 0.451699 0.795615
0.834187 0.458642 0.802234
0.186627 0.488333 0.755223
0.277377 0.500052 0.766518
0.368469 0.511553 0.777567
0.459892 0.522948 0.788477
0.551099 0.534270 0.799281
0.641442 0.545534 0.809993
0.730239 0.556750 0.820624
0.816794 0.567923 0.831179
0.869213 0.574856 0.837711
0.222419 0.604433 0.791276
0.314099 0.616078 0.802442
0.405766 0.627490 0.813359
0.497429 0.638782 0.824133
0.588549 0.649985 0.834797
0.678485 0.661116 0.845366
0.766557 0.672184 0.855848
0.852072 0.683194 0.866250
0.903686 0.690018 0.872684
0.258622 0.719066 0.826897
0.351093 0.730472 0.837917
0.443200 0.741635 0.848685
0.534969 0.752663 0.859307
0.625870 0.763589 0.869814
0.715266 0.774429 0.880222
0.802480 0.785191 0.890540
0.886823 0.795882 0.900772
0.937551 0.802500 0.907099
0.295182 0.830601 0.862030
0.388306 0.841605 0.872887
0.480718 0.852357 0.883490
0.572459 0.862962 0.893943
0.663007 0.873452 0.904277
0.751730 0.883842 0.914508
0.837954 0.894141 0.924644
0.920993 0.904355 0.934691
0.970753 0.910670 0.940899
0.326718 0.922382 0.891676
0.420293 0.932911 0.902379
0.512857 0.943182 0.912827
0.604468 0.953298 0.923122
0.694608 0.963288 0.933295
0.782649 0.973168 0.943361
0.867922 0.982946 0.953329
0.949740 0.992628 0.963204
0.998605 0.998605 0.969304
