cinelut/luts/isle-of-dogs.cube
# CineLUT — Isle of Dogs (2018)
# Gerado por generate_luts.py
LUT_3D_SIZE 33
0.023570 0.016886 0.009519
0.044553 0.019463 0.012083
0.065583 0.022016 0.014623
0.086726 0.024557 0.017151
0.108003 0.027089 0.019670
0.129421 0.029614 0.022183
0.150980 0.032136 0.024692
0.172675 0.034654 0.027198
0.194500 0.037171 0.029702
0.216449 0.039686 0.032205
0.238511 0.042200 0.034707
0.260677 0.044713 0.037208
0.282939 0.047226 0.039709
0.305285 0.049740 0.042211
0.327706 0.052254 0.044713
0.350190 0.054768 0.047215
0.372728 0.057283 0.049719
0.395308 0.059799 0.052223
0.417919 0.062316 0.054729
0.440551 0.064834 0.057235
0.463192 0.067353 0.059743
0.485831 0.069873 0.062253
0.508458 0.072395 0.064763
0.531060 0.074919 0.067276
0.553628 0.077444 0.069790
0.576150 0.079970 0.072305
0.598614 0.082498 0.074823
0.621010 0.085028 0.077342
0.643326 0.087559 0.079862
0.665552 0.090092 0.082385
0.687676 0.092627 0.084909
0.698456 0.093868 0.086145
0.698456 0.093868 0.086145
0.031775 0.042328 0.017644
0.052869 0.044949 0.020223
0.074004 0.047546 0.022778
0.095246 0.050128 0.025319
0.116617 0.052702 0.027852
0.138122 0.055269 0.030380
0.159763 0.057832 0.032902
0.181535 0.060392 0.035422
0.203432 0.062948 0.037940
0.225446 0.065504 0.040456
0.247569 0.068057 0.042971
0.269791 0.070610 0.045486
0.292103 0.073163 0.048000
0.314494 0.075715 0.050515
0.336955 0.078267 0.053030
0.359474 0.080820 0.055545
0.382041 0.083373 0.058062
0.404646 0.085927 0.060579
0.427277 0.088481 0.063097
0.449923 0.091036 0.065616
0.472574 0.093592 0.068136
0.495218 0.096149 0.070658
0.517844 0.098708 0.073181
0.540441 0.101267 0.075705
0.562999 0.103828 0.078231
0.585505 0.106390 0.080759
0.607949 0.108953 0.083288
0.630320 0.111518 0.085819
0.652606 0.114084 0.088352
0.674797 0.116652 0.090886
0.696881 0.119221 0.093422
0.707640 0.120478 0.094663
0.707640 0.120478 0.094663
0.040024 0.068188 0.025816
0.061228 0.070850 0.028409
0.082466 0.073487 0.030978
0.103805 0.076110 0.033533
0.125266 0.078723 0.036080
0.146858 0.081329 0.038621
0.168578 0.083931 0.041157
0.190425 0.086528 0.043691
0.212391 0.089123 0.046222
0.234469 0.091716 0.048751
0.256650 0.094307 0.051279
0.278926 0.096897 0.053807
0.301286 0.099486 0.056334
0.323720 0.102075 0.058862
0.346218 0.104663 0.061389
0.368771 0.107252 0.063917
0.391366 0.109840 0.066446
0.413993 0.112429 0.068976
0.436641 0.115018 0.071506
0.459300 0.117608 0.074037
0.481958 0.120199 0.076570
0.504604 0.122790 0.079104
0.527228 0.125382 0.081639
0.549818 0.127976 0.084175
0.572363 0.130570 0.086713
0.594852 0.133165 0.089252
0.617274 0.135761 0.091793
0.639618 0.138358 0.094335
0.661872 0.140957 0.096879
0.684025 0.143557 0.099425
0.706067 0.146158 0.101972
0.716804 0.147430 0.103219
0.716804 0.147430 0.103219
0.048316 0.094439 0.034032
0.069628 0.097140 0.036639
0.090967 0.099815 0.039222
0.112401 0.102475 0.041792
0.133951 0.105125 0.044352
0.155626 0.107768 0.046906
0.177424 0.110406 0.049456
0.199343 0.113039 0.052002
0.221376 0.115669 0.054546
0.243516 0.118297 0.057089
0.265754 0.120923 0.059630
0.288081 0.123548 0.062170
0.310487 0.126171 0.064710
0.332962 0.128794 0.067250
0.355496 0.131416 0.069790
0.378079 0.134038 0.072331
0.400700 0.136659 0.074872
0.423347 0.139281 0.077413
0.446011 0.141903 0.079956
0.468681 0.144525 0.082499
0.491344 0.147147 0.085044
0.513991 0.149770 0.087589
0.536610 0.152394 0.090136
0.559191 0.155018 0.092684
0.581721 0.157643 0.095233
0.604191 0.160269 0.097784
0.626588 0.162896 0.100336
0.648903 0.165523 0.102890
0.671122 0.168152 0.105445
0.693237 0.170781 0.108002
0.715235 0.173411 0.110560
0.725948 0.174698 0.111812
0.725948 0.174698 0.111812
0.056652 0.121057 0.042293
0.078069 0.123794 0.044914
0.099507 0.126504 0.047511
0.121033 0.129199 0.050093
0.142670 0.131884 0.052667
0.164426 0.134561 0.055234
0.186301 0.137232 0.057797
0.208290 0.139899 0.060356
0.230388 0.142562 0.062913
0.252587 0.145222 0.065468
0.274879 0.147881 0.068022
0.297255 0.150537 0.070575
0.319705 0.153192 0.073127
0.342220 0.155846 0.075680
0.364787 0.158500 0.078232
0.387399 0.161152 0.080784
0.410043 0.163804 0.083337
0.432709 0.166456 0.085891
0.455386 0.169108 0.088445
0.478064 0.171760 0.091000
0.500731 0.174412 0.093557
0.523376 0.177064 0.096114
0.545989 0.179717 0.098672
0.568558 0.182370 0.101231
0.591072 0.185023 0.103792
0.613520 0.187677 0.106354
0.635891 0.190332 0.108917
0.658174 0.192987 0.111482
0.680358 0.195643 0.114048
0.702431 0.198299 0.116616
0.724383 0.200957 0.119185
0.735072 0.202257 0.120442
0.735072 0.202257 0.120442
0.065029 0.148016 0.050598
0.086550 0.150786 0.053232
0.108084 0.153529 0.055842
0.129701 0.156256 0.058438
0.151423 0.158973 0.061025
0.173258 0.161681 0.063605
0.195206 0.164384 0.066180
0.217263 0.167081 0.068752
0.239424 0.169775 0.071322
0.261681 0.172466 0.073889
0.284026 0.175154 0.076455
0.306449 0.177840 0.079020
0.328941 0.180524 0.081585
0.351491 0.183207 0.084149
0.374091 0.185889 0.086713
0.396729 0.188570 0.089278
0.419394 0.191250 0.091843
0.442077 0.193930 0.094408
0.464766 0.196610 0.096974
0.487450 0.199289 0.099540
0.510118 0.201968 0.102108
0.532759 0.204647 0.104676
0.555363 0.207326 0.107246
0.577919 0.210005 0.109816
0.600414 0.212685 0.112388
0.622838 0.215364 0.114961
0.645181 0.218044 0.117535
0.667431 0.220725 0.120110
0.689576 0.223405 0.122687
0.711606 0.226087 0.125266
0.733510 0.228768 0.127845
0.744174 0.230080 0.129107
0.744174 0.230080 0.129107
0.073448 0.175291 0.058945
0.095069 0.178091 0.061593
0.116698 0.180865 0.064216
0.138403 0.183622 0.066824
0.160208 0.186367 0.069424
0.182120 0.189105 0.072017
0.204140 0.191836 0.074605
0.226263 0.194561 0.077189
0.248485 0.197283 0.079771
0.270797 0.200001 0.082350
0.293192 0.202717 0.084928
0.315660 0.205430 0.087506
0.338191 0.208141 0.090082
0.360777 0.210850 0.092658
0.383406 0.213558 0.095234
0.406068 0.216265 0.097810
0.428753 0.218971 0.100386
0.451450 0.221677 0.102963
0.474148 0.224381 0.105540
0.496836 0.227085 0.108118
0.519504 0.229789 0.110696
0.542140 0.232492 0.113276
0.564733 0.235195 0.115856
0.587272 0.237898 0.118438
0.609747 0.240601 0.121020
0.632146 0.243304 0.123604
0.654458 0.246007 0.126188
0.676672 0.248710 0.128775
0.698777 0.251414 0.131362
0.720762 0.254117 0.133950
0.742616 0.256821 0.136540
0.753253 0.258143 0.137808
0.753253 0.258143 0.137808
0.081907 0.202855 0.067334
0.103627 0.205684 0.069995
0.125348 0.208485 0.072630
0.147140 0.211269 0.075252
0.169025 0.214041 0.077864
0.191012 0.216805 0.080469
0.213101 0.219562 0.083069
0.235288 0.222314 0.085666
0.257568 0.225061 0.088259
0.279934 0.227804 0.090851
0.302377 0.230545 0.093441
0.324888 0.233282 0.096030
0.347457 0.236018 0.098618
0.370075 0.238751 0.101205
0.392732 0.241483 0.103792
0.415416 0.244213 0.106380
0.438119 0.246942 0.108967
0.460828 0.249670 0.111555
0.483533 0.252398 0.114143
0.506223 0.255124 0.116732
0.528888 0.257850 0.119321
0.551516 0.260575 0.121912
0.574096 0.263300 0.124503
0.596618 0.266024 0.127095
0.619070 0.268748 0.129688
0.641441 0.271472 0.132282
0.663721 0.274195 0.134877
0.685897 0.276919 0.137473
0.707960 0.279642 0.140071
0.729897 0.282366 0.142670
0.751699 0.285089 0.145270
0.762309 0.286421 0.146542
0.762309 0.286421 0.146542
0.090405 0.230684 0.075764
0.112222 0.233539 0.078437
0.134034 0.236365 0.081086
0.155909 0.239173 0.083719
0.177873 0.241970 0.086344
0.199932 0.244758 0.088961
0.222088 0.247538 0.091573
0.244338 0.250313 0.094181
0.266674 0.253083 0.096787
0.289091 0.255849 0.099390
0.311580 0.258612 0.101991
0.334132 0.261371 0.104592
0.356737 0.264128 0.107191
0.379385 0.266883 0.109790
0.402067 0.269636 0.112388
0.424772 0.272388 0.114987
0.447490 0.275137 0.117585
0.470209 0.277886 0.120184
0.492919 0.280633 0.122783
0.515610 0.283380 0.125382
0.538269 0.286125 0.127982
0.560887 0.288869 0.130583
0.583453 0.291613 0.133185
0.605955 0.294357 0.135787
0.628382 0.297099 0.138390
0.650724 0.299841 0.140995
0.672968 0.302583 0.143600
0.695105 0.305324 0.146206
0.717124 0.308065 0.148814
0.739012 0.310806 0.151422
0.760759 0.313547 0.154032
0.771341 0.314887 0.155309
0.771341 0.314887 0.155309
0.098943 0.258752 0.084234
0.120854 0.261630 0.086920
0.142753 0.264478 0.089580
0.164711 0.267309 0.092226
0.186750 0.270127 0.094862
0.208881 0.272936 0.097491
0.231102 0.275738 0.100115
0.253411 0.278533 0.102735
0.275802 0.281324 0.105352
0.298268 0.284110 0.107967
0.320801 0.286892 0.110580
0.343391 0.289671 0.113191
0.366030 0.292448 0.115801
0.388707 0.295222 0.118411
0.411412 0.297994 0.121021
0.434135 0.300763 0.123630
0.456866 0.303531 0.126239
0.479593 0.306298 0.128848
0.502306 0.309063 0.131458
0.524995 0.311827 0.134068
0.547647 0.314589 0.136678
0.570253 0.317351 0.139289
0.592802 0.320111 0.141901
0.615282 0.322871 0.144513
0.637682 0.325630 0.147127
0.659992 0.328388 0.149741
0.682200 0.331145 0.152356
0.704296 0.333902 0.154972
0.726267 0.336658 0.157589
0.748104 0.339414 0.160207
0.769795 0.342169 0.162827
0.780347 0.343516 0.164108
0.780347 0.343516 0.164108
0.107517 0.287034 0.092743
0.129521 0.289932 0.095441
0.151506 0.292800 0.098114
0.173543 0.295650 0.100771
0.195657 0.298488 0.103419
0.217856 0.301316 0.106060
0.240140 0.304136 0.108695
0.262507 0.306949 0.111327
0.284950 0.309758 0.113955
0.307463 0.312561 0.116580
0.330038 0.315361 0.119204
0.352665 0.318158 0.121827
0.375335 0.320951 0.124448
0.398038 0.323741 0.127068
0.420765 0.326529 0.129688
0.443504 0.329315 0.132308
0.466245 0.332099 0.134928
0.488979 0.334881 0.137547
0.511693 0.337661 0.140167
0.534377 0.340440 0.142787
0.557021 0.343217 0.145408
0.579613 0.345993 0.148029
0.602143 0.348767 0.150651
0.624599 0.351541 0.153273
0.646970 0.354314 0.155896
0.669246 0.357085 0.158520
0.691415 0.359856 0.161145
0.713467 0.362625 0.163770
0.735390 0.365394 0.166397
0.757173 0.368162 0.169024
0.778806 0.370930 0.171653
0.789328 0.372283 0.172939
0.789328 0.372283 0.172939
0.116129 0.315504 0.101290
0.138223 0.318420 0.104001
0.160292 0.321305 0.106685
0.182406 0.324172 0.109354
0.204592 0.327026 0.112014
0.226857 0.329870 0.114666
0.249202 0.332706 0.117312
0.271625 0.335536 0.119954
0.294118 0.338359 0.122594
0.316676 0.341178 0.125230
0.339290 0.343993 0.127865
0.361952 0.346804 0.130498
0.384651 0.349611 0.133129
0.407379 0.352416 0.135760
0.430124 0.355218 0.138391
0.452878 0.358017 0.141021
0.475628 0.360814 0.143651
0.498365 0.363609 0.146280
0.521078 0.366402 0.148910
0.543757 0.369193 0.151540
0.566389 0.371982 0.154171
0.588965 0.374770 0.156801
0.611474 0.377557 0.159433
0.633904 0.380342 0.162065
0.656244 0.383126 0.164697
0.678484 0.385908 0.167331
0.700613 0.388690 0.169965
0.722619 0.391470 0.172600
0.744491 0.394249 0.175235
0.766219 0.397027 0.177872
0.787791 0.399804 0.180509
0.798282 0.401162 0.181800
0.798282 0.401162 0.181800
0.124777 0.344136 0.109875
0.146959 0.347067 0.112597
0.169109 0.349967 0.115293
0.191299 0.352849 0.117974
0.213555 0.355717 0.120644
0.235884 0.358575 0.123307
0.258288 0.361424 0.125965
0.280764 0.364267 0.128618
0.303305 0.367104 0.131268
0.325906 0.369935 0.133915
0.348558 0.372762 0.136560
0.371252 0.375585 0.139203
0.393978 0.378404 0.141845
0.416728 0.381220 0.144487
0.439491 0.384033 0.147127
0.462256 0.386844 0.149767
0.485013 0.389651 0.152407
0.507752 0.392457 0.155046
0.530462 0.395260 0.157686
0.553132 0.398061 0.160326
0.575752 0.400861 0.162966
0.598310 0.403658 0.165606
0.620795 0.406454 0.168247
0.643197 0.409248 0.170888
0.665504 0.412040 0.173530
0.687706 0.414831 0.176172
0.709792 0.417621 0.178816
0.731750 0.420409 0.181459
0.753570 0.423196 0.184104
0.775240 0.425982 0.186750
0.796749 0.428767 0.189396
0.807208 0.430128 0.190690
0.807208 0.430128 0.190690
0.133460 0.372906 0.118497
0.155727 0.375849 0.121230
0.177957 0.378762 0.123937
0.200220 0.381655 0.126629
0.222544 0.384535 0.129310
0.244935 0.387404 0.131984
0.267396 0.390264 0.134652
0.289923 0.393117 0.137316
0.312510 0.395964 0.139976
0.335152 0.398806 0.142634
0.357839 0.401643 0.145289
0.380563 0.404475 0.147943
0.403315 0.407304 0.150595
0.426085 0.410129 0.153246
0.448862 0.412951 0.155896
0.471638 0.415770 0.158546
0.494400 0.418586 0.161196
0.517138 0.421399 0.163845
0.539843 0.424210 0.166494
0.562503 0.427019 0.169143
0.585107 0.429826 0.171792
0.607645 0.432630 0.174442
0.630105 0.435433 0.177092
0.652477 0.438233 0.179742
0.674749 0.441032 0.182393
0.696911 0.443830 0.185044
0.718952 0.446625 0.187696
0.740860 0.449419 0.190349
0.762625 0.452211 0.193002
0.784235 0.455002 0.195656
0.805680 0.457792 0.198311
0.816105 0.459155 0.199610
0.816105 0.459155 0.199610
0.142177 0.401787 0.127155
0.164528 0.404741 0.129899
0.186835 0.407663 0.132617
0.209170 0.410565 0.135319
0.231558 0.413454 0.138011
0.254010 0.416332 0.140696
0.276525 0.419200 0.143374
0.299101 0.422062 0.146048
0.321733 0.424917 0.148719
0.344413 0.427766 0.151386
0.367134 0.430610 0.154052
0.389886 0.433449 0.156715
0.412661 0.436285 0.159377
0.435449 0.439117 0.162038
0.458239 0.441945 0.164698
0.481022 0.444770 0.167357
0.503787 0.447592 0.170016
0.526523 0.450411 0.172674
0.549220 0.453227 0.175333
0.571868 0.456041 0.177991
0.594455 0.458852 0.180650
0.616970 0.461661 0.183308
0.639403 0.464468 0.185967
0.661742 0.467273 0.188626
0.683978 0.470076 0.191286
0.706098 0.472877 0.193946
0.728091 0.475676 0.196606
0.749947 0.478473 0.199267
0.771655 0.481268 0.201929
0.793204 0.484062 0.204591
0.814582 0.486853 0.207254
0.824973 0.488218 0.208557
0.824973 0.488218 0.208557
0.150928 0.430755 0.135847
0.173360 0.433716 0.138602
0.195742 0.436645 0.141331
0.218146 0.439554 0.144044
0.240598 0.442449 0.146746
0.263107 0.445333 0.149441
0.285675 0.448208 0.152130
0.308298 0.451074 0.154814
0.330971 0.453935 0.157494
0.353688 0.456789 0.160171
0.376440 0.459638 0.162846
0.399219 0.462482 0.165519
0.422015 0.465322 0.168191
0.444818 0.468158 0.170861
0.467619 0.470990 0.173531
0.490408 0.473818 0.176199
0.513173 0.476643 0.178867
0.535905 0.479466 0.181535
0.558593 0.482285 0.184202
0.581226 0.485101 0.186869
0.603794 0.487915 0.189536
0.626285 0.490726 0.192204
0.648688 0.493535 0.194871
0.670993 0.496342 0.197539
0.693189 0.499146 0.200207
0.715265 0.501948 0.202875
0.737210 0.504748 0.205544
0.759012 0.507545 0.208214
0.780661 0.510341 0.210883
0.802146 0.513135 0.213554
0.823456 0.515927 0.216225
0.833811 0.517292 0.217531
0.833811 0.517292 0.217531
0.159711 0.459783 0.144573
0.182223 0.462749 0.147339
0.204677 0.465682 0.150078
0.227148 0.468596 0.152802
0.249662 0.471494 0.155514
0.272227 0.474382 0.158219
0.294844 0.477260 0.160917
0.317513 0.480130 0.163611
0.340226 0.482993 0.166301
0.362977 0.485850 0.168988
0.385758 0.488701 0.171673
0.408561 0.491548 0.174355
0.431375 0.494389 0.177036
0.454193 0.497227 0.179715
0.477002 0.500060 0.182394
0.499795 0.502890 0.185071
0.522559 0.505716 0.187748
0.545284 0.508539 0.190424
0.567961 0.511358 0.193101
0.590577 0.514175 0.195776
0.613123 0.516988 0.198452
0.635588 0.519799 0.201128
0.657960 0.522608 0.203804
0.680229 0.525413 0.206480
0.702383 0.528216 0.209156
0.724413 0.531017 0.211833
0.746306 0.533816 0.214510
0.768053 0.536612 0.217187
0.789641 0.539405 0.219865
0.811060 0.542197 0.222543
0.832299 0.544986 0.225222
0.842618 0.546350 0.226532
0.842618 0.546350 0.226532
0.168526 0.488847 0.153333
0.191115 0.491814 0.156110
0.213640 0.494750 0.158859
0.236176 0.497665 0.161592
0.258748 0.500565 0.164314
0.281367 0.503454 0.167029
0.304033 0.506332 0.169737
0.326744 0.509203 0.172440
0.349495 0.512066 0.175139
0.372278 0.514923 0.177836
0.395086 0.517775 0.180529
0.417911 0.520620 0.183221
0.440742 0.523461 0.185911
0.463571 0.526298 0.188599
0.486388 0.529130 0.191286
0.509181 0.531958 0.193972
0.531942 0.534783 0.196658
0.554659 0.537604 0.199343
0.577322 0.540421 0.202028
0.599920 0.543236 0.204712
0.622442 0.546047 0.207396
0.644878 0.548855 0.210080
0.667217 0.551660 0.212764
0.689447 0.554463 0.215448
0.711559 0.557262 0.218132
0.733540 0.560059 0.220817
0.755380 0.562854 0.223501
0.777068 0.565646 0.226186
0.798594 0.568435 0.228872
0.819945 0.571222 0.231558
0.841111 0.574006 0.234244
0.851393 0.575367 0.235558
0.851393 0.575367 0.235558
0.177372 0.517920 0.162125
0.200035 0.520887 0.164912
0.222629 0.523822 0.167671
0.245227 0.526736 0.170414
0.267857 0.529635 0.173146
0.290527 0.532522 0.175869
0.313239 0.535399 0.178587
0.335991 0.538268 0.181299
0.358777 0.541129 0.184008
0.381591 0.543984 0.186713
0.404424 0.546832 0.189416
0.427269 0.549675 0.192116
0.450115 0.552513 0.194815
0.472953 0.555346 0.197512
0.495774 0.558175 0.200207
0.518567 0.560999 0.202902
0.541322 0.563820 0.205596
0.564029 0.566636 0.208289
0.586676 0.569449 0.210982
0.609254 0.572259 0.213675
0.631750 0.575065 0.216367
0.654156 0.577868 0.219059
0.676459 0.580668 0.221751
0.698649 0.583464 0.224442
0.720715 0.586258 0.227134
0.742646 0.589049 0.229826
0.764430 0.591837 0.232519
0.786059 0.594622 0.235211
0.807519 0.597404 0.237904
0.828800 0.600184 0.240597
0.849891 0.602961 0.243291
0.860135 0.604319 0.244608
0.860135 0.604319 0.244608
0.186248 0.546977 0.170949
0.208984 0.549942 0.173745
0.231644 0.552873 0.176514
0.254303 0.555784 0.179266
0.276987 0.558679 0.182007
0.299707 0.561562 0.184740
0.322463 0.564435 0.187467
0.345253 0.567299 0.190188
0.368073 0.570156 0.192906
0.390915 0.573006 0.195620
0.413771 0.575849 0.198331
0.436633 0.578686 0.201040
0.459492 0.581519 0.203747
0.482338 0.584346 0.206453
0.505161 0.587169 0.209157
0.527952 0.589987 0.211860
0.550699 0.592801 0.214562
0.573393 0.595610 0.217263
0.596022 0.598416 0.219964
0.618577 0.601219 0.222664
0.641046 0.604017 0.225364
0.663419 0.606812 0.228064
0.685684 0.609604 0.230763
0.707832 0.612393 0.233462
0.729850 0.615178 0.236162
0.751729 0.617960 0.238861
0.773456 0.620739 0.241561
0.795022 0.623515 0.244261
0.816415 0.626289 0.246960
0.837624 0.629059 0.249661
0.858639 0.631826 0.252361
0.868843 0.633179 0.253682
0.868843 0.633179 0.253682
0.195153 0.575994 0.179803
0.217960 0.578952 0.182609
0.240684 0.581878 0.185387
0.263401 0.584783 0.188148
0.286138 0.587672 0.190899
0.308905 0.590548 0.193641
0.331703 0.593415 0.196376
0.354530 0.596272 0.199106
0.377381 0.599121 0.201832
0.400248 0.601963 0.204555
0.423125 0.604799 0.207274
0.446003 0.607629 0.209992
0.468873 0.610453 0.212707
0.491724 0.613272 0.215421
0.514548 0.616086 0.218133
0.537334 0.618895 0.220844
0.560071 0.621700 0.223554
0.582750 0.624500 0.226263
0.605360 0.627297 0.228971
0.627890 0.630090 0.231679
0.650329 0.632878 0.234386
0.672667 0.635663 0.237094
0.694893 0.638445 0.239800
0.716996 0.641222 0.242507
0.738965 0.643997 0.245214
0.760789 0.646768 0.247920
0.782457 0.649536 0.250627
0.803958 0.652300 0.253334
0.825282 0.655062 0.256040
0.846417 0.657820 0.258747
0.867353 0.660575 0.261454
0.877517 0.661921 0.262779
0.877517 0.661921 0.262779
0.204087 0.604943 0.188687
0.226961 0.607894 0.191502
0.249747 0.610811 0.194289
0.272521 0.613707 0.197060
0.295309 0.616587 0.199819
0.318121 0.619455 0.202569
0.340958 0.622312 0.205313
0.363820 0.625160 0.208052
0.386699 0.627999 0.210786
0.409591 0.630832 0.213517
0.432487 0.633657 0.216245
0.455378 0.636476 0.218970
0.478256 0.639290 0.221694
0.501111 0.642098 0.224415
0.523933 0.644901 0.227135
0.546712 0.647699 0.229854
0.569438 0.650492 0.232571
0.592100 0.653281 0.235288
0.614688 0.656066 0.238004
0.637191 0.658846 0.240719
0.659598 0.661622 0.243434
0.681899 0.664395 0.246148
0.704084 0.667163 0.248862
0.726140 0.669928 0.251576
0.748057 0.672689 0.254289
0.769824 0.675447 0.257003
0.791431 0.678201 0.259716
0.812866 0.680951 0.262429
0.834119 0.683698 0.265143
0.855178 0.686442 0.267856
0.876033 0.689182 0.270570
0.886155 0.690522 0.271897
0.886155 0.690522 0.271897
0.213048 0.633801 0.197600
0.235988 0.636741 0.200424
0.258834 0.639647 0.203220
0.281662 0.642532 0.205999
0.304498 0.645400 0.208767
0.327353 0.648257 0.211526
0.350228 0.651102 0.214278
0.373122 0.653938 0.217025
0.396029 0.656765 0.219767
0.418942 0.659585 0.222506
0.441855 0.662398 0.225242
0.464757 0.665204 0.227975
0.487642 0.668005 0.230706
0.510498 0.670799 0.233435
0.533316 0.673589 0.236162
0.556086 0.676373 0.238889
0.578798 0.679152 0.241613
0.601441 0.681927 0.244337
0.624005 0.684697 0.247060
0.646479 0.687463 0.249783
0.668853 0.690224 0.252505
0.691115 0.692981 0.255226
0.713255 0.695735 0.257947
0.735263 0.698484 0.260667
0.757126 0.701229 0.263387
0.778835 0.703971 0.266107
0.800379 0.706708 0.268827
0.821745 0.709443 0.271547
0.842925 0.712173 0.274267
0.863906 0.714900 0.276986
0.884677 0.717623 0.279706
0.894757 0.718954 0.281037
0.894757 0.718954 0.281037
0.222035 0.662541 0.206541
0.245040 0.665467 0.209374
0.267943 0.668360 0.212178
0.290823 0.671231 0.214966
0.313706 0.674086 0.217742
0.336601 0.676928 0.220509
0.359512 0.679759 0.223269
0.382436 0.682580 0.226024
0.405368 0.685393 0.228774
0.428301 0.688198 0.231521
0.451228 0.690995 0.234264
0.474140 0.693787 0.237005
0.497028 0.696571 0.239743
0.519884 0.699350 0.242480
0.542696 0.702124 0.245214
0.565455 0.704892 0.247948
0.588151 0.707655 0.250680
0.610773 0.710413 0.253411
0.633311 0.713166 0.256141
0.655754 0.715914 0.258870
0.678092 0.718658 0.261598
0.700313 0.721398 0.264326
0.722408 0.724133 0.267054
0.744364 0.726865 0.269781
0.766172 0.729592 0.272507
0.787820 0.732315 0.275234
0.809298 0.735034 0.277960
0.830594 0.737749 0.280686
0.851698 0.740460 0.283412
0.872599 0.743168 0.286137
0.893286 0.745872 0.288863
0.903322 0.747193 0.290196
0.903322 0.747193 0.290196
0.231049 0.691138 0.215510
0.254115 0.694048 0.218351
0.277074 0.696924 0.221163
0.300003 0.699779 0.223959
0.322930 0.702618 0.226743
0.345865 0.705443 0.229518
0.368809 0.708257 0.232286
0.391761 0.711062 0.235048
0.414715 0.713857 0.237806
0.437666 0.716645 0.240560
0.460605 0.719425 0.243311
0.483525 0.722198 0.246059
0.506415 0.724965 0.248804
0.529268 0.727725 0.251548
0.552072 0.730480 0.254290
0.574818 0.733229 0.257030
0.597496 0.735973 0.259769
0.620095 0.738712 0.262506
0.642605 0.741446 0.265243
0.665015 0.744175 0.267979
0.687314 0.746899 0.270714
0.709493 0.749619 0.273448
0.731539 0.752334 0.276182
0.753443 0.755045 0.278915
0.775193 0.757751 0.281648
0.796779 0.760453 0.284381
0.818189 0.763151 0.287113
0.839413 0.765845 0.289845
0.860439 0.768535 0.292576
0.881258 0.771220 0.295308
0.901857 0.773902 0.298039
0.911849 0.775212 0.299375
0.911849 0.775212 0.299375
0.240087 0.719566 0.224504
0.263212 0.722458 0.227354
0.286225 0.725315 0.230174
0.309202 0.728151 0.232978
0.332171 0.730971 0.235769
0.355142 0.733777 0.238552
0.378117 0.736572 0.241327
0.401095 0.739357 0.244097
0.424070 0.742132 0.246862
0.447037 0.744900 0.249623
0.469986 0.747660 0.252381
0.492911 0.750413 0.255136
0.515802 0.753159 0.257889
0.538649 0.755899 0.260639
0.561443 0.758633 0.263388
0.584174 0.761361 0.266135
0.606832 0.764083 0.268880
0.629406 0.766801 0.271624
0.651885 0.769513 0.274367
0.674260 0.772219 0.277110
0.696520 0.774921 0.279851
0.718653 0.777619 0.282591
0.740650 0.780311 0.285331
0.762498 0.782999 0.288070
0.784189 0.785682 0.290809
0.805709 0.788361 0.293547
0.827050 0.791035 0.296285
0.848199 0.793705 0.299023
0.869146 0.796371 0.301760
0.889880 0.799032 0.304497
0.910390 0.801690 0.307234
0.920337 0.802988 0.308573
0.920337 0.802988 0.308573
0.249149 0.747800 0.233525
0.272332 0.750671 0.236382
0.295396 0.753507 0.239210
0.318418 0.756322 0.242021
0.341427 0.759120 0.244820
0.364433 0.761904 0.247610
0.387437 0.764677 0.250393
0.410439 0.767440 0.253170
0.433433 0.770193 0.255942
0.456412 0.772939 0.258710
0.479370 0.775676 0.261475
0.502298 0.778406 0.264237
0.525187 0.781129 0.266996
0.548027 0.783846 0.269753
0.570809 0.786556 0.272508
0.593523 0.789261 0.275261
0.616158 0.791959 0.278013
0.638705 0.794652 0.280763
0.661152 0.797340 0.283512
0.683490 0.800022 0.286261
0.705707 0.802699 0.289008
0.727793 0.805372 0.291754
0.749738 0.808039 0.294500
0.771530 0.810701 0.297245
0.793158 0.813359 0.299989
0.814612 0.816012 0.302733
0.835880 0.818660 0.305477
0.856953 0.821304 0.308220
