cinelut/luts/isle-of-dogs.cube
# CineLUT — Isle of Dogs (2018)
# Gerado por generate_luts.py
LUT_3D_SIZE 5
0.023570 0.016886 0.009519
0.194500 0.037171 0.029702
0.372728 0.057283 0.049719
0.553628 0.077444 0.069790
0.698456 0.093868 0.086145
0.090405 0.230684 0.075764
0.266674 0.253083 0.096787
0.447490 0.275137 0.117585
0.628382 0.297099 0.138390
0.771341 0.314887 0.155309
0.159711 0.459783 0.144573
0.340226 0.482993 0.166301
0.522559 0.505716 0.187748
0.702383 0.528216 0.209156
0.842618 0.546350 0.226532
0.231049 0.691138 0.215510
0.414715 0.713857 0.237806
0.597496 0.735973 0.259769
0.775193 0.757751 0.281648
0.911849 0.775212 0.299375
0.298684 0.896464 0.282858
0.484297 0.917563 0.305560
0.666536 0.937977 0.327883
0.841311 0.957954 0.350082
0.973881 0.973881 0.368040
0.029491 0.022780 0.142187
0.200948 0.043145 0.163893
0.379453 0.063331 0.185320
0.560396 0.083563 0.206709
0.705091 0.100041 0.224071
0.096567 0.237209 0.213058
0.273264 0.259649 0.235337
0.454261 0.281741 0.257284
0.635100 0.303737 0.279150
0.777848 0.321549 0.296867
0.166075 0.466558 0.285631
0.346918 0.489772 0.308348
0.529336 0.512495 0.330683
0.709012 0.534992 0.352892
0.848958 0.553121 0.370858
0.237574 0.697783 0.359468
0.421471 0.720468 0.382486
0.604239 0.742548 0.405076
0.781692 0.764285 0.427498
0.917983 0.781712 0.445606
0.305324 0.902648 0.428735
0.491076 0.923678 0.451912
0.673213 0.944021 0.474619
0.847655 0.963924 0.497121
0.979789 0.979789 0.515267
0.035798 0.029058 0.291896
0.207804 0.049507 0.314644
0.386594 0.069771 0.337006
0.567573 0.090076 0.359238
0.712118 0.106611 0.377221
0.103126 0.244144 0.365820
0.280267 0.266628 0.388858
0.461446 0.288759 0.411463
0.642220 0.310788 0.433898
0.784736 0.328625 0.452013
0.172843 0.473746 0.440531
0.354026 0.496964 0.463724
0.536524 0.519686 0.486439
0.716033 0.542179 0.508943
0.855666 0.560300 0.527087
0.244510 0.704821 0.515590
0.428642 0.727470 0.538801
0.611388 0.749509 0.561495
0.788572 0.771203 0.583937
0.924468 0.788592 0.602002
0.312378 0.909187 0.585173
0.498268 0.930142 0.608280
0.680287 0.950408 0.630834
0.854367 0.970232 0.653101
0.986029 0.986029 0.670998
0.042199 0.035431 0.448625
0.214750 0.055963 0.471826
0.393818 0.076305 0.494545
0.574823 0.096683 0.517049
0.719209 0.113274 0.535189
0.109777 0.251168 0.523695
0.287358 0.273695 0.546900
0.468711 0.295863 0.569583
0.649409 0.317926 0.592011
0.791683 0.335788 0.610061
0.179702 0.481014 0.598627
0.361219 0.504233 0.621700
0.543787 0.526953 0.644213
0.723117 0.549440 0.666434
0.862426 0.567555 0.684288
0.251534 0.711925 0.672981
0.435894 0.734534 0.695787
0.618607 0.756532 0.717998
0.795510 0.778180 0.739879
0.930999 0.795530 0.757431
0.319518 0.915773 0.741082
0.505537 0.936652 0.763518
0.687428 0.956839 0.785330
0.861131 0.976581 0.806778
0.992309 0.992309 0.823955
0.048671 0.041875 0.607787
0.221760 0.062490 0.630835
0.401098 0.082909 0.653319
0.582120 0.103359 0.675505
0.726338 0.120005 0.693327
0.116497 0.258255 0.682041
0.294510 0.280823 0.704804
0.476028 0.303029 0.726969
0.656639 0.325124 0.748800
0.798663 0.343009 0.766307
0.186627 0.488333 0.755223
0.368469 0.511553 0.777567
0.551099 0.534270 0.799281
0.730239 0.556750 0.820624
0.869213 0.574856 0.837711
0.258622 0.719066 0.826897
0.443200 0.741635 0.848685
0.625870 0.763589 0.869814
0.802480 0.785191 0.890540
0.937551 0.802500 0.907099
0.326718 0.922382 0.891676
0.512857 0.943182 0.912827
0.694608 0.963288 0.933295
0.867922 0.982946 0.953329
0.998605 0.998605 0.969304
