cinelut/luts/life-aquatic.cube
# CineLUT — The Life Aquatic (2004)
# Gerado por generate_luts.py
LUT_3D_SIZE 33
0.001241 0.012230 0.051744
0.001241 0.012230 0.051744
0.016041 0.012575 0.052119
0.034781 0.012995 0.052576
0.054869 0.013428 0.053046
0.076114 0.013870 0.053526
0.098409 0.014319 0.054013
0.121674 0.014772 0.054506
0.145841 0.015231 0.055004
0.170847 0.015693 0.055506
0.196631 0.016159 0.056011
0.223135 0.016628 0.056521
0.250299 0.017100 0.057033
0.278065 0.017576 0.057549
0.306373 0.018053 0.058067
0.335164 0.018534 0.058588
0.364379 0.019016 0.059111
0.393956 0.019501 0.059636
0.423835 0.019988 0.060164
0.453954 0.020477 0.060694
0.484251 0.020968 0.061226
0.514663 0.021461 0.061760
0.545127 0.021956 0.062296
0.575579 0.022453 0.062834
0.605955 0.022951 0.063373
0.636189 0.023451 0.063915
0.666217 0.023953 0.064458
0.695972 0.024456 0.065002
0.725387 0.024961 0.065549
0.754397 0.025468 0.066096
0.782933 0.025976 0.066646
0.810928 0.026485 0.067197
0.838313 0.026996 0.067749
0.002927 0.036375 0.053627
0.002927 0.036375 0.053627
0.017790 0.036738 0.054003
0.036604 0.037182 0.054462
0.056763 0.037639 0.054934
0.078077 0.038105 0.055416
0.100437 0.038578 0.055904
0.123765 0.039056 0.056399
0.147990 0.039539 0.056898
0.173051 0.040027 0.057402
0.198886 0.040518 0.057909
0.225436 0.041012 0.058420
0.252642 0.041510 0.058934
0.280445 0.042011 0.059452
0.308786 0.042514 0.059971
0.337606 0.043020 0.060494
0.366844 0.043529 0.061019
0.396441 0.044039 0.061546
0.426334 0.044552 0.062076
0.456463 0.045067 0.062608
0.486764 0.045584 0.063141
0.517176 0.046103 0.063677
0.547636 0.046624 0.064215
0.578078 0.047147 0.064754
0.608438 0.047671 0.065296
0.638653 0.048197 0.065839
0.668655 0.048725 0.066384
0.698380 0.049255 0.066930
0.727760 0.049786 0.067478
0.756730 0.050319 0.068028
0.785220 0.050853 0.068579
0.813164 0.051389 0.069131
0.840493 0.051926 0.069686
0.004620 0.061773 0.055517
0.004620 0.061773 0.055517
0.019545 0.062155 0.055894
0.038432 0.062620 0.056354
0.058663 0.063099 0.056828
0.080046 0.063588 0.057311
0.102472 0.064083 0.057802
0.125861 0.064585 0.058298
0.150145 0.065092 0.058799
0.175260 0.065602 0.059304
0.201145 0.066117 0.059813
0.227741 0.066635 0.060326
0.254988 0.067157 0.060842
0.282829 0.067681 0.061361
0.311203 0.068209 0.061883
0.340050 0.068739 0.062407
0.369312 0.069271 0.062934
0.398927 0.069806 0.063463
0.428835 0.070343 0.063994
0.458972 0.070882 0.064527
0.489278 0.071423 0.065063
0.519690 0.071967 0.065600
0.550144 0.072512 0.066140
0.580575 0.073059 0.066681
0.610921 0.073608 0.067224
0.641114 0.074158 0.067769
0.671092 0.074710 0.068316
0.700786 0.075264 0.068864
0.730130 0.075820 0.069414
0.759059 0.076377 0.069965
0.787503 0.076936 0.070518
0.815396 0.077496 0.071072
0.842669 0.078057 0.071628
0.006320 0.088342 0.057413
0.006320 0.088342 0.057413
0.021308 0.088740 0.057792
0.040268 0.089225 0.058253
0.060570 0.089725 0.058728
0.082021 0.090235 0.059213
0.104512 0.090752 0.059705
0.127963 0.091275 0.060203
0.152305 0.091803 0.060706
0.177473 0.092336 0.061213
0.203408 0.092873 0.061724
0.230049 0.093413 0.062238
0.257338 0.093957 0.062756
0.285215 0.094503 0.063277
0.313621 0.095053 0.063800
0.342497 0.095605 0.064326
0.371782 0.096160 0.064854
0.401415 0.096717 0.065385
0.431336 0.097277 0.065918
0.461483 0.097838 0.066454
0.491793 0.098402 0.066991
0.522203 0.098968 0.067530
0.552651 0.099535 0.068071
0.583072 0.100105 0.068614
0.613401 0.100676 0.069159
0.643574 0.101250 0.069706
0.673526 0.101825 0.070254
0.703189 0.102401 0.070804
0.732497 0.102979 0.071356
0.761384 0.103559 0.071909
0.789783 0.104140 0.072463
0.817624 0.104723 0.073020
0.844840 0.105308 0.073577
0.008028 0.115998 0.059315
0.008028 0.115998 0.059315
0.023078 0.116411 0.059695
0.042110 0.116915 0.060158
0.062483 0.117434 0.060635
0.084002 0.117963 0.061122
0.106558 0.118500 0.061616
0.130070 0.119043 0.062115
0.154469 0.119591 0.062619
0.179691 0.120144 0.063128
0.205675 0.120701 0.063641
0.232362 0.121261 0.064157
0.259691 0.121826 0.064676
0.287605 0.122393 0.065199
0.316043 0.122963 0.065724
0.344945 0.123536 0.066251
0.374253 0.124111 0.066782
0.403904 0.124689 0.067314
0.433838 0.125269 0.067849
0.463993 0.125852 0.068386
0.494307 0.126436 0.068925
0.524716 0.127023 0.069466
0.555158 0.127611 0.070009
0.585567 0.128202 0.070554
0.615881 0.128794 0.071100
0.646032 0.129388 0.071649
0.675957 0.129984 0.072199
0.705589 0.130581 0.072750
0.734861 0.131180 0.073304
0.763707 0.131781 0.073858
0.792058 0.132383 0.074415
0.819847 0.132987 0.074973
0.847006 0.133592 0.075532
0.009743 0.144655 0.061224
0.009743 0.144655 0.061224
0.024855 0.145083 0.061605
0.043959 0.145604 0.062070
0.064402 0.146140 0.062549
0.085989 0.146687 0.063037
0.108609 0.147242 0.063532
0.132182 0.147803 0.064033
0.156638 0.148370 0.064539
0.181913 0.148942 0.065050
0.207946 0.149517 0.065564
0.234678 0.150097 0.066082
0.262048 0.150679 0.066603
0.289997 0.151265 0.067127
0.318466 0.151854 0.067654
0.347396 0.152446 0.068183
0.376726 0.153041 0.068715
0.406395 0.153637 0.069249
0.436341 0.154237 0.069786
0.466504 0.154838 0.070324
0.496821 0.155442 0.070865
0.527229 0.156047 0.071408
0.557663 0.156655 0.071953
0.588062 0.157265 0.072499
0.618358 0.157876 0.073047
0.648488 0.158489 0.073597
0.678387 0.159104 0.074149
0.707987 0.159721 0.074703
0.737222 0.160339 0.075258
0.766025 0.160959 0.075814
0.794329 0.161580 0.076373
0.822066 0.162203 0.076932
0.849167 0.162827 0.077493
0.011465 0.174231 0.063139
0.011465 0.174231 0.063139
0.026639 0.174672 0.063522
0.045815 0.175208 0.063988
0.066328 0.175761 0.064468
0.087982 0.176324 0.064958
0.110666 0.176896 0.065455
0.134300 0.177474 0.065958
0.158812 0.178057 0.066465
0.184140 0.178646 0.066977
0.210222 0.179238 0.067493
0.236997 0.179835 0.068013
0.264407 0.180434 0.068536
0.292392 0.181038 0.069061
0.320893 0.181644 0.069590
0.349849 0.182253 0.070121
0.379200 0.182864 0.070655
0.408886 0.183479 0.071191
0.438845 0.184095 0.071729
0.469016 0.184714 0.072269
0.499336 0.185335 0.072812
0.529741 0.185958 0.073356
0.560169 0.186583 0.073902
0.590555 0.187210 0.074451
0.620834 0.187839 0.075001
0.650942 0.188469 0.075553
0.680813 0.189101 0.076106
0.710381 0.189735 0.076661
0.739579 0.190371 0.077218
0.768340 0.191008 0.077776
0.796596 0.191647 0.078336
0.824280 0.192287 0.078898
0.851323 0.192929 0.079461
0.013195 0.204642 0.065061
0.013195 0.204642 0.065061
0.028430 0.205094 0.065445
0.047677 0.205645 0.065912
0.068260 0.206212 0.066394
0.089981 0.206790 0.066885
0.112729 0.207376 0.067384
0.136422 0.207969 0.067888
0.160991 0.208568 0.068398
0.186371 0.209172 0.068911
0.212501 0.209780 0.069429
0.239320 0.210391 0.069950
0.266770 0.211007 0.070475
0.294790 0.211625 0.071002
0.323321 0.212247 0.071532
0.352303 0.212872 0.072065
0.381676 0.213499 0.072600
0.411379 0.214129 0.073138
0.441350 0.214761 0.073678
0.471528 0.215395 0.074220
0.501850 0.216032 0.074764
0.532253 0.216670 0.075310
0.562673 0.217311 0.075859
0.593047 0.217953 0.076409
0.623309 0.218598 0.076960
0.653394 0.219244 0.077514
0.683238 0.219892 0.078069
0.712773 0.220542 0.078626
0.741933 0.221193 0.079184
0.770651 0.221846 0.079744
0.798859 0.222500 0.080306
0.826490 0.223156 0.080869
0.853474 0.223813 0.081434
0.014932 0.235803 0.066989
0.014932 0.235803 0.066989
0.030228 0.236266 0.067374
0.049546 0.236829 0.067843
0.070198 0.237409 0.068326
0.091985 0.238000 0.068819
0.114797 0.238600 0.069319
0.138550 0.239207 0.069825
0.163175 0.239819 0.070336
0.188607 0.240436 0.070852
0.214784 0.241058 0.071371
0.241647 0.241683 0.071894
0.269136 0.242312 0.072420
0.297191 0.242945 0.072949
0.325752 0.243580 0.073481
0.354760 0.244219 0.074015
0.384154 0.244860 0.074552
0.413873 0.245503 0.075092
0.443856 0.246149 0.075633
0.474040 0.246798 0.076177
0.504364 0.247448 0.076723
0.534764 0.248101 0.077271
0.565177 0.248755 0.077821
0.595537 0.249412 0.078372
0.625782 0.250070 0.078926
0.655844 0.250730 0.079481
0.685660 0.251392 0.080038
0.715162 0.252055 0.080597
0.744284 0.252721 0.081157
0.772959 0.253387 0.081719
0.801118 0.254055 0.082282
0.828695 0.254725 0.082847
0.855621 0.255396 0.083413
0.016676 0.267631 0.068923
0.016676 0.267631 0.068923
0.032033 0.268103 0.069309
0.051422 0.268677 0.069780
0.072143 0.269269 0.070265
0.093996 0.269872 0.070759
0.116870 0.270483 0.071261
0.140682 0.271101 0.071769
0.165363 0.271725 0.072281
0.190846 0.272355 0.072798
0.217071 0.272988 0.073319
0.243977 0.273626 0.073844
0.271505 0.274267 0.074371
0.299594 0.274912 0.074902
0.328185 0.275559 0.075436
0.357219 0.276210 0.075972
0.386633 0.276863 0.076510
0.416368 0.277519 0.077052
0.446362 0.278177 0.077595
0.476553 0.278837 0.078140
0.506879 0.279500 0.078688
0.537275 0.280165 0.079237
0.567679 0.280832 0.079789
0.598027 0.281500 0.080342
0.628253 0.282171 0.080897
0.658292 0.282843 0.081454
0.688079 0.283517 0.082013
0.717548 0.284193 0.082573
0.746631 0.284870 0.083135
0.775262 0.285549 0.083699
0.803373 0.286229 0.084264
0.830896 0.286911 0.084830
0.857762 0.287594 0.085398
0.018427 0.300042 0.070863
0.018427 0.300042 0.070863
0.033845 0.300521 0.071251
0.053304 0.301105 0.071723
0.074093 0.301706 0.072209
0.096012 0.302319 0.072705
0.118949 0.302941 0.073209
0.142820 0.303570 0.073718
0.167556 0.304204 0.074232
0.193090 0.304843 0.074751
0.219362 0.305487 0.075273
0.246311 0.306135 0.075799
0.273877 0.306787 0.076329
0.302000 0.307442 0.076861
0.330621 0.308100 0.077396
0.359679 0.308761 0.077934
0.389114 0.309425 0.078475
0.418865 0.310091 0.079017
0.448869 0.310760 0.079562
0.479066 0.311431 0.080110
0.509393 0.312104 0.080659
0.539785 0.312779 0.081210
0.570181 0.313456 0.081763
0.600515 0.314135 0.082318
0.630722 0.314816 0.082875
0.660738 0.315499 0.083434
0.690496 0.316183 0.083994
0.719931 0.316869 0.084556
0.748976 0.317557 0.085120
0.777562 0.318246 0.085685
0.805624 0.318937 0.086252
0.833092 0.319629 0.086820
0.859898 0.320323 0.087390
0.020185 0.332951 0.072810
0.020185 0.332951 0.072810
0.035663 0.333437 0.073198
0.055192 0.334029 0.073672
0.076050 0.334639 0.074160
0.098034 0.335260 0.074658
0.121033 0.335890 0.075163
0.144963 0.336528 0.075673
0.169753 0.337171 0.076189
0.195339 0.337819 0.076709
0.221657 0.338471 0.077234
0.248649 0.339128 0.077761
0.276252 0.339789 0.078292
0.304409 0.340452 0.078826
0.333059 0.341119 0.079363
0.362142 0.341789 0.079903
0.391596 0.342461 0.080445
0.421362 0.343137 0.080989
0.451377 0.343814 0.081536
0.481580 0.344494 0.082085
0.511907 0.345175 0.082636
0.542295 0.345859 0.083189
0.572682 0.346545 0.083743
0.603001 0.347233 0.084300
0.633190 0.347923 0.084859
0.663182 0.348614 0.085419
0.692911 0.349307 0.085981
0.722311 0.350002 0.086545
0.751316 0.350698 0.087110
0.779859 0.351396 0.087677
0.807870 0.352095 0.088245
0.835284 0.352796 0.088815
0.862030 0.353498 0.089387
0.021951 0.366275 0.074762
0.021951 0.366275 0.074762
0.037489 0.366766 0.075152
0.057087 0.367365 0.075627
0.078013 0.367982 0.076117
0.100062 0.368610 0.076616
0.123122 0.369247 0.077123
0.147111 0.369891 0.077635
0.171955 0.370541 0.078152
0.197591 0.371196 0.078674
0.223956 0.371856 0.079200
0.250989 0.372520 0.079729
0.278631 0.373188 0.080262
0.306821 0.373858 0.080798
0.335499 0.374532 0.081336
0.364606 0.375209 0.081877
0.394080 0.375889 0.082421
0.423860 0.376571 0.082967
0.453886 0.377255 0.083515
0.484093 0.377942 0.084066
0.514421 0.378631 0.084619
0.544805 0.379322 0.085173
0.575182 0.380015 0.085730
0.605487 0.380710 0.086288
0.635656 0.381406 0.086848
0.665623 0.382104 0.087410
0.695323 0.382804 0.087974
0.724688 0.383506 0.088539
0.753654 0.384209 0.089106
0.782151 0.384914 0.089675
0.810112 0.385620 0.090245
0.837470 0.386327 0.090816
0.864156 0.387036 0.091390
0.023723 0.399929 0.076721
0.023723 0.399929 0.076721
0.039321 0.400425 0.077112
0.058989 0.401029 0.077589
0.079981 0.401651 0.078080
0.102095 0.402284 0.078581
0.125217 0.402927 0.079089
0.149263 0.403577 0.079603
0.174162 0.404232 0.080122
0.199848 0.404893 0.080645
0.226258 0.405558 0.081173
0.253333 0.406227 0.081704
0.281012 0.406900 0.082238
0.309235 0.407576 0.082775
0.337942 0.408256 0.083315
0.367072 0.408938 0.083858
0.396565 0.409623 0.084403
0.426360 0.410310 0.084951
0.456395 0.411000 0.085501
0.486607 0.411692 0.086053
0.516934 0.412386 0.086607
0.547313 0.413082 0.087164
0.577680 0.413781 0.087722
0.607971 0.414481 0.088282
0.638120 0.415182 0.088844
0.668062 0.415886 0.089407
0.697732 0.416591 0.089973
0.727062 0.417298 0.090540
0.755987 0.418006 0.091108
0.784439 0.418716 0.091678
0.812350 0.419427 0.092250
0.839652 0.420139 0.092824
0.866277 0.420853 0.093398
0.025503 0.433831 0.078686
0.025503 0.433831 0.078686
0.041160 0.434330 0.079078
0.060896 0.434937 0.079556
0.081956 0.435563 0.080049
0.104134 0.436200 0.080551
0.127317 0.436846 0.081061
0.151421 0.437500 0.081576
0.176373 0.438159 0.082097
0.202108 0.438823 0.082622
0.228565 0.439492 0.083151
0.255681 0.440165 0.083684
0.283396 0.440842 0.084219
0.311652 0.441522 0.084758
0.340386 0.442205 0.085300
0.369540 0.442891 0.085845
0.399052 0.443580 0.086392
0.428860 0.444271 0.086941
0.458904 0.444964 0.087492
0.489121 0.445660 0.088046
0.519448 0.446358 0.088602
0.549822 0.447057 0.089160
0.580178 0.447759 0.089720
0.610453 0.448463 0.090282
0.640582 0.449168 0.090845
0.670499 0.449875 0.091410
0.700138 0.450583 0.091977
0.729433 0.451293 0.092546
0.758318 0.452005 0.093116
0.786724 0.452718 0.093688
0.814584 0.453432 0.094262
0.841830 0.454148 0.094836
0.868393 0.454865 0.095413
0.027289 0.467895 0.080657
0.027289 0.467895 0.080657
0.043005 0.468396 0.081050
0.062811 0.469005 0.081530
0.083937 0.469633 0.082024
0.106179 0.470273 0.082528
0.129423 0.470921 0.083039
0.153583 0.471577 0.083556
0.178589 0.472238 0.084078
0.204373 0.472905 0.084605
0.230875 0.473576 0.085135
0.258031 0.474251 0.085670
0.285784 0.474930 0.086207
0.314071 0.475612 0.086748
0.342833 0.476297 0.087291
0.372009 0.476985 0.087837
0.401539 0.477675 0.088386
0.431362 0.478368 0.088937
0.461414 0.479064 0.089490
0.491635 0.479761 0.090045
0.521961 0.480461 0.090603
0.552329 0.481162 0.091162
0.582675 0.481866 0.091724
0.612934 0.482571 0.092287
0.643042 0.483278 0.092852
0.672934 0.483987 0.093419
0.702542 0.484697 0.093988
0.731801 0.485409 0.094558
0.760645 0.486122 0.095130
0.789004 0.486837 0.095704
0.816813 0.487553 0.096279
0.844003 0.488270 0.096855
0.870504 0.488989 0.097433
0.029083 0.502039 0.082634
0.029083 0.502039 0.082634
0.044857 0.502540 0.083028
0.064731 0.503150 0.083509
0.085924 0.503778 0.084005
0.108230 0.504418 0.084510
0.131533 0.505067 0.085023
0.155751 0.505723 0.085542
0.180809 0.506385 0.086065
0.206642 0.507053 0.086594
0.233188 0.507724 0.087126
0.260385 0.508400 0.087662
0.288174 0.509079 0.088201
0.316492 0.509761 0.088743
0.345282 0.510447 0.089288
0.374481 0.511135 0.089835
0.404029 0.511826 0.090386
0.433864 0.512519 0.090938
0.463925 0.513215 0.091493
0.494149 0.513912 0.092050
0.524474 0.514612 0.092609
0.554836 0.515314 0.093170
0.585171 0.516017 0.093733
0.615414 0.516723 0.094298
0.645501 0.517430 0.094865
0.675366 0.518138 0.095434
0.704943 0.518848 0.096004
0.734166 0.519560 0.096576
0.762968 0.520273 0.097150
0.791281 0.520988 0.097725
0.819038 0.521703 0.098301
0.846170 0.522420 0.098880
0.872609 0.523139 0.099459
0.030883 0.536177 0.084616
0.030883 0.536177 0.084616
0.046716 0.536677 0.085012
0.066658 0.537287 0.085495
0.087917 0.537914 0.085992
0.110285 0.538553 0.086499
0.133649 0.539201 0.087013
0.157923 0.539856 0.087533
0.183033 0.540517 0.088059
0.208915 0.541183 0.088588
0.235505 0.541853 0.089122
0.262743 0.542528 0.089659
0.290567 0.543206 0.090200
0.318917 0.543887 0.090744
0.347733 0.544571 0.091290
0.376954 0.545258 0.091840
0.406519 0.545947 0.092392
0.436367 0.546639 0.092946
0.466436 0.547333 0.093502
0.496664 0.548029 0.094061
0.526987 0.548727 0.094622
0.557342 0.549428 0.095184
0.587665 0.550129 0.095749
0.617892 0.550833 0.096316
0.647957 0.551538 0.096884
0.677796 0.552245 0.097454
0.707341 0.552953 0.098026
0.736528 0.553663 0.098600
0.765287 0.554374 0.099175
0.793554 0.555087 0.099752
0.821258 0.555801 0.100330
0.848333 0.556516 0.100910
0.874710 0.557232 0.101491
0.032690 0.570226 0.086605
0.032690 0.570226 0.086605
0.048582 0.570725 0.087002
0.068591 0.571332 0.087486
0.089915 0.571957 0.087985
0.112347 0.572593 0.088493
0.135770 0.573239 0.089009
0.160099 0.573891 0.089531
0.185262 0.574549 0.090058
0.211192 0.575212 0.090589
0.237826 0.575880 0.091124
0.265103 0.576551 0.091663
0.292962 0.577226 0.092205
0.321343 0.577904 0.092751
0.350186 0.578585 0.093299
0.379428 0.579269 0.093850
0.409011 0.579956 0.094403
0.438871 0.580644 0.094959
0.468948 0.581335 0.095517
0.499178 0.582028 0.096077
0.529499 0.582723 0.096640
0.559847 0.583420 0.097204
0.590158 0.584118 0.097770
0.620368 0.584818 0.098339
0.650412 0.585520 0.098909
0.680223 0.586223 0.099480
0.709737 0.586928 0.100054
0.738886 0.587634 0.100629
0.767604 0.588342 0.101206
0.795822 0.589051 0.101784
0.823474 0.589761 0.102364
0.850491 0.590472 0.102946
0.876805 0.591184 0.103529
0.034505 0.604103 0.088600
0.034505 0.604103 0.088600
0.050454 0.604598 0.088998
0.070530 0.605201 0.089484
0.091920 0.605822 0.089984
0.114414 0.606455 0.090493
0.137896 0.607096 0.091011
0.162281 0.607744 0.091534
0.187495 0.608398 0.092062
0.213473 0.609056 0.092595
0.240151 0.609719 0.093132
0.267467 0.610386 0.093673
0.295361 0.611057 0.094217
0.323772 0.611730 0.094763
0.352640 0.612406 0.095313
0.381905 0.613086 0.095866
0.411504 0.613767 0.096421
0.441376 0.614451 0.096978
0.471460 0.615137 0.097538
0.501692 0.615825 0.098100
0.532011 0.616515 0.098663
0.562352 0.617206 0.099229
0.592650 0.617900 0.099797
0.622843 0.618595 0.100367
0.652864 0.619291 0.100939
0.682648 0.619989 0.101512
0.712129 0.620689 0.102087
0.741241 0.621390 0.102664
0.769916 0.622092 0.103242
0.798087 0.622795 0.103822
0.825686 0.623500 0.104404
0.852645 0.624205 0.104987
0.878894 0.624912 0.105572
0.036326 0.637723 0.090601
0.036326 0.637723 0.090601
0.052333 0.638213 0.091000
0.072475 0.638811 0.091487
0.093930 0.639426 0.091988
0.116486 0.640053 0.092500
0.140027 0.640689 0.093018
0.164467 0.641331 0.093543
0.189733 0.641979 0.094073
0.215758 0.642631 0.094608
0.242479 0.643288 0.095146
0.269834 0.643949 0.095688
0.297762 0.644613 0.096234
0.326204 0.645280 0.096782
0.355097 0.645950 0.097333
0.384382 0.646623 0.097887
0.413998 0.647298 0.098444
0.443882 0.647975 0.099003
0.473972 0.648654 0.099564
0.504207 0.649335 0.100127
0.534522 0.650019 0.100693
0.564855 0.650703 0.101261
0.595141 0.651390 0.101830
0.625316 0.652078 0.102401
0.655315 0.652768 0.102975
0.685071 0.653459 0.103550
0.714519 0.654151 0.104126
0.743593 0.654845 0.104705
0.772225 0.655540 0.105285
0.800347 0.656236 0.105866
0.827893 0.656933 0.106449
0.854793 0.657632 0.107034
0.880979 0.658331 0.107620
0.038154 0.671001 0.092607
0.038154 0.671001 0.092607
0.054218 0.671487 0.093008
0.074427 0.672077 0.093496
0.095946 0.672686 0.093999
0.118564 0.673305 0.094512
0.142164 0.673933 0.095032
0.166658 0.674568 0.095558
0.191975 0.675208 0.096090
0.218047 0.675853 0.096626
0.244810 0.676502 0.097166
0.272204 0.677155 0.097709
0.300167 0.677811 0.098256
0.328638 0.678470 0.098806
0.357556 0.679132 0.099359
0.386862 0.679796 0.099915
0.416493 0.680463 0.100473
0.446388 0.681132 0.101033
0.476485 0.681803 0.101596
0.506721 0.682476 0.102161
0.537033 0.683151 0.102728
0.567358 0.683827 0.103297
0.597631 0.684505 0.103868
0.627788 0.685185 0.104441
0.657763 0.685865 0.105016
0.687491 0.686548 0.105593
0.716906 0.687231 0.106171
0.745941 0.687916 0.106751
0.774529 0.688602 0.107333
0.802603 0.689289 0.107916
0.830095 0.689978 0.108501
0.856936 0.690667 0.109087
0.883058 0.691357 0.109675
0.039988 0.703855 0.094619
0.039988 0.703855 0.094619
0.056109 0.704334 0.095021
0.076385 0.704916 0.095511
0.097968 0.705516 0.096015
0.120647 0.706127 0.096529
0.144305 0.706745 0.097051
0.168854 0.707371 0.097579
0.194221 0.708002 0.098112
0.220339 0.708638 0.098649
0.247145 0.709277 0.099191
0.274577 0.709920 0.099736
0.302573 0.710567 0.100285
0.331074 0.711216 0.100836
0.360017 0.711869 0.101391
0.389343 0.712523 0.101948
0.418989 0.713180 0.102507
0.448895 0.713839 0.103069
0.478998 0.714500 0.103634
0.509235 0.715163 0.104200
0.539544 0.715827 0.104769
0.569860 0.716493 0.105340
0.600119 0.717161 0.105912
0.630257 0.717830 0.106487
0.660209 0.718501 0.107063
0.689909 0.719172 0.107642
0.719290 0.719845 0.108221
0.748286 0.720520 0.108803
0.776831 0.721195 0.109386
0.804856 0.721872 0.109971
0.832293 0.722549 0.110557
0.859075 0.723227 0.111145
0.885131 0.723907 0.111734
0.041829 0.736201 0.096638
0.041829 0.736201 0.096638
0.058007 0.736671 0.097040
0.078349 0.737244 0.097531
0.099995 0.737833 0.098037
0.122736 0.738433 0.098553
0.146451 0.739042 0.099076
0.171054 0.739656 0.099605
0.196471 0.740276 0.100140
0.222636 0.740901 0.100679
0.249484 0.741530 0.101222
0.276953 0.742162 0.101769
0.304983 0.742797 0.102319
0.333512 0.743435 0.102872
0.362480 0.744076 0.103428
0.391825 0.744719 0.103986
0.421487 0.745364 0.104548
0.451403 0.746011 0.105111
0.481511 0.746661 0.105677
0.511749 0.747311 0.106245
0.542054 0.747964 0.106816
0.572361 0.748618 0.107388
0.602606 0.749274 0.107962
0.632725 0.749931 0.108538
0.662653 0.750589 0.109116
0.692324 0.751249 0.109696
0.721671 0.751910 0.110277
0.750628 0.752571 0.110860
0.779128 0.753234 0.111445
0.807103 0.753898 0.112031
0.834486 0.754563 0.112619
0.861208 0.755229 0.113209
0.887200 0.755896 0.113800
0.043678 0.767953 0.098661
0.043678 0.767953 0.098661
0.059912 0.768414 0.099065
0.080318 0.768976 0.099558
0.102029 0.769553 0.100065
0.124830 0.770141 0.100582
0.148602 0.770738 0.101107
0.173259 0.771340 0.101638
0.198726 0.771948 0.102174
0.224936 0.772560 0.102714
0.251826 0.773176 0.103259
0.279332 0.773795 0.103807
0.307395 0.774417 0.104358
0.335953 0.775042 0.104913
0.364944 0.775670 0.105471
0.394309 0.776299 0.106031
0.423985 0.776931 0.106594
0.453911 0.777565 0.107159
0.484025 0.778201 0.107726
0.514263 0.778838 0.108296
0.544563 0.779477 0.108868
0.574861 0.780118 0.109442
0.605092 0.780760 0.110017
0.635192 0.781403 0.110595
0.665095 0.782047 0.111174
0.694736 0.782693 0.111756
0.724049 0.783340 0.112339
0.752966 0.783987 0.112923
0.781422 0.784636 0.113510
0.809347 0.785286 0.114098
0.836675 0.785937 0.114687
0.863336 0.786588 0.115278
0.889262 0.787240 0.115870
0.045532 0.799029 0.100691
0.045532 0.799029 0.100691
0.061823 0.799480 0.101096
0.082294 0.800028 0.101590
0.104068 0.800593 0.102098
0.126929 0.801167 0.102617
0.150758 0.801750 0.103143
0.175468 0.802338 0.103676
0.200985 0.802932 0.104213
0.227240 0.803529 0.104755
0.254171 0.804131 0.105301
0.281715 0.804736 0.105851
0.309810 0.805343 0.106404
0.338395 0.805954 0.106960
0.367411 0.806566 0.107519
0.396794 0.807181 0.108081
0.426485 0.807798 0.108645
0.456420 0.808417 0.109212
0.486539 0.809037 0.109781
0.516777 0.809660 0.110352
0.547072 0.810283 0.110925
0.577360 0.810908 0.111501
0.607576 0.811535 0.112078
0.637656 0.812162 0.112657
0.667535 0.812791 0.113238
0.697146 0.813421 0.113821
0.726424 0.814052 0.114406
0.755301 0.814684 0.114992
0.783711 0.815317 0.115580
0.811586 0.815950 0.116169
0.838859 0.816585 0.116760
0.865459 0.817220 0.117353
0.891319 0.817856 0.117947
0.047394 0.829345 0.102726
0.047394 0.829345 0.102726
0.063740 0.829783 0.103132
0.084276 0.830317 0.103627
0.106112 0.830867 0.104138
0.129033 0.831427 0.104658
0.152919 0.831994 0.105185
0.177682 0.832566 0.105719
0.203248 0.833144 0.106258
0.229548 0.833726 0.106801
0.256520 0.834311 0.107349
0.284100 0.834900 0.107900
0.312227 0.835491 0.108455
0.340840 0.836085 0.109012
0.369879 0.836682 0.109573
0.399281 0.837280 0.110136
0.428985 0.837880 0.110702
0.458930 0.838482 0.111270
0.489053 0.839086 0.111841
0.519291 0.839691 0.112414
0.549580 0.840297 0.112988
0.579858 0.840905 0.113565
0.610059 0.841514 0.114144
0.640119 0.842125 0.114725
0.669972 0.842736 0.115308
0.699553 0.843349 0.115892
0.728795 0.843962 0.116478
