cinelut/luts/life-aquatic.cube
# CineLUT — The Life Aquatic (2004)
# Gerado por generate_luts.py
LUT_3D_SIZE 9
0.001241 0.012230 0.051744
0.054869 0.013428 0.053046
0.145841 0.015231 0.055004
0.250299 0.017100 0.057033
0.364379 0.019016 0.059111
0.484251 0.020968 0.061226
0.605955 0.022951 0.063373
0.725387 0.024961 0.065549
0.838313 0.026996 0.067749
0.008028 0.115998 0.059315
0.062483 0.117434 0.060635
0.154469 0.119591 0.062619
0.259691 0.121826 0.064676
0.374253 0.124111 0.066782
0.494307 0.126436 0.068925
0.615881 0.128794 0.071100
0.734861 0.131180 0.073304
0.847006 0.133592 0.075532
0.014932 0.235803 0.066989
0.070198 0.237409 0.068326
0.163175 0.239819 0.070336
0.269136 0.242312 0.072420
0.384154 0.244860 0.074552
0.504364 0.247448 0.076723
0.625782 0.250070 0.078926
0.744284 0.252721 0.081157
0.855621 0.255396 0.083413
0.021951 0.366275 0.074762
0.078013 0.367982 0.076117
0.171955 0.370541 0.078152
0.278631 0.373188 0.080262
0.394080 0.375889 0.082421
0.514421 0.378631 0.084619
0.635656 0.381406 0.086848
0.753654 0.384209 0.089106
0.864156 0.387036 0.091390
0.029083 0.502039 0.082634
0.085924 0.503778 0.084005
0.180809 0.506385 0.086065
0.288174 0.509079 0.088201
0.404029 0.511826 0.090386
0.524474 0.514612 0.092609
0.645501 0.517430 0.094865
0.762968 0.520273 0.097150
0.872609 0.523139 0.099459
0.036326 0.637723 0.090601
0.093930 0.639426 0.091988
0.189733 0.641979 0.094073
0.297762 0.644613 0.096234
0.413998 0.647298 0.098444
0.534522 0.650019 0.100693
0.655315 0.652768 0.102975
0.772225 0.655540 0.105285
0.880979 0.658331 0.107620
0.043678 0.767953 0.098661
0.102029 0.769553 0.100065
0.198726 0.771948 0.102174
0.307395 0.774417 0.104358
0.423985 0.776931 0.106594
0.544563 0.779477 0.108868
0.665095 0.782047 0.111174
0.781422 0.784636 0.113510
0.889262 0.787240 0.115870
0.051136 0.887358 0.106813
0.110218 0.888786 0.108233
0.207785 0.890920 0.110365
0.317069 0.893118 0.112573
0.433989 0.895354 0.114833
0.554594 0.897616 0.117131
0.674840 0.899896 0.119462
0.790557 0.902189 0.121822
0.897457 0.904494 0.124207
0.057725 0.978445 0.113995
0.117432 0.979666 0.115428
0.215738 0.981490 0.117579
0.325537 0.983366 0.119808
0.442724 0.985271 0.122088
0.563332 0.987195 0.124408
0.683307 0.989131 0.126760
0.798471 0.991076 0.129140
0.904530 0.993027 0.131547
0.002066 0.013079 0.178584
0.055797 0.014279 0.180120
0.146894 0.016085 0.182425
0.251447 0.017959 0.184812
0.365587 0.019878 0.187251
0.485483 0.021834 0.189731
0.607172 0.023821 0.192244
0.726551 0.025835 0.194786
0.839382 0.027874 0.197354
0.008867 0.117015 0.187491
0.063423 0.118453 0.189039
0.155532 0.120613 0.191362
0.260846 0.122850 0.193767
0.375465 0.125138 0.196225
0.495539 0.127466 0.198724
0.617095 0.129827 0.201256
0.736019 0.132216 0.203817
0.848065 0.134631 0.206403
0.015785 0.236941 0.196467
0.071151 0.238548 0.198027
0.164247 0.240959 0.200367
0.270297 0.243454 0.202790
0.385369 0.246004 0.205267
0.505597 0.248594 0.207783
0.626993 0.251218 0.210334
0.745435 0.253870 0.212913
0.856671 0.256548 0.215517
0.022818 0.367484 0.205510
0.078977 0.369191 0.207081
0.173036 0.371752 0.209439
0.279798 0.374399 0.211879
0.395298 0.377101 0.214373
0.515653 0.379844 0.216907
0.636864 0.382620 0.219475
0.754798 0.385424 0.222072
0.865196 0.388252 0.224694
0.029964 0.503271 0.214618
0.086900 0.505011 0.216200
0.181899 0.507618 0.218574
0.289346 0.510311 0.221031
0.405249 0.513058 0.223542
0.525706 0.515844 0.226093
0.646705 0.518662 0.228678
0.764105 0.521505 0.231292
0.873640 0.524370 0.233931
0.037221 0.638930 0.223789
0.094917 0.640633 0.225381
0.190831 0.643184 0.227771
0.298940 0.645817 0.230244
0.415221 0.648501 0.232771
0.535753 0.651221 0.235339
0.656515 0.653969 0.237941
0.773355 0.656740 0.240571
0.881999 0.659530 0.243226
0.044586 0.769087 0.233020
0.103027 0.770686 0.234622
0.199833 0.773078 0.237028
0.308578 0.775546 0.239516
0.425210 0.778058 0.242059
0.545793 0.780602 0.244643
0.666291 0.783170 0.247260
0.782544 0.785756 0.249906
0.890271 0.788358 0.252578
0.052057 0.888370 0.242309
0.111228 0.889795 0.243922
0.208900 0.891927 0.246342
0.318257 0.894122 0.248846
0.435216 0.896355 0.251404
0.555823 0.898614 0.254003
0.676031 0.900890 0.256635
0.791672 0.903181 0.259296
0.898455 0.905482 0.261983
0.058657 0.979310 0.250456
0.118451 0.980529 0.252077
0.216859 0.982349 0.254509
0.326730 0.984222 0.257026
0.443952 0.986123 0.259596
0.564559 0.988043 0.262208
0.684494 0.989975 0.264853
0.799579 0.991916 0.267527
0.905518 0.993863 0.270227
0.002846 0.013880 0.313826
0.056673 0.015083 0.315501
0.147888 0.016893 0.318014
0.252530 0.018770 0.320612
0.366727 0.020693 0.323265
0.486645 0.022652 0.325960
0.608320 0.024643 0.328688
0.727647 0.026661 0.331444
0.840390 0.028703 0.334225
0.009661 0.117975 0.323526
0.064311 0.119415 0.325208
0.156535 0.121577 0.327731
0.261935 0.123817 0.330340
0.376608 0.126108 0.333003
0.496701 0.128439 0.335708
0.618240 0.130802 0.338446
0.737109 0.133194 0.341212
0.849064 0.135612 0.344003
0.016592 0.238014 0.333265
0.072050 0.239622 0.334953
0.165258 0.242035 0.337485
0.271392 0.244532 0.340104
0.386515 0.247083 0.342777
0.506759 0.249675 0.345491
0.628135 0.252301 0.348239
0.746520 0.254955 0.351014
0.857660 0.257635 0.353814
0.023639 0.368624 0.343040
0.079887 0.370332 0.344734
0.174057 0.372894 0.347275
0.280899 0.375542 0.349902
0.396447 0.378245 0.352584
0.516815 0.380989 0.355308
0.638003 0.383766 0.358064
0.755876 0.386570 0.360849
0.866176 0.389399 0.363657
0.030797 0.504433 0.352848
0.087822 0.506173 0.354548
0.182927 0.508780 0.357097
0.290453 0.511473 0.359733
0.406400 0.514220 0.362423
0.526867 0.517006 0.365155
0.647840 0.519823 0.367920
0.765177 0.522667 0.370713
0.874610 0.525532 0.373530
0.038066 0.640068 0.362688
0.095850 0.641771 0.364393
0.191868 0.644321 0.366950
0.300052 0.646953 0.369594
0.416374 0.649636 0.372292
0.536914 0.652355 0.375031
0.657646 0.655102 0.377804
0.774420 0.657871 0.380604
0.882959 0.660660 0.383429
0.045444 0.770155 0.372557
0.103971 0.771753 0.374267
0.200877 0.774143 0.376831
0.309695 0.776609 0.379482
0.426366 0.779119 0.382188
0.546952 0.781661 0.384935
0.667418 0.784227 0.387714
0.783602 0.786812 0.390522
0.891221 0.789412 0.393353
0.052927 0.889322 0.382454
0.112181 0.890746 0.384168
0.209952 0.892875 0.386739
0.319378 0.895068 0.389397
0.436373 0.897298 0.392109
0.556981 0.899553 0.394863
0.677155 0.901827 0.397649
0.792723 0.904115 0.400462
0.899395 0.906413 0.403300
0.059538 0.980125 0.391104
0.119413 0.981341 0.392823
0.217917 0.983158 0.395399
0.327854 0.985027 0.398062
0.445111 0.986924 0.400779
0.565716 0.988841 0.403538
0.685613 0.990769 0.406329
0.800623 0.992706 0.409148
0.906448 0.994649 0.411991
0.003603 0.014659 0.452981
0.057523 0.015864 0.454717
0.148852 0.017676 0.457319
0.253580 0.019557 0.460007
0.367832 0.021483 0.462750
0.487770 0.023446 0.465533
0.609432 0.025440 0.468348
0.728709 0.027462 0.471190
0.841364 0.029508 0.474055
0.010431 0.118907 0.463020
0.065172 0.120348 0.464757
0.157508 0.122513 0.467361
0.262991 0.124756 0.470052
0.377716 0.127049 0.472797
0.497827 0.129382 0.475582
0.619349 0.131748 0.478398
0.738165 0.134143 0.481242
0.850030 0.136563 0.484108
0.017375 0.239055 0.473066
0.072922 0.240664 0.474805
0.166240 0.243079 0.477410
0.272454 0.245577 0.480103
0.387626 0.248130 0.482849
0.507885 0.250724 0.485635
0.629241 0.253351 0.488453
0.747570 0.256007 0.491297
0.858618 0.258688 0.494164
0.024434 0.369730 0.483119
0.080771 0.371438 0.484858
0.175046 0.374001 0.487464
0.281966 0.376649 0.490158
0.397560 0.379353 0.492905
0.517940 0.382098 0.495691
0.639105 0.384876 0.498510
0.756920 0.387681 0.501354
0.867124 0.390510 0.504221
0.031606 0.505559 0.493175
0.088716 0.507299 0.494914
0.183925 0.509906 0.497521
0.291525 0.512599 0.500215
0.407516 0.515346 0.502962
0.527992 0.518132 0.505749
0.648940 0.520949 0.508567
0.766215 0.523792 0.511411
0.875549 0.526657 0.514278
0.038887 0.641170 0.503232
0.096754 0.642872 0.504972
0.192873 0.645421 0.507579
0.301129 0.648053 0.510272
0.417492 0.650734 0.513019
0.538038 0.653452 0.515805
0.658742 0.656198 0.518622
0.775451 0.658967 0.521466
0.883888 0.661755 0.524331
0.046276 0.771189 0.513289
0.104885 0.772785 0.515028
0.201890 0.775175 0.517634
0.310777 0.777638 0.520327
0.427485 0.780147 0.523073
0.548076 0.782687 0.525858
0.668510 0.785251 0.528674
0.784626 0.787833 0.531516
0.892141 0.790431 0.534379
0.053771 0.890244 0.523342
0.113106 0.891666 0.525081
0.210972 0.893792 0.527686
0.320465 0.895983 0.530377
0.437494 0.898210 0.533122
0.558103 0.900463 0.535905
0.678242 0.902733 0.538719
0.793740 0.905018 0.541559
0.900305 0.907313 0.544420
0.060392 0.980913 0.532105
0.120346 0.982127 0.533843
0.218944 0.983940 0.536447
0.328945 0.985806 0.539136
0.446233 0.987700 0.541879
0.566837 0.989612 0.544660
0.686697 0.991537 0.547472
0.801633 0.993471 0.550310
0.907349 0.995410 0.553168
0.004345 0.015421 0.591059
0.058355 0.016628 0.592783
0.149796 0.018444 0.595366
0.254608 0.020328 0.598033
0.368913 0.022258 0.600751
0.488872 0.024224 0.603507
0.610519 0.026222 0.606292
0.729747 0.028247 0.609102
0.842317 0.030297 0.611932
0.011186 0.119819 0.601018
0.066016 0.121262 0.602738
0.158460 0.123429 0.605316
0.264025 0.125674 0.607977
0.378800 0.127970 0.610689
0.498929 0.130306 0.613439
0.620434 0.132675 0.616218
0.739198 0.135072 0.619020
0.850974 0.137495 0.621843
0.018143 0.240073 0.610955
0.073777 0.241683 0.612672
0.167200 0.244100 0.615243
0.273493 0.246600 0.617898
0.388712 0.249155 0.620603
0.508986 0.251750 0.623346
0.630323 0.254379 0.626118
0.748596 0.257036 0.628913
0.859553 0.259719 0.631728
0.025214 0.370811 0.620869
0.081636 0.372520 0.622581
0.176015 0.375083 0.625146
0.283010 0.377733 0.627793
0.398649 0.380438 0.630492
0.519041 0.383183 0.633227
0.640184 0.385961 0.635991
0.757941 0.388768 0.638778
0.868051 0.391598 0.641585
0.032398 0.506660 0.630757
0.089591 0.508400 0.632464
0.184901 0.511007 0.635022
0.292575 0.513700 0.637662
0.408607 0.516447 0.640352
0.529092 0.519233 0.643079
0.650015 0.522050 0.645835
0.767229 0.524892 0.648614
0.876466 0.527757 0.651411
0.039691 0.642248 0.640617
0.097640 0.643949 0.642319
0.193857 0.646498 0.644869
0.302184 0.649128 0.647501
0.418585 0.651809 0.650183
0.539138 0.654526 0.652901
0.659813 0.657270 0.655648
0.776459 0.660038 0.658417
0.884796 0.662825 0.661205
0.047092 0.772200 0.650446
0.105781 0.773795 0.652143
0.202881 0.776182 0.654685
0.311836 0.778644 0.657308
0.428581 0.781151 0.659981
0.549174 0.783689 0.662690
0.669578 0.786251 0.665427
0.785627 0.788832 0.668186
0.893039 0.791428 0.670965
0.054599 0.891145 0.660243
0.114011 0.892565 0.661935
0.211970 0.894689 0.664467
0.321528 0.896876 0.667081
0.438591 0.899101 0.669745
0.559200 0.901351 0.672444
0.679305 0.903619 0.675170
0.794734 0.905901 0.677919
0.901193 0.908193 0.680687
0.061229 0.981682 0.668759
0.121260 0.982894 0.670444
0.219948 0.984704 0.672969
0.330012 0.986566 0.675574
0.447331 0.988456 0.678229
0.567933 0.990365 0.680919
0.687757 0.992287 0.683636
0.802621 0.994217 0.686376
0.908228 0.996152 0.689133
0.005076 0.016172 0.723252
0.059175 0.017382 0.724897
0.150725 0.019201 0.727358
0.255620 0.021088 0.729897
0.369976 0.023021 0.732484
0.489954 0.024991 0.735103
0.611588 0.026992 0.737749
0.730767 0.029020 0.740415
0.843253 0.031073 0.743097
0.011929 0.120717 0.732738
0.066847 0.122161 0.734373
0.159397 0.124331 0.736821
0.265042 0.126578 0.739347
0.379866 0.128877 0.741920
0.500011 0.131215 0.744525
0.621500 0.133586 0.747156
0.740212 0.135986 0.749806
0.851902 0.138411 0.752474
0.018899 0.241075 0.742172
0.074618 0.242686 0.743799
0.168146 0.245105 0.746233
0.274515 0.247606 0.748745
0.389781 0.250162 0.751303
0.510069 0.252759 0.753893
0.631386 0.255390 0.756508
0.749605 0.258049 0.759144
0.860472 0.260734 0.761795
0.025982 0.371875 0.751554
0.082488 0.373585 0.753171
0.176968 0.376148 0.755592
0.284038 0.378799 0.758089
0.399720 0.381504 0.760631
0.520124 0.384250 0.763206
0.641244 0.387029 0.765805
0.758944 0.389836 0.768424
0.868961 0.392667 0.771059
0.033177 0.507743 0.760881
0.090453 0.509483 0.762488
0.185862 0.512090 0.764894
0.293607 0.514782 0.767376
0.409681 0.517529 0.769902
0.530174 0.520315 0.772461
0.651071 0.523132 0.775044
0.768225 0.525975 0.777646
0.877367 0.528839 0.780264
0.040482 0.643307 0.770150
0.098512 0.645008 0.771748
0.194826 0.647555 0.774139
0.303221 0.650185 0.776604
0.419661 0.652865 0.779115
0.540218 0.655580 0.781657
0.660866 0.658324 0.784222
0.777449 0.661091 0.786807
0.885688 0.663877 0.789407
0.047895 0.773193 0.779361
0.106663 0.774787 0.780948
0.203856 0.777173 0.783323
0.312877 0.779633 0.785772
0.429658 0.782138 0.788266
0.550254 0.784674 0.790790
0.670627 0.787234 0.793338
0.786611 0.789813 0.795905
0.893921 0.792407 0.798487
0.055413 0.892029 0.788510
0.114903 0.893448 0.790087
0.212953 0.895569 0.792445
0.322574 0.897754 0.794877
0.439670 0.899976 0.797353
0.560279 0.902223 0.799860
0.680350 0.904488 0.802390
0.795710 0.906767 0.804938
0.902065 0.909057 0.807500
0.062053 0.982437 0.796437
0.122159 0.983647 0.798003
0.220936 0.985454 0.800347
0.331061 0.987312 0.802764
0.448411 0.989199 0.805224
0.569011 0.991105 0.807715
0.688798 0.993023 0.810228
0.803591 0.994949 0.812759
0.909092 0.996881 0.815305
0.005798 0.016914 0.844973
0.059985 0.018126 0.846472
0.151642 0.019948 0.848714
0.256618 0.021838 0.851025
0.371025 0.023775 0.853376
0.491022 0.025748 0.855755
0.612641 0.027752 0.858154
0.731772 0.029784 0.860570
0.844175 0.031840 0.862998
0.012664 0.121603 0.853606
0.067667 0.123049 0.855092
0.160323 0.125221 0.857313
0.266045 0.127471 0.859603
0.380917 0.129772 0.861932
0.501079 0.132113 0.864289
0.622551 0.134487 0.866666
0.741212 0.136889 0.869058
0.852815 0.139316 0.871462
0.019646 0.242064 0.862161
0.075449 0.243676 0.863632
0.169079 0.246096 0.865833
0.275524 0.248600 0.868100
0.390835 0.251157 0.870407
0.511136 0.253756 0.872741
0.632434 0.256388 0.875094
0.750599 0.259049 0.877463
0.861377 0.261735 0.879843
0.026741 0.372924 0.870633
0.083329 0.374635 0.872091
0.177909 0.377199 0.874270
0.285052 0.379850 0.876515
0.400777 0.382556 0.878799
0.521191 0.385303 0.881109
0.642289 0.388083 0.883439
0.759932 0.390891 0.885783
0.869857 0.393722 0.888139
0.033948 0.508811 0.879023
0.091305 0.510550 0.880465
0.186811 0.513157 0.882622
0.294626 0.515850 0.884845
0.410740 0.518597 0.887105
0.531241 0.521382 0.889391
0.652113 0.524199 0.891696
0.769208 0.527042 0.894015
0.878255 0.529906 0.896346
0.041264 0.644351 0.887326
0.099374 0.646052 0.888754
0.195781 0.648598 0.890888
0.304244 0.651227 0.893087
0.420721 0.653906 0.895323
0.541285 0.656620 0.897585
0.661904 0.659363 0.899864
0.778424 0.662129 0.902158
0.886566 0.664914 0.904463
0.048688 0.774172 0.895542
0.107534 0.775765 0.896954
0.204819 0.778149 0.899066
0.313905 0.780607 0.901240
0.430720 0.783110 0.903452
0.551319 0.785645 0.905688
0.671661 0.788203 0.907942
0.787580 0.790780 0.910210
0.894790 0.793372 0.912488
0.056217 0.892900 0.903668
0.115783 0.894317 0.905065
0.213922 0.896436 0.907152
0.323606 0.898618 0.909302
0.440734 0.900838 0.911488
0.561343 0.903082 0.913698
0.681381 0.905345 0.915926
0.796672 0.907621 0.918167
0.902925 0.909908 0.920418
0.062867 0.983180 0.910679
0.123047 0.984388 0.912061
0.221911 0.986191 0.914128
0.332096 0.988047 0.916256
0.449476 0.989930 0.918419
0.570073 0.991832 0.920606
0.689824 0.993747 0.922811
0.804548 0.995670 0.925028
0.909943 0.997598 0.927255
0.006325 0.017456 0.925360
0.060576 0.018669 0.926712
0.152312 0.020494 0.928731
0.257346 0.022386 0.930811
0.371790 0.024325 0.932925
0.491801 0.026301 0.935061
0.613409 0.028307 0.937214
0.732505 0.030341 0.939379
0.844847 0.032400 0.941553
0.013200 0.122250 0.933132
0.068266 0.123697 0.934466
0.160998 0.125871 0.936460
0.266777 0.128123 0.938513
0.381684 0.130426 0.940599
0.501858 0.132768 0.942708
0.623317 0.135143 0.944832
0.741941 0.137547 0.946968
0.853481 0.139977 0.949113
0.020191 0.242786 0.940804
0.076056 0.244399 0.942121
0.169760 0.246819 0.944088
0.276260 0.249324 0.946114
0.391604 0.251883 0.948172
0.511915 0.254482 0.950252
0.633198 0.257116 0.952347
0.751324 0.259778 0.954453
0.862037 0.262465 0.956568
0.027295 0.373690 0.948374
0.083943 0.375400 0.949672
0.178596 0.377965 0.951613
0.285791 0.380617 0.953610
0.401547 0.383323 0.955640
0.521969 0.386071 0.957691
0.643050 0.388851 0.959756
0.760652 0.391659 0.961832
0.870511 0.394492 0.963916
0.034511 0.509590 0.955839
0.091926 0.511329 0.957119
0.187503 0.513936 0.959033
0.295369 0.516629 0.961001
0.411512 0.519375 0.963002
0.532019 0.522161 0.965022
0.652872 0.524977 0.967058
0.769923 0.527820 0.969103
0.878901 0.530684 0.971155
0.041835 0.645112 0.963198
0.100002 0.646812 0.964460
0.196479 0.649358 0.966345
0.304991 0.651986 0.968284
0.421495 0.654664 0.970255
0.542062 0.657379 0.972245
0.662661 0.660121 0.974249
0.779135 0.662886 0.976263
0.887206 0.665669 0.978284
0.049267 0.774885 0.970448
0.108169 0.776477 0.971691
0.205522 0.778860 0.973547
0.314655 0.781317 0.975457
0.431495 0.783819 0.977397
0.552096 0.786352 0.979356
0.672415 0.788909 0.981329
0.788286 0.791484 0.983311
0.895423 0.794075 0.985299
0.056805 0.893535 0.977587
0.116425 0.894951 0.978811
0.214630 0.897068 0.980638
0.324359 0.899248 0.982518
0.441509 0.901466 0.984427
0.562118 0.903708 0.986354
0.682132 0.905969 0.988295
0.797374 0.908243 0.990244
0.903551 0.910527 0.992199
0.063461 0.983721 0.983721
0.123695 0.984927 0.984927
0.222623 0.986729 0.986729
0.332851 0.988581 0.988581
0.450252 0.990463 0.990463
0.570848 0.992362 0.992362
0.690573 0.994274 0.994274
0.805244 0.996194 0.996194
0.910563 0.998120 0.998120
0.006325 0.017456 0.925360
0.060576 0.018669 0.926712
0.152312 0.020494 0.928731
0.257346 0.022386 0.930811
0.371790 0.024325 0.932925
0.491801 0.026301 0.935061
0.613409 0.028307 0.937214
0.732505 0.030341 0.939379
0.844847 0.032400 0.941553
0.013200 0.122250 0.933132
0.068266 0.123697 0.934466
0.160998 0.125871 0.936460
0.266777 0.128123 0.938513
0.381684 0.130426 0.940599
0.501858 0.132768 0.942708
0.623317 0.135143 0.944832
0.741941 0.137547 0.946968
0.853481 0.139977 0.949113
0.020191 0.242786 0.940804
0.076056 0.244399 0.942121
0.169760 0.246819 0.944088
0.276260 0.249324 0.946114
0.391604 0.251883 0.948172
0.511915 0.254482 0.950252
0.633198 0.257116 0.952347
0.751324 0.259778 0.954453
0.862037 0.262465 0.956568
0.027295 0.373690 0.948374
0.083943 0.375400 0.949672
0.178596 0.377965 0.951613
0.285791 0.380617 0.953610
0.401547 0.383323 0.955640
0.521969 0.386071 0.957691
0.643050 0.388851 0.959756
0.760652 0.391659 0.961832
0.870511 0.394492 0.963916
0.034511 0.509590 0.955839
0.091926 0.511329 0.957119
0.187503 0.513936 0.959033
0.295369 0.516629 0.961001
0.411512 0.519375 0.963002
0.532019 0.522161 0.965022
0.652872 0.524977 0.967058
0.769923 0.527820 0.969103
0.878901 0.530684 0.971155
0.041835 0.645112 0.963198
0.100002 0.646812 0.964460
0.196479 0.649358 0.966345
0.304991 0.651986 0.968284
0.421495 0.654664 0.970255
0.542062 0.657379 0.972245
0.662661 0.660121 0.974249
0.779135 0.662886 0.976263
0.887206 0.665669 0.978284
0.049267 0.774885 0.970448
0.108169 0.776477 0.971691
0.205522 0.778860 0.973547
0.314655 0.781317 0.975457
0.431495 0.783819 0.977397
0.552096 0.786352 0.979356
0.672415 0.788909 0.981329
0.788286 0.791484 0.983311
0.895423 0.794075 0.985299
0.056805 0.893535 0.977587
0.116425 0.894951 0.978811
0.214630 0.897068 0.980638
0.324359 0.899248 0.982518
0.441509 0.901466 0.984427
0.562118 0.903708 0.986354
0.682132 0.905969 0.988295
0.797374 0.908243 0.990244
0.903551 0.910527 0.992199
0.063461 0.983721 0.983721
0.123695 0.984927 0.984927
0.222623 0.986729 0.986729
0.332851 0.988581 0.988581
0.450252 0.990463 0.990463
0.570848 0.992362 0.992362
0.690573 0.994274 0.994274
0.805244 0.996194 0.996194
0.910563 0.998120 0.998120
