cinelut/luts/life-aquatic.cube
# CineLUT — The Life Aquatic (2004)
# Gerado por generate_luts.py
LUT_3D_SIZE 5
0.001241 0.012230 0.051744
0.145841 0.015231 0.055004
0.364379 0.019016 0.059111
0.605955 0.022951 0.063373
0.838313 0.026996 0.067749
0.014932 0.235803 0.066989
0.163175 0.239819 0.070336
0.384154 0.244860 0.074552
0.625782 0.250070 0.078926
0.855621 0.255396 0.083413
0.029083 0.502039 0.082634
0.180809 0.506385 0.086065
0.404029 0.511826 0.090386
0.645501 0.517430 0.094865
0.872609 0.523139 0.099459
0.043678 0.767953 0.098661
0.198726 0.771948 0.102174
0.423985 0.776931 0.106594
0.665095 0.782047 0.111174
0.889262 0.787240 0.115870
0.057725 0.978445 0.113995
0.215738 0.981490 0.117579
0.442724 0.985271 0.122088
0.683307 0.989131 0.126760
0.904530 0.993027 0.131547
0.002846 0.013880 0.313826
0.147888 0.016893 0.318014
0.366727 0.020693 0.323265
0.608320 0.024643 0.328688
0.840390 0.028703 0.334225
0.016592 0.238014 0.333265
0.165258 0.242035 0.337485
0.386515 0.247083 0.342777
0.628135 0.252301 0.348239
0.857660 0.257635 0.353814
0.030797 0.504433 0.352848
0.182927 0.508780 0.357097
0.406400 0.514220 0.362423
0.647840 0.519823 0.367920
0.874610 0.525532 0.373530
0.045444 0.770155 0.372557
0.200877 0.774143 0.376831
0.426366 0.779119 0.382188
0.667418 0.784227 0.387714
0.891221 0.789412 0.393353
0.059538 0.980125 0.391104
0.217917 0.983158 0.395399
0.445111 0.986924 0.400779
0.685613 0.990769 0.406329
0.906448 0.994649 0.411991
0.004345 0.015421 0.591059
0.149796 0.018444 0.595366
0.368913 0.022258 0.600751
0.610519 0.026222 0.606292
0.842317 0.030297 0.611932
0.018143 0.240073 0.610955
0.167200 0.244100 0.615243
0.388712 0.249155 0.620603
0.630323 0.254379 0.626118
0.859553 0.259719 0.631728
0.032398 0.506660 0.630757
0.184901 0.511007 0.635022
0.408607 0.516447 0.640352
0.650015 0.522050 0.645835
0.876466 0.527757 0.651411
0.047092 0.772200 0.650446
0.202881 0.776182 0.654685
0.428581 0.781151 0.659981
0.669578 0.786251 0.665427
0.893039 0.791428 0.670965
0.061229 0.981682 0.668759
0.219948 0.984704 0.672969
0.447331 0.988456 0.678229
0.687757 0.992287 0.683636
0.908228 0.996152 0.689133
0.005798 0.016914 0.844973
0.151642 0.019948 0.848714
0.371025 0.023775 0.853376
0.612641 0.027752 0.858154
0.844175 0.031840 0.862998
0.019646 0.242064 0.862161
0.169079 0.246096 0.865833
0.390835 0.251157 0.870407
0.632434 0.256388 0.875094
0.861377 0.261735 0.879843
0.033948 0.508811 0.879023
0.186811 0.513157 0.882622
0.410740 0.518597 0.887105
0.652113 0.524199 0.891696
0.878255 0.529906 0.896346
0.048688 0.774172 0.895542
0.204819 0.778149 0.899066
0.430720 0.783110 0.903452
0.671661 0.788203 0.907942
0.894790 0.793372 0.912488
0.062867 0.983180 0.910679
0.221911 0.986191 0.914128
0.449476 0.989930 0.918419
0.689824 0.993747 0.922811
0.909943 0.997598 0.927255
0.006325 0.017456 0.925360
0.152312 0.020494 0.928731
0.371790 0.024325 0.932925
0.613409 0.028307 0.937214
0.844847 0.032400 0.941553
0.020191 0.242786 0.940804
0.169760 0.246819 0.944088
0.391604 0.251883 0.948172
0.633198 0.257116 0.952347
0.862037 0.262465 0.956568
0.034511 0.509590 0.955839
0.187503 0.513936 0.959033
0.411512 0.519375 0.963002
0.652872 0.524977 0.967058
0.878901 0.530684 0.971155
0.049267 0.774885 0.970448
0.205522 0.778860 0.973547
0.431495 0.783819 0.977397
0.672415 0.788909 0.981329
0.895423 0.794075 0.985299
0.063461 0.983721 0.983721
0.222623 0.986729 0.986729
0.450252 0.990463 0.990463
0.690573 0.994274 0.994274
0.910563 0.998120 0.998120
