cinelut/luts/moonrise-kingdom.cube
# CineLUT — Moonrise Kingdom (2012)
# Gerado por generate_luts.py
LUT_3D_SIZE 5
0.066285 0.048801 0.000000
0.365014 0.048801 0.000000
0.673188 0.048801 0.000000
0.961868 0.048801 0.000000
1.000000 0.048801 0.000000
0.066285 0.362749 0.000000
0.365014 0.362749 0.000000
0.673188 0.362749 0.000000
0.961868 0.362749 0.000000
1.000000 0.362749 0.000000
0.066285 0.678001 0.000000
0.365014 0.678001 0.000000
0.673188 0.678001 0.000000
0.961868 0.678001 0.000000
1.000000 0.678001 0.000000
0.066285 0.968692 0.000000
0.365014 0.968692 0.000000
0.673188 0.968692 0.000000
0.961868 0.968692 0.000000
1.000000 0.968692 0.000000
0.066285 1.000000 0.000000
0.365014 1.000000 0.000000
0.673188 1.000000 0.000000
0.961868 1.000000 0.000000
1.000000 1.000000 0.000000
0.066285 0.048801 0.183206
0.365014 0.048801 0.183206
0.673188 0.048801 0.183206
0.961868 0.048801 0.183206
1.000000 0.048801 0.183206
0.066285 0.362749 0.183206
0.365014 0.362749 0.183206
0.673188 0.362749 0.183206
0.961868 0.362749 0.183206
1.000000 0.362749 0.183206
0.066285 0.678001 0.183206
0.365014 0.678001 0.183206
0.673188 0.678001 0.183206
0.961868 0.678001 0.183206
1.000000 0.678001 0.183206
0.066285 0.968692 0.183206
0.365014 0.968692 0.183206
0.673188 0.968692 0.183206
0.961868 0.968692 0.183206
1.000000 0.968692 0.183206
0.066285 1.000000 0.183206
0.365014 1.000000 0.183206
0.673188 1.000000 0.183206
0.961868 1.000000 0.183206
1.000000 1.000000 0.183206
0.066285 0.048801 0.431807
0.365014 0.048801 0.431807
0.673188 0.048801 0.431807
0.961868 0.048801 0.431807
1.000000 0.048801 0.431807
0.066285 0.362749 0.431807
0.365014 0.362749 0.431807
0.673188 0.362749 0.431807
0.961868 0.362749 0.431807
1.000000 0.362749 0.431807
0.066285 0.678001 0.431807
0.365014 0.678001 0.431807
0.673188 0.678001 0.431807
0.961868 0.678001 0.431807
1.000000 0.678001 0.431807
0.066285 0.968692 0.431807
0.365014 0.968692 0.431807
0.673188 0.968692 0.431807
0.961868 0.968692 0.431807
1.000000 0.968692 0.431807
0.066285 1.000000 0.431807
0.365014 1.000000 0.431807
0.673188 1.000000 0.431807
0.961868 1.000000 0.431807
1.000000 1.000000 0.431807
0.066285 0.048801 0.697783
0.365014 0.048801 0.697783
0.673188 0.048801 0.697783
0.961868 0.048801 0.697783
1.000000 0.048801 0.697783
0.066285 0.362749 0.697783
0.365014 0.362749 0.697783
0.673188 0.362749 0.697783
0.961868 0.362749 0.697783
1.000000 0.362749 0.697783
0.066285 0.678001 0.697783
0.365014 0.678001 0.697783
0.673188 0.678001 0.697783
0.961868 0.678001 0.697783
1.000000 0.678001 0.697783
0.066285 0.968692 0.697783
0.365014 0.968692 0.697783
0.673188 0.968692 0.697783
0.961868 0.968692 0.697783
1.000000 0.968692 0.697783
0.066285 1.000000 0.697783
0.365014 1.000000 0.697783
0.673188 1.000000 0.697783
0.961868 1.000000 0.697783
1.000000 1.000000 0.697783
0.066285 0.048801 0.956227
0.365014 0.048801 0.956227
0.673188 0.048801 0.956227
0.961868 0.048801 0.956227
1.000000 0.048801 0.956227
0.066285 0.362749 0.956227
0.365014 0.362749 0.956227
0.673188 0.362749 0.956227
0.961868 0.362749 0.956227
1.000000 0.362749 0.956227
0.066285 0.678001 0.956227
0.365014 0.678001 0.956227
0.673188 0.678001 0.956227
0.961868 0.678001 0.956227
1.000000 0.678001 0.956227
0.066285 0.968692 0.956227
0.365014 0.968692 0.956227
0.673188 0.968692 0.956227
0.961868 0.968692 0.956227
1.000000 0.968692 0.956227
0.066285 1.000000 0.956227
0.365014 1.000000 0.956227
0.673188 1.000000 0.956227
0.961868 1.000000 0.956227
1.000000 1.000000 0.956227
