cinelut/luts/moonrise-kingdom.cube
# CineLUT — Moonrise Kingdom (2012)
# Gerado por generate_luts.py
LUT_3D_SIZE 33
0.066285 0.048801 0.000000
0.102383 0.048801 0.000000
0.138826 0.048801 0.000000
0.175668 0.048801 0.000000
0.212903 0.048801 0.000000
0.250500 0.048801 0.000000
0.288419 0.048801 0.000000
0.326608 0.048801 0.000000
0.365014 0.048801 0.000000
0.403581 0.048801 0.000000
0.442252 0.048801 0.000000
0.480969 0.048801 0.000000
0.519673 0.048801 0.000000
0.558306 0.048801 0.000000
0.596808 0.048801 0.000000
0.635122 0.048801 0.000000
0.673188 0.048801 0.000000
0.710949 0.048801 0.000000
0.748346 0.048801 0.000000
0.785321 0.048801 0.000000
0.821817 0.048801 0.000000
0.857776 0.048801 0.000000
0.893142 0.048801 0.000000
0.927858 0.048801 0.000000
0.961868 0.048801 0.000000
0.995114 0.048801 0.000000
1.000000 0.048801 0.000000
1.000000 0.048801 0.000000
1.000000 0.048801 0.000000
1.000000 0.048801 0.000000
1.000000 0.048801 0.000000
1.000000 0.048801 0.000000
1.000000 0.048801 0.000000
0.066285 0.087809 0.000000
0.102383 0.087809 0.000000
0.138826 0.087809 0.000000
0.175668 0.087809 0.000000
0.212903 0.087809 0.000000
0.250500 0.087809 0.000000
0.288419 0.087809 0.000000
0.326608 0.087809 0.000000
0.365014 0.087809 0.000000
0.403581 0.087809 0.000000
0.442252 0.087809 0.000000
0.480969 0.087809 0.000000
0.519673 0.087809 0.000000
0.558306 0.087809 0.000000
0.596808 0.087809 0.000000
0.635122 0.087809 0.000000
0.673188 0.087809 0.000000
0.710949 0.087809 0.000000
0.748346 0.087809 0.000000
0.785321 0.087809 0.000000
0.821817 0.087809 0.000000
0.857776 0.087809 0.000000
0.893142 0.087809 0.000000
0.927858 0.087809 0.000000
0.961868 0.087809 0.000000
0.995114 0.087809 0.000000
1.000000 0.087809 0.000000
1.000000 0.087809 0.000000
1.000000 0.087809 0.000000
1.000000 0.087809 0.000000
1.000000 0.087809 0.000000
1.000000 0.087809 0.000000
1.000000 0.087809 0.000000
0.066285 0.126628 0.000000
0.102383 0.126628 0.000000
0.138826 0.126628 0.000000
0.175668 0.126628 0.000000
0.212903 0.126628 0.000000
0.250500 0.126628 0.000000
0.288419 0.126628 0.000000
0.326608 0.126628 0.000000
0.365014 0.126628 0.000000
0.403581 0.126628 0.000000
0.442252 0.126628 0.000000
0.480969 0.126628 0.000000
0.519673 0.126628 0.000000
0.558306 0.126628 0.000000
0.596808 0.126628 0.000000
0.635122 0.126628 0.000000
0.673188 0.126628 0.000000
0.710949 0.126628 0.000000
0.748346 0.126628 0.000000
0.785321 0.126628 0.000000
0.821817 0.126628 0.000000
0.857776 0.126628 0.000000
0.893142 0.126628 0.000000
0.927858 0.126628 0.000000
0.961868 0.126628 0.000000
0.995114 0.126628 0.000000
1.000000 0.126628 0.000000
1.000000 0.126628 0.000000
1.000000 0.126628 0.000000
1.000000 0.126628 0.000000
1.000000 0.126628 0.000000
1.000000 0.126628 0.000000
1.000000 0.126628 0.000000
0.066285 0.165542 0.000000
0.102383 0.165542 0.000000
0.138826 0.165542 0.000000
0.175668 0.165542 0.000000
0.212903 0.165542 0.000000
0.250500 0.165542 0.000000
0.288419 0.165542 0.000000
0.326608 0.165542 0.000000
0.365014 0.165542 0.000000
0.403581 0.165542 0.000000
0.442252 0.165542 0.000000
0.480969 0.165542 0.000000
0.519673 0.165542 0.000000
0.558306 0.165542 0.000000
0.596808 0.165542 0.000000
0.635122 0.165542 0.000000
0.673188 0.165542 0.000000
0.710949 0.165542 0.000000
0.748346 0.165542 0.000000
0.785321 0.165542 0.000000
0.821817 0.165542 0.000000
0.857776 0.165542 0.000000
0.893142 0.165542 0.000000
0.927858 0.165542 0.000000
0.961868 0.165542 0.000000
0.995114 0.165542 0.000000
1.000000 0.165542 0.000000
1.000000 0.165542 0.000000
1.000000 0.165542 0.000000
1.000000 0.165542 0.000000
1.000000 0.165542 0.000000
1.000000 0.165542 0.000000
1.000000 0.165542 0.000000
0.066285 0.204638 0.000000
0.102383 0.204638 0.000000
0.138826 0.204638 0.000000
0.175668 0.204638 0.000000
0.212903 0.204638 0.000000
0.250500 0.204638 0.000000
0.288419 0.204638 0.000000
0.326608 0.204638 0.000000
0.365014 0.204638 0.000000
0.403581 0.204638 0.000000
0.442252 0.204638 0.000000
0.480969 0.204638 0.000000
0.519673 0.204638 0.000000
0.558306 0.204638 0.000000
0.596808 0.204638 0.000000
0.635122 0.204638 0.000000
0.673188 0.204638 0.000000
0.710949 0.204638 0.000000
0.748346 0.204638 0.000000
0.785321 0.204638 0.000000
0.821817 0.204638 0.000000
0.857776 0.204638 0.000000
0.893142 0.204638 0.000000
0.927858 0.204638 0.000000
0.961868 0.204638 0.000000
0.995114 0.204638 0.000000
1.000000 0.204638 0.000000
1.000000 0.204638 0.000000
1.000000 0.204638 0.000000
1.000000 0.204638 0.000000
1.000000 0.204638 0.000000
1.000000 0.204638 0.000000
1.000000 0.204638 0.000000
0.066285 0.243931 0.000000
0.102383 0.243931 0.000000
0.138826 0.243931 0.000000
0.175668 0.243931 0.000000
0.212903 0.243931 0.000000
0.250500 0.243931 0.000000
0.288419 0.243931 0.000000
0.326608 0.243931 0.000000
0.365014 0.243931 0.000000
0.403581 0.243931 0.000000
0.442252 0.243931 0.000000
0.480969 0.243931 0.000000
0.519673 0.243931 0.000000
0.558306 0.243931 0.000000
0.596808 0.243931 0.000000
0.635122 0.243931 0.000000
0.673188 0.243931 0.000000
0.710949 0.243931 0.000000
0.748346 0.243931 0.000000
0.785321 0.243931 0.000000
0.821817 0.243931 0.000000
0.857776 0.243931 0.000000
0.893142 0.243931 0.000000
0.927858 0.243931 0.000000
0.961868 0.243931 0.000000
0.995114 0.243931 0.000000
1.000000 0.243931 0.000000
1.000000 0.243931 0.000000
1.000000 0.243931 0.000000
1.000000 0.243931 0.000000
1.000000 0.243931 0.000000
1.000000 0.243931 0.000000
1.000000 0.243931 0.000000
0.066285 0.283405 0.000000
0.102383 0.283405 0.000000
0.138826 0.283405 0.000000
0.175668 0.283405 0.000000
0.212903 0.283405 0.000000
0.250500 0.283405 0.000000
0.288419 0.283405 0.000000
0.326608 0.283405 0.000000
0.365014 0.283405 0.000000
0.403581 0.283405 0.000000
0.442252 0.283405 0.000000
0.480969 0.283405 0.000000
0.519673 0.283405 0.000000
0.558306 0.283405 0.000000
0.596808 0.283405 0.000000
0.635122 0.283405 0.000000
0.673188 0.283405 0.000000
0.710949 0.283405 0.000000
0.748346 0.283405 0.000000
0.785321 0.283405 0.000000
0.821817 0.283405 0.000000
0.857776 0.283405 0.000000
0.893142 0.283405 0.000000
0.927858 0.283405 0.000000
0.961868 0.283405 0.000000
0.995114 0.283405 0.000000
1.000000 0.283405 0.000000
1.000000 0.283405 0.000000
1.000000 0.283405 0.000000
1.000000 0.283405 0.000000
1.000000 0.283405 0.000000
1.000000 0.283405 0.000000
1.000000 0.283405 0.000000
0.066285 0.323025 0.000000
0.102383 0.323025 0.000000
0.138826 0.323025 0.000000
0.175668 0.323025 0.000000
0.212903 0.323025 0.000000
0.250500 0.323025 0.000000
0.288419 0.323025 0.000000
0.326608 0.323025 0.000000
0.365014 0.323025 0.000000
0.403581 0.323025 0.000000
0.442252 0.323025 0.000000
0.480969 0.323025 0.000000
0.519673 0.323025 0.000000
0.558306 0.323025 0.000000
0.596808 0.323025 0.000000
0.635122 0.323025 0.000000
0.673188 0.323025 0.000000
0.710949 0.323025 0.000000
0.748346 0.323025 0.000000
0.785321 0.323025 0.000000
0.821817 0.323025 0.000000
0.857776 0.323025 0.000000
0.893142 0.323025 0.000000
0.927858 0.323025 0.000000
0.961868 0.323025 0.000000
0.995114 0.323025 0.000000
1.000000 0.323025 0.000000
1.000000 0.323025 0.000000
1.000000 0.323025 0.000000
1.000000 0.323025 0.000000
1.000000 0.323025 0.000000
1.000000 0.323025 0.000000
1.000000 0.323025 0.000000
0.066285 0.362749 0.000000
0.102383 0.362749 0.000000
0.138826 0.362749 0.000000
0.175668 0.362749 0.000000
0.212903 0.362749 0.000000
0.250500 0.362749 0.000000
0.288419 0.362749 0.000000
0.326608 0.362749 0.000000
0.365014 0.362749 0.000000
0.403581 0.362749 0.000000
0.442252 0.362749 0.000000
0.480969 0.362749 0.000000
0.519673 0.362749 0.000000
0.558306 0.362749 0.000000
0.596808 0.362749 0.000000
0.635122 0.362749 0.000000
0.673188 0.362749 0.000000
0.710949 0.362749 0.000000
0.748346 0.362749 0.000000
0.785321 0.362749 0.000000
0.821817 0.362749 0.000000
0.857776 0.362749 0.000000
0.893142 0.362749 0.000000
0.927858 0.362749 0.000000
0.961868 0.362749 0.000000
0.995114 0.362749 0.000000
1.000000 0.362749 0.000000
1.000000 0.362749 0.000000
1.000000 0.362749 0.000000
1.000000 0.362749 0.000000
1.000000 0.362749 0.000000
1.000000 0.362749 0.000000
1.000000 0.362749 0.000000
0.066285 0.402529 0.000000
0.102383 0.402529 0.000000
0.138826 0.402529 0.000000
0.175668 0.402529 0.000000
0.212903 0.402529 0.000000
0.250500 0.402529 0.000000
0.288419 0.402529 0.000000
0.326608 0.402529 0.000000
0.365014 0.402529 0.000000
0.403581 0.402529 0.000000
0.442252 0.402529 0.000000
0.480969 0.402529 0.000000
0.519673 0.402529 0.000000
0.558306 0.402529 0.000000
0.596808 0.402529 0.000000
0.635122 0.402529 0.000000
0.673188 0.402529 0.000000
0.710949 0.402529 0.000000
0.748346 0.402529 0.000000
0.785321 0.402529 0.000000
0.821817 0.402529 0.000000
0.857776 0.402529 0.000000
0.893142 0.402529 0.000000
0.927858 0.402529 0.000000
0.961868 0.402529 0.000000
0.995114 0.402529 0.000000
1.000000 0.402529 0.000000
1.000000 0.402529 0.000000
1.000000 0.402529 0.000000
1.000000 0.402529 0.000000
1.000000 0.402529 0.000000
1.000000 0.402529 0.000000
1.000000 0.402529 0.000000
0.066285 0.442311 0.000000
0.102383 0.442311 0.000000
0.138826 0.442311 0.000000
0.175668 0.442311 0.000000
0.212903 0.442311 0.000000
0.250500 0.442311 0.000000
0.288419 0.442311 0.000000
0.326608 0.442311 0.000000
0.365014 0.442311 0.000000
0.403581 0.442311 0.000000
0.442252 0.442311 0.000000
0.480969 0.442311 0.000000
0.519673 0.442311 0.000000
0.558306 0.442311 0.000000
0.596808 0.442311 0.000000
0.635122 0.442311 0.000000
0.673188 0.442311 0.000000
0.710949 0.442311 0.000000
0.748346 0.442311 0.000000
0.785321 0.442311 0.000000
0.821817 0.442311 0.000000
0.857776 0.442311 0.000000
0.893142 0.442311 0.000000
0.927858 0.442311 0.000000
0.961868 0.442311 0.000000
0.995114 0.442311 0.000000
1.000000 0.442311 0.000000
1.000000 0.442311 0.000000
1.000000 0.442311 0.000000
1.000000 0.442311 0.000000
1.000000 0.442311 0.000000
1.000000 0.442311 0.000000
1.000000 0.442311 0.000000
0.066285 0.482043 0.000000
0.102383 0.482043 0.000000
0.138826 0.482043 0.000000
0.175668 0.482043 0.000000
0.212903 0.482043 0.000000
0.250500 0.482043 0.000000
0.288419 0.482043 0.000000
0.326608 0.482043 0.000000
0.365014 0.482043 0.000000
0.403581 0.482043 0.000000
0.442252 0.482043 0.000000
0.480969 0.482043 0.000000
0.519673 0.482043 0.000000
0.558306 0.482043 0.000000
0.596808 0.482043 0.000000
0.635122 0.482043 0.000000
0.673188 0.482043 0.000000
0.710949 0.482043 0.000000
0.748346 0.482043 0.000000
0.785321 0.482043 0.000000
0.821817 0.482043 0.000000
0.857776 0.482043 0.000000
0.893142 0.482043 0.000000
0.927858 0.482043 0.000000
0.961868 0.482043 0.000000
0.995114 0.482043 0.000000
1.000000 0.482043 0.000000
1.000000 0.482043 0.000000
1.000000 0.482043 0.000000
1.000000 0.482043 0.000000
1.000000 0.482043 0.000000
1.000000 0.482043 0.000000
1.000000 0.482043 0.000000
0.066285 0.521669 0.000000
0.102383 0.521669 0.000000
0.138826 0.521669 0.000000
0.175668 0.521669 0.000000
0.212903 0.521669 0.000000
0.250500 0.521669 0.000000
0.288419 0.521669 0.000000
0.326608 0.521669 0.000000
0.365014 0.521669 0.000000
0.403581 0.521669 0.000000
0.442252 0.521669 0.000000
0.480969 0.521669 0.000000
0.519673 0.521669 0.000000
0.558306 0.521669 0.000000
0.596808 0.521669 0.000000
0.635122 0.521669 0.000000
0.673188 0.521669 0.000000
0.710949 0.521669 0.000000
0.748346 0.521669 0.000000
0.785321 0.521669 0.000000
0.821817 0.521669 0.000000
0.857776 0.521669 0.000000
0.893142 0.521669 0.000000
0.927858 0.521669 0.000000
0.961868 0.521669 0.000000
0.995114 0.521669 0.000000
1.000000 0.521669 0.000000
1.000000 0.521669 0.000000
1.000000 0.521669 0.000000
1.000000 0.521669 0.000000
1.000000 0.521669 0.000000
1.000000 0.521669 0.000000
1.000000 0.521669 0.000000
0.066285 0.561134 0.000000
0.102383 0.561134 0.000000
0.138826 0.561134 0.000000
0.175668 0.561134 0.000000
0.212903 0.561134 0.000000
0.250500 0.561134 0.000000
0.288419 0.561134 0.000000
0.326608 0.561134 0.000000
0.365014 0.561134 0.000000
0.403581 0.561134 0.000000
0.442252 0.561134 0.000000
0.480969 0.561134 0.000000
0.519673 0.561134 0.000000
0.558306 0.561134 0.000000
0.596808 0.561134 0.000000
0.635122 0.561134 0.000000
0.673188 0.561134 0.000000
0.710949 0.561134 0.000000
0.748346 0.561134 0.000000
0.785321 0.561134 0.000000
0.821817 0.561134 0.000000
0.857776 0.561134 0.000000
0.893142 0.561134 0.000000
0.927858 0.561134 0.000000
0.961868 0.561134 0.000000
0.995114 0.561134 0.000000
1.000000 0.561134 0.000000
1.000000 0.561134 0.000000
1.000000 0.561134 0.000000
1.000000 0.561134 0.000000
1.000000 0.561134 0.000000
1.000000 0.561134 0.000000
1.000000 0.561134 0.000000
0.066285 0.600382 0.000000
0.102383 0.600382 0.000000
0.138826 0.600382 0.000000
0.175668 0.600382 0.000000
0.212903 0.600382 0.000000
0.250500 0.600382 0.000000
0.288419 0.600382 0.000000
0.326608 0.600382 0.000000
0.365014 0.600382 0.000000
0.403581 0.600382 0.000000
0.442252 0.600382 0.000000
0.480969 0.600382 0.000000
0.519673 0.600382 0.000000
0.558306 0.600382 0.000000
0.596808 0.600382 0.000000
0.635122 0.600382 0.000000
0.673188 0.600382 0.000000
0.710949 0.600382 0.000000
0.748346 0.600382 0.000000
0.785321 0.600382 0.000000
0.821817 0.600382 0.000000
0.857776 0.600382 0.000000
0.893142 0.600382 0.000000
0.927858 0.600382 0.000000
0.961868 0.600382 0.000000
0.995114 0.600382 0.000000
1.000000 0.600382 0.000000
1.000000 0.600382 0.000000
1.000000 0.600382 0.000000
1.000000 0.600382 0.000000
1.000000 0.600382 0.000000
1.000000 0.600382 0.000000
1.000000 0.600382 0.000000
0.066285 0.639356 0.000000
0.102383 0.639356 0.000000
0.138826 0.639356 0.000000
0.175668 0.639356 0.000000
0.212903 0.639356 0.000000
0.250500 0.639356 0.000000
0.288419 0.639356 0.000000
0.326608 0.639356 0.000000
0.365014 0.639356 0.000000
0.403581 0.639356 0.000000
0.442252 0.639356 0.000000
0.480969 0.639356 0.000000
0.519673 0.639356 0.000000
0.558306 0.639356 0.000000
0.596808 0.639356 0.000000
0.635122 0.639356 0.000000
0.673188 0.639356 0.000000
0.710949 0.639356 0.000000
0.748346 0.639356 0.000000
0.785321 0.639356 0.000000
0.821817 0.639356 0.000000
0.857776 0.639356 0.000000
0.893142 0.639356 0.000000
0.927858 0.639356 0.000000
0.961868 0.639356 0.000000
0.995114 0.639356 0.000000
1.000000 0.639356 0.000000
1.000000 0.639356 0.000000
1.000000 0.639356 0.000000
1.000000 0.639356 0.000000
1.000000 0.639356 0.000000
1.000000 0.639356 0.000000
1.000000 0.639356 0.000000
0.066285 0.678001 0.000000
0.102383 0.678001 0.000000
0.138826 0.678001 0.000000
0.175668 0.678001 0.000000
0.212903 0.678001 0.000000
0.250500 0.678001 0.000000
0.288419 0.678001 0.000000
0.326608 0.678001 0.000000
0.365014 0.678001 0.000000
0.403581 0.678001 0.000000
0.442252 0.678001 0.000000
0.480969 0.678001 0.000000
0.519673 0.678001 0.000000
0.558306 0.678001 0.000000
0.596808 0.678001 0.000000
0.635122 0.678001 0.000000
0.673188 0.678001 0.000000
0.710949 0.678001 0.000000
0.748346 0.678001 0.000000
0.785321 0.678001 0.000000
0.821817 0.678001 0.000000
0.857776 0.678001 0.000000
0.893142 0.678001 0.000000
0.927858 0.678001 0.000000
0.961868 0.678001 0.000000
0.995114 0.678001 0.000000
1.000000 0.678001 0.000000
1.000000 0.678001 0.000000
1.000000 0.678001 0.000000
1.000000 0.678001 0.000000
1.000000 0.678001 0.000000
1.000000 0.678001 0.000000
1.000000 0.678001 0.000000
0.066285 0.716261 0.000000
0.102383 0.716261 0.000000
0.138826 0.716261 0.000000
0.175668 0.716261 0.000000
0.212903 0.716261 0.000000
0.250500 0.716261 0.000000
0.288419 0.716261 0.000000
0.326608 0.716261 0.000000
0.365014 0.716261 0.000000
0.403581 0.716261 0.000000
0.442252 0.716261 0.000000
0.480969 0.716261 0.000000
0.519673 0.716261 0.000000
0.558306 0.716261 0.000000
0.596808 0.716261 0.000000
0.635122 0.716261 0.000000
0.673188 0.716261 0.000000
0.710949 0.716261 0.000000
0.748346 0.716261 0.000000
0.785321 0.716261 0.000000
0.821817 0.716261 0.000000
0.857776 0.716261 0.000000
0.893142 0.716261 0.000000
0.927858 0.716261 0.000000
0.961868 0.716261 0.000000
0.995114 0.716261 0.000000
1.000000 0.716261 0.000000
1.000000 0.716261 0.000000
1.000000 0.716261 0.000000
1.000000 0.716261 0.000000
1.000000 0.716261 0.000000
1.000000 0.716261 0.000000
1.000000 0.716261 0.000000
0.066285 0.754081 0.000000
0.102383 0.754081 0.000000
0.138826 0.754081 0.000000
0.175668 0.754081 0.000000
0.212903 0.754081 0.000000
0.250500 0.754081 0.000000
0.288419 0.754081 0.000000
0.326608 0.754081 0.000000
0.365014 0.754081 0.000000
0.403581 0.754081 0.000000
0.442252 0.754081 0.000000
0.480969 0.754081 0.000000
0.519673 0.754081 0.000000
0.558306 0.754081 0.000000
0.596808 0.754081 0.000000
0.635122 0.754081 0.000000
0.673188 0.754081 0.000000
0.710949 0.754081 0.000000
0.748346 0.754081 0.000000
0.785321 0.754081 0.000000
0.821817 0.754081 0.000000
0.857776 0.754081 0.000000
0.893142 0.754081 0.000000
0.927858 0.754081 0.000000
0.961868 0.754081 0.000000
0.995114 0.754081 0.000000
1.000000 0.754081 0.000000
1.000000 0.754081 0.000000
1.000000 0.754081 0.000000
1.000000 0.754081 0.000000
1.000000 0.754081 0.000000
1.000000 0.754081 0.000000
1.000000 0.754081 0.000000
0.066285 0.791406 0.000000
0.102383 0.791406 0.000000
0.138826 0.791406 0.000000
0.175668 0.791406 0.000000
0.212903 0.791406 0.000000
0.250500 0.791406 0.000000
0.288419 0.791406 0.000000
0.326608 0.791406 0.000000
0.365014 0.791406 0.000000
0.403581 0.791406 0.000000
0.442252 0.791406 0.000000
0.480969 0.791406 0.000000
0.519673 0.791406 0.000000
0.558306 0.791406 0.000000
0.596808 0.791406 0.000000
0.635122 0.791406 0.000000
0.673188 0.791406 0.000000
0.710949 0.791406 0.000000
0.748346 0.791406 0.000000
0.785321 0.791406 0.000000
0.821817 0.791406 0.000000
0.857776 0.791406 0.000000
0.893142 0.791406 0.000000
0.927858 0.791406 0.000000
0.961868 0.791406 0.000000
0.995114 0.791406 0.000000
1.000000 0.791406 0.000000
1.000000 0.791406 0.000000
1.000000 0.791406 0.000000
1.000000 0.791406 0.000000
1.000000 0.791406 0.000000
1.000000 0.791406 0.000000
1.000000 0.791406 0.000000
0.066285 0.828180 0.000000
0.102383 0.828180 0.000000
0.138826 0.828180 0.000000
0.175668 0.828180 0.000000
0.212903 0.828180 0.000000
0.250500 0.828180 0.000000
0.288419 0.828180 0.000000
0.326608 0.828180 0.000000
0.365014 0.828180 0.000000
0.403581 0.828180 0.000000
0.442252 0.828180 0.000000
0.480969 0.828180 0.000000
0.519673 0.828180 0.000000
0.558306 0.828180 0.000000
0.596808 0.828180 0.000000
0.635122 0.828180 0.000000
0.673188 0.828180 0.000000
0.710949 0.828180 0.000000
0.748346 0.828180 0.000000
0.785321 0.828180 0.000000
0.821817 0.828180 0.000000
0.857776 0.828180 0.000000
0.893142 0.828180 0.000000
0.927858 0.828180 0.000000
0.961868 0.828180 0.000000
0.995114 0.828180 0.000000
1.000000 0.828180 0.000000
1.000000 0.828180 0.000000
1.000000 0.828180 0.000000
1.000000 0.828180 0.000000
1.000000 0.828180 0.000000
1.000000 0.828180 0.000000
1.000000 0.828180 0.000000
0.066285 0.864349 0.000000
0.102383 0.864349 0.000000
0.138826 0.864349 0.000000
0.175668 0.864349 0.000000
0.212903 0.864349 0.000000
0.250500 0.864349 0.000000
0.288419 0.864349 0.000000
0.326608 0.864349 0.000000
0.365014 0.864349 0.000000
0.403581 0.864349 0.000000
0.442252 0.864349 0.000000
0.480969 0.864349 0.000000
0.519673 0.864349 0.000000
0.558306 0.864349 0.000000
0.596808 0.864349 0.000000
0.635122 0.864349 0.000000
0.673188 0.864349 0.000000
0.710949 0.864349 0.000000
0.748346 0.864349 0.000000
0.785321 0.864349 0.000000
0.821817 0.864349 0.000000
0.857776 0.864349 0.000000
0.893142 0.864349 0.000000
0.927858 0.864349 0.000000
0.961868 0.864349 0.000000
0.995114 0.864349 0.000000
1.000000 0.864349 0.000000
1.000000 0.864349 0.000000
1.000000 0.864349 0.000000
1.000000 0.864349 0.000000
1.000000 0.864349 0.000000
1.000000 0.864349 0.000000
1.000000 0.864349 0.000000
0.066285 0.899860 0.000000
0.102383 0.899860 0.000000
0.138826 0.899860 0.000000
0.175668 0.899860 0.000000
0.212903 0.899860 0.000000
0.250500 0.899860 0.000000
0.288419 0.899860 0.000000
0.326608 0.899860 0.000000
0.365014 0.899860 0.000000
0.403581 0.899860 0.000000
0.442252 0.899860 0.000000
0.480969 0.899860 0.000000
0.519673 0.899860 0.000000
0.558306 0.899860 0.000000
0.596808 0.899860 0.000000
0.635122 0.899860 0.000000
0.673188 0.899860 0.000000
0.710949 0.899860 0.000000
0.748346 0.899860 0.000000
0.785321 0.899860 0.000000
0.821817 0.899860 0.000000
0.857776 0.899860 0.000000
0.893142 0.899860 0.000000
0.927858 0.899860 0.000000
0.961868 0.899860 0.000000
0.995114 0.899860 0.000000
1.000000 0.899860 0.000000
1.000000 0.899860 0.000000
1.000000 0.899860 0.000000
1.000000 0.899860 0.000000
1.000000 0.899860 0.000000
1.000000 0.899860 0.000000
1.000000 0.899860 0.000000
0.066285 0.934659 0.000000
0.102383 0.934659 0.000000
0.138826 0.934659 0.000000
0.175668 0.934659 0.000000
0.212903 0.934659 0.000000
0.250500 0.934659 0.000000
0.288419 0.934659 0.000000
0.326608 0.934659 0.000000
0.365014 0.934659 0.000000
0.403581 0.934659 0.000000
0.442252 0.934659 0.000000
0.480969 0.934659 0.000000
0.519673 0.934659 0.000000
0.558306 0.934659 0.000000
0.596808 0.934659 0.000000
0.635122 0.934659 0.000000
0.673188 0.934659 0.000000
0.710949 0.934659 0.000000
0.748346 0.934659 0.000000
0.785321 0.934659 0.000000
0.821817 0.934659 0.000000
0.857776 0.934659 0.000000
0.893142 0.934659 0.000000
0.927858 0.934659 0.000000
0.961868 0.934659 0.000000
0.995114 0.934659 0.000000
1.000000 0.934659 0.000000
1.000000 0.934659 0.000000
1.000000 0.934659 0.000000
1.000000 0.934659 0.000000
1.000000 0.934659 0.000000
1.000000 0.934659 0.000000
1.000000 0.934659 0.000000
0.066285 0.968692 0.000000
0.102383 0.968692 0.000000
0.138826 0.968692 0.000000
0.175668 0.968692 0.000000
0.212903 0.968692 0.000000
0.250500 0.968692 0.000000
0.288419 0.968692 0.000000
0.326608 0.968692 0.000000
0.365014 0.968692 0.000000
0.403581 0.968692 0.000000
0.442252 0.968692 0.000000
0.480969 0.968692 0.000000
0.519673 0.968692 0.000000
0.558306 0.968692 0.000000
0.596808 0.968692 0.000000
0.635122 0.968692 0.000000
0.673188 0.968692 0.000000
0.710949 0.968692 0.000000
0.748346 0.968692 0.000000
0.785321 0.968692 0.000000
0.821817 0.968692 0.000000
0.857776 0.968692 0.000000
0.893142 0.968692 0.000000
0.927858 0.968692 0.000000
0.961868 0.968692 0.000000
0.995114 0.968692 0.000000
1.000000 0.968692 0.000000
1.000000 0.968692 0.000000
1.000000 0.968692 0.000000
1.000000 0.968692 0.000000
1.000000 0.968692 0.000000
1.000000 0.968692 0.000000
1.000000 0.968692 0.000000
0.066285 1.000000 0.000000
0.102383 1.000000 0.000000
0.138826 1.000000 0.000000
0.175668 1.000000 0.000000
0.212903 1.000000 0.000000
0.250500 1.000000 0.000000
0.288419 1.000000 0.000000
0.326608 1.000000 0.000000
0.365014 1.000000 0.000000
0.403581 1.000000 0.000000
0.442252 1.000000 0.000000
0.480969 1.000000 0.000000
0.519673 1.000000 0.000000
0.558306 1.000000 0.000000
0.596808 1.000000 0.000000
0.635122 1.000000 0.000000
0.673188 1.000000 0.000000
0.710949 1.000000 0.000000
0.748346 1.000000 0.000000
0.785321 1.000000 0.000000
0.821817 1.000000 0.000000
0.857776 1.000000 0.000000
0.893142 1.000000 0.000000
0.927858 1.000000 0.000000
0.961868 1.000000 0.000000
0.995114 1.000000 0.000000
1.000000 1.000000 0.000000
1.000000 1.000000 0.000000
1.000000 1.000000 0.000000
1.000000 1.000000 0.000000
1.000000 1.000000 0.000000
1.000000 1.000000 0.000000
1.000000 1.000000 0.000000
0.066285 1.000000 0.000000
0.102383 1.000000 0.000000
0.138826 1.000000 0.000000
0.175668 1.000000 0.000000
0.212903 1.000000 0.000000
0.250500 1.000000 0.000000
0.288419 1.000000 0.000000
0.326608 1.000000 0.000000
0.365014 1.000000 0.000000
0.403581 1.000000 0.000000
0.442252 1.000000 0.000000
0.480969 1.000000 0.000000
0.519673 1.000000 0.000000
0.558306 1.000000 0.000000
0.596808 1.000000 0.000000
0.635122 1.000000 0.000000
0.673188 1.000000 0.000000
0.710949 1.000000 0.000000
0.748346 1.000000 0.000000
0.785321 1.000000 0.000000
0.821817 1.000000 0.000000
0.857776 1.000000 0.000000
0.893142 1.000000 0.000000
0.927858 1.000000 0.000000
0.961868 1.000000 0.000000
0.995114 1.000000 0.000000
1.000000 1.000000 0.000000
