cinelut/luts/moonrise-kingdom.cube
# CineLUT — Moonrise Kingdom (2012)
# Gerado por generate_luts.py
LUT_3D_SIZE 9
0.066285 0.048801 0.000000
0.212903 0.048801 0.000000
0.365014 0.048801 0.000000
0.519673 0.048801 0.000000
0.673188 0.048801 0.000000
0.821817 0.048801 0.000000
0.961868 0.048801 0.000000
1.000000 0.048801 0.000000
1.000000 0.048801 0.000000
0.066285 0.204638 0.000000
0.212903 0.204638 0.000000
0.365014 0.204638 0.000000
0.519673 0.204638 0.000000
0.673188 0.204638 0.000000
0.821817 0.204638 0.000000
0.961868 0.204638 0.000000
1.000000 0.204638 0.000000
1.000000 0.204638 0.000000
0.066285 0.362749 0.000000
0.212903 0.362749 0.000000
0.365014 0.362749 0.000000
0.519673 0.362749 0.000000
0.673188 0.362749 0.000000
0.821817 0.362749 0.000000
0.961868 0.362749 0.000000
1.000000 0.362749 0.000000
1.000000 0.362749 0.000000
0.066285 0.521669 0.000000
0.212903 0.521669 0.000000
0.365014 0.521669 0.000000
0.519673 0.521669 0.000000
0.673188 0.521669 0.000000
0.821817 0.521669 0.000000
0.961868 0.521669 0.000000
1.000000 0.521669 0.000000
1.000000 0.521669 0.000000
0.066285 0.678001 0.000000
0.212903 0.678001 0.000000
0.365014 0.678001 0.000000
0.519673 0.678001 0.000000
0.673188 0.678001 0.000000
0.821817 0.678001 0.000000
0.961868 0.678001 0.000000
1.000000 0.678001 0.000000
1.000000 0.678001 0.000000
0.066285 0.828180 0.000000
0.212903 0.828180 0.000000
0.365014 0.828180 0.000000
0.519673 0.828180 0.000000
0.673188 0.828180 0.000000
0.821817 0.828180 0.000000
0.961868 0.828180 0.000000
1.000000 0.828180 0.000000
1.000000 0.828180 0.000000
0.066285 0.968692 0.000000
0.212903 0.968692 0.000000
0.365014 0.968692 0.000000
0.519673 0.968692 0.000000
0.673188 0.968692 0.000000
0.821817 0.968692 0.000000
0.961868 0.968692 0.000000
1.000000 0.968692 0.000000
1.000000 0.968692 0.000000
0.066285 1.000000 0.000000
0.212903 1.000000 0.000000
0.365014 1.000000 0.000000
0.519673 1.000000 0.000000
0.673188 1.000000 0.000000
0.821817 1.000000 0.000000
0.961868 1.000000 0.000000
1.000000 1.000000 0.000000
1.000000 1.000000 0.000000
0.066285 1.000000 0.000000
0.212903 1.000000 0.000000
0.365014 1.000000 0.000000
0.519673 1.000000 0.000000
0.673188 1.000000 0.000000
0.821817 1.000000 0.000000
0.961868 1.000000 0.000000
1.000000 1.000000 0.000000
1.000000 1.000000 0.000000
0.066285 0.048801 0.073393
0.212903 0.048801 0.073393
0.365014 0.048801 0.073393
0.519673 0.048801 0.073393
0.673188 0.048801 0.073393
0.821817 0.048801 0.073393
0.961868 0.048801 0.073393
1.000000 0.048801 0.073393
1.000000 0.048801 0.073393
0.066285 0.204638 0.073393
0.212903 0.204638 0.073393
0.365014 0.204638 0.073393
0.519673 0.204638 0.073393
0.673188 0.204638 0.073393
0.821817 0.204638 0.073393
0.961868 0.204638 0.073393
1.000000 0.204638 0.073393
1.000000 0.204638 0.073393
0.066285 0.362749 0.073393
0.212903 0.362749 0.073393
0.365014 0.362749 0.073393
0.519673 0.362749 0.073393
0.673188 0.362749 0.073393
0.821817 0.362749 0.073393
0.961868 0.362749 0.073393
1.000000 0.362749 0.073393
1.000000 0.362749 0.073393
0.066285 0.521669 0.073393
0.212903 0.521669 0.073393
0.365014 0.521669 0.073393
0.519673 0.521669 0.073393
0.673188 0.521669 0.073393
0.821817 0.521669 0.073393
0.961868 0.521669 0.073393
1.000000 0.521669 0.073393
1.000000 0.521669 0.073393
0.066285 0.678001 0.073393
0.212903 0.678001 0.073393
0.365014 0.678001 0.073393
0.519673 0.678001 0.073393
0.673188 0.678001 0.073393
0.821817 0.678001 0.073393
0.961868 0.678001 0.073393
1.000000 0.678001 0.073393
1.000000 0.678001 0.073393
0.066285 0.828180 0.073393
0.212903 0.828180 0.073393
0.365014 0.828180 0.073393
0.519673 0.828180 0.073393
0.673188 0.828180 0.073393
0.821817 0.828180 0.073393
0.961868 0.828180 0.073393
1.000000 0.828180 0.073393
1.000000 0.828180 0.073393
0.066285 0.968692 0.073393
0.212903 0.968692 0.073393
0.365014 0.968692 0.073393
0.519673 0.968692 0.073393
0.673188 0.968692 0.073393
0.821817 0.968692 0.073393
0.961868 0.968692 0.073393
1.000000 0.968692 0.073393
1.000000 0.968692 0.073393
0.066285 1.000000 0.073393
0.212903 1.000000 0.073393
0.365014 1.000000 0.073393
0.519673 1.000000 0.073393
0.673188 1.000000 0.073393
0.821817 1.000000 0.073393
0.961868 1.000000 0.073393
1.000000 1.000000 0.073393
1.000000 1.000000 0.073393
0.066285 1.000000 0.073393
0.212903 1.000000 0.073393
0.365014 1.000000 0.073393
0.519673 1.000000 0.073393
0.673188 1.000000 0.073393
0.821817 1.000000 0.073393
0.961868 1.000000 0.073393
1.000000 1.000000 0.073393
1.000000 1.000000 0.073393
0.066285 0.048801 0.183206
0.212903 0.048801 0.183206
0.365014 0.048801 0.183206
0.519673 0.048801 0.183206
0.673188 0.048801 0.183206
0.821817 0.048801 0.183206
0.961868 0.048801 0.183206
1.000000 0.048801 0.183206
1.000000 0.048801 0.183206
0.066285 0.204638 0.183206
0.212903 0.204638 0.183206
0.365014 0.204638 0.183206
0.519673 0.204638 0.183206
0.673188 0.204638 0.183206
0.821817 0.204638 0.183206
0.961868 0.204638 0.183206
1.000000 0.204638 0.183206
1.000000 0.204638 0.183206
0.066285 0.362749 0.183206
0.212903 0.362749 0.183206
0.365014 0.362749 0.183206
0.519673 0.362749 0.183206
0.673188 0.362749 0.183206
0.821817 0.362749 0.183206
0.961868 0.362749 0.183206
1.000000 0.362749 0.183206
1.000000 0.362749 0.183206
0.066285 0.521669 0.183206
0.212903 0.521669 0.183206
0.365014 0.521669 0.183206
0.519673 0.521669 0.183206
0.673188 0.521669 0.183206
0.821817 0.521669 0.183206
0.961868 0.521669 0.183206
1.000000 0.521669 0.183206
1.000000 0.521669 0.183206
0.066285 0.678001 0.183206
0.212903 0.678001 0.183206
0.365014 0.678001 0.183206
0.519673 0.678001 0.183206
0.673188 0.678001 0.183206
0.821817 0.678001 0.183206
0.961868 0.678001 0.183206
1.000000 0.678001 0.183206
1.000000 0.678001 0.183206
0.066285 0.828180 0.183206
0.212903 0.828180 0.183206
0.365014 0.828180 0.183206
0.519673 0.828180 0.183206
0.673188 0.828180 0.183206
0.821817 0.828180 0.183206
0.961868 0.828180 0.183206
1.000000 0.828180 0.183206
1.000000 0.828180 0.183206
0.066285 0.968692 0.183206
0.212903 0.968692 0.183206
0.365014 0.968692 0.183206
0.519673 0.968692 0.183206
0.673188 0.968692 0.183206
0.821817 0.968692 0.183206
0.961868 0.968692 0.183206
1.000000 0.968692 0.183206
1.000000 0.968692 0.183206
0.066285 1.000000 0.183206
0.212903 1.000000 0.183206
0.365014 1.000000 0.183206
0.519673 1.000000 0.183206
0.673188 1.000000 0.183206
0.821817 1.000000 0.183206
0.961868 1.000000 0.183206
1.000000 1.000000 0.183206
1.000000 1.000000 0.183206
0.066285 1.000000 0.183206
0.212903 1.000000 0.183206
0.365014 1.000000 0.183206
0.519673 1.000000 0.183206
0.673188 1.000000 0.183206
0.821817 1.000000 0.183206
0.961868 1.000000 0.183206
1.000000 1.000000 0.183206
1.000000 1.000000 0.183206
0.066285 0.048801 0.303798
0.212903 0.048801 0.303798
0.365014 0.048801 0.303798
0.519673 0.048801 0.303798
0.673188 0.048801 0.303798
0.821817 0.048801 0.303798
0.961868 0.048801 0.303798
1.000000 0.048801 0.303798
1.000000 0.048801 0.303798
0.066285 0.204638 0.303798
0.212903 0.204638 0.303798
0.365014 0.204638 0.303798
0.519673 0.204638 0.303798
0.673188 0.204638 0.303798
0.821817 0.204638 0.303798
0.961868 0.204638 0.303798
1.000000 0.204638 0.303798
1.000000 0.204638 0.303798
0.066285 0.362749 0.303798
0.212903 0.362749 0.303798
0.365014 0.362749 0.303798
0.519673 0.362749 0.303798
0.673188 0.362749 0.303798
0.821817 0.362749 0.303798
0.961868 0.362749 0.303798
1.000000 0.362749 0.303798
1.000000 0.362749 0.303798
0.066285 0.521669 0.303798
0.212903 0.521669 0.303798
0.365014 0.521669 0.303798
0.519673 0.521669 0.303798
0.673188 0.521669 0.303798
0.821817 0.521669 0.303798
0.961868 0.521669 0.303798
1.000000 0.521669 0.303798
1.000000 0.521669 0.303798
0.066285 0.678001 0.303798
0.212903 0.678001 0.303798
0.365014 0.678001 0.303798
0.519673 0.678001 0.303798
0.673188 0.678001 0.303798
0.821817 0.678001 0.303798
0.961868 0.678001 0.303798
1.000000 0.678001 0.303798
1.000000 0.678001 0.303798
0.066285 0.828180 0.303798
0.212903 0.828180 0.303798
0.365014 0.828180 0.303798
0.519673 0.828180 0.303798
0.673188 0.828180 0.303798
0.821817 0.828180 0.303798
0.961868 0.828180 0.303798
1.000000 0.828180 0.303798
1.000000 0.828180 0.303798
0.066285 0.968692 0.303798
0.212903 0.968692 0.303798
0.365014 0.968692 0.303798
0.519673 0.968692 0.303798
0.673188 0.968692 0.303798
0.821817 0.968692 0.303798
0.961868 0.968692 0.303798
1.000000 0.968692 0.303798
1.000000 0.968692 0.303798
0.066285 1.000000 0.303798
0.212903 1.000000 0.303798
0.365014 1.000000 0.303798
0.519673 1.000000 0.303798
0.673188 1.000000 0.303798
0.821817 1.000000 0.303798
0.961868 1.000000 0.303798
1.000000 1.000000 0.303798
1.000000 1.000000 0.303798
0.066285 1.000000 0.303798
0.212903 1.000000 0.303798
0.365014 1.000000 0.303798
0.519673 1.000000 0.303798
0.673188 1.000000 0.303798
0.821817 1.000000 0.303798
0.961868 1.000000 0.303798
1.000000 1.000000 0.303798
1.000000 1.000000 0.303798
0.066285 0.048801 0.431807
0.212903 0.048801 0.431807
0.365014 0.048801 0.431807
0.519673 0.048801 0.431807
0.673188 0.048801 0.431807
0.821817 0.048801 0.431807
0.961868 0.048801 0.431807
1.000000 0.048801 0.431807
1.000000 0.048801 0.431807
0.066285 0.204638 0.431807
0.212903 0.204638 0.431807
0.365014 0.204638 0.431807
0.519673 0.204638 0.431807
0.673188 0.204638 0.431807
0.821817 0.204638 0.431807
0.961868 0.204638 0.431807
1.000000 0.204638 0.431807
1.000000 0.204638 0.431807
0.066285 0.362749 0.431807
0.212903 0.362749 0.431807
0.365014 0.362749 0.431807
0.519673 0.362749 0.431807
0.673188 0.362749 0.431807
0.821817 0.362749 0.431807
0.961868 0.362749 0.431807
1.000000 0.362749 0.431807
1.000000 0.362749 0.431807
0.066285 0.521669 0.431807
0.212903 0.521669 0.431807
0.365014 0.521669 0.431807
0.519673 0.521669 0.431807
0.673188 0.521669 0.431807
0.821817 0.521669 0.431807
0.961868 0.521669 0.431807
1.000000 0.521669 0.431807
1.000000 0.521669 0.431807
0.066285 0.678001 0.431807
0.212903 0.678001 0.431807
0.365014 0.678001 0.431807
0.519673 0.678001 0.431807
0.673188 0.678001 0.431807
0.821817 0.678001 0.431807
0.961868 0.678001 0.431807
1.000000 0.678001 0.431807
1.000000 0.678001 0.431807
0.066285 0.828180 0.431807
0.212903 0.828180 0.431807
0.365014 0.828180 0.431807
0.519673 0.828180 0.431807
0.673188 0.828180 0.431807
0.821817 0.828180 0.431807
0.961868 0.828180 0.431807
1.000000 0.828180 0.431807
1.000000 0.828180 0.431807
0.066285 0.968692 0.431807
0.212903 0.968692 0.431807
0.365014 0.968692 0.431807
0.519673 0.968692 0.431807
0.673188 0.968692 0.431807
0.821817 0.968692 0.431807
0.961868 0.968692 0.431807
1.000000 0.968692 0.431807
1.000000 0.968692 0.431807
0.066285 1.000000 0.431807
0.212903 1.000000 0.431807
0.365014 1.000000 0.431807
0.519673 1.000000 0.431807
0.673188 1.000000 0.431807
0.821817 1.000000 0.431807
0.961868 1.000000 0.431807
1.000000 1.000000 0.431807
1.000000 1.000000 0.431807
0.066285 1.000000 0.431807
0.212903 1.000000 0.431807
0.365014 1.000000 0.431807
0.519673 1.000000 0.431807
0.673188 1.000000 0.431807
0.821817 1.000000 0.431807
0.961868 1.000000 0.431807
1.000000 1.000000 0.431807
1.000000 1.000000 0.431807
0.066285 0.048801 0.564160
0.212903 0.048801 0.564160
0.365014 0.048801 0.564160
0.519673 0.048801 0.564160
0.673188 0.048801 0.564160
0.821817 0.048801 0.564160
0.961868 0.048801 0.564160
1.000000 0.048801 0.564160
1.000000 0.048801 0.564160
0.066285 0.204638 0.564160
0.212903 0.204638 0.564160
0.365014 0.204638 0.564160
0.519673 0.204638 0.564160
0.673188 0.204638 0.564160
0.821817 0.204638 0.564160
0.961868 0.204638 0.564160
1.000000 0.204638 0.564160
1.000000 0.204638 0.564160
0.066285 0.362749 0.564160
0.212903 0.362749 0.564160
0.365014 0.362749 0.564160
0.519673 0.362749 0.564160
0.673188 0.362749 0.564160
0.821817 0.362749 0.564160
0.961868 0.362749 0.564160
1.000000 0.362749 0.564160
1.000000 0.362749 0.564160
0.066285 0.521669 0.564160
0.212903 0.521669 0.564160
0.365014 0.521669 0.564160
0.519673 0.521669 0.564160
0.673188 0.521669 0.564160
0.821817 0.521669 0.564160
0.961868 0.521669 0.564160
1.000000 0.521669 0.564160
1.000000 0.521669 0.564160
0.066285 0.678001 0.564160
0.212903 0.678001 0.564160
0.365014 0.678001 0.564160
0.519673 0.678001 0.564160
0.673188 0.678001 0.564160
0.821817 0.678001 0.564160
0.961868 0.678001 0.564160
1.000000 0.678001 0.564160
1.000000 0.678001 0.564160
0.066285 0.828180 0.564160
0.212903 0.828180 0.564160
0.365014 0.828180 0.564160
0.519673 0.828180 0.564160
0.673188 0.828180 0.564160
0.821817 0.828180 0.564160
0.961868 0.828180 0.564160
1.000000 0.828180 0.564160
1.000000 0.828180 0.564160
0.066285 0.968692 0.564160
0.212903 0.968692 0.564160
0.365014 0.968692 0.564160
0.519673 0.968692 0.564160
0.673188 0.968692 0.564160
0.821817 0.968692 0.564160
0.961868 0.968692 0.564160
1.000000 0.968692 0.564160
1.000000 0.968692 0.564160
0.066285 1.000000 0.564160
0.212903 1.000000 0.564160
0.365014 1.000000 0.564160
0.519673 1.000000 0.564160
0.673188 1.000000 0.564160
0.821817 1.000000 0.564160
0.961868 1.000000 0.564160
1.000000 1.000000 0.564160
1.000000 1.000000 0.564160
0.066285 1.000000 0.564160
0.212903 1.000000 0.564160
0.365014 1.000000 0.564160
0.519673 1.000000 0.564160
0.673188 1.000000 0.564160
0.821817 1.000000 0.564160
0.961868 1.000000 0.564160
1.000000 1.000000 0.564160
1.000000 1.000000 0.564160
0.066285 0.048801 0.697783
0.212903 0.048801 0.697783
0.365014 0.048801 0.697783
0.519673 0.048801 0.697783
0.673188 0.048801 0.697783
0.821817 0.048801 0.697783
0.961868 0.048801 0.697783
1.000000 0.048801 0.697783
1.000000 0.048801 0.697783
0.066285 0.204638 0.697783
0.212903 0.204638 0.697783
0.365014 0.204638 0.697783
0.519673 0.204638 0.697783
0.673188 0.204638 0.697783
0.821817 0.204638 0.697783
0.961868 0.204638 0.697783
1.000000 0.204638 0.697783
1.000000 0.204638 0.697783
0.066285 0.362749 0.697783
0.212903 0.362749 0.697783
0.365014 0.362749 0.697783
0.519673 0.362749 0.697783
0.673188 0.362749 0.697783
0.821817 0.362749 0.697783
0.961868 0.362749 0.697783
1.000000 0.362749 0.697783
1.000000 0.362749 0.697783
0.066285 0.521669 0.697783
0.212903 0.521669 0.697783
0.365014 0.521669 0.697783
0.519673 0.521669 0.697783
0.673188 0.521669 0.697783
0.821817 0.521669 0.697783
0.961868 0.521669 0.697783
1.000000 0.521669 0.697783
1.000000 0.521669 0.697783
0.066285 0.678001 0.697783
0.212903 0.678001 0.697783
0.365014 0.678001 0.697783
0.519673 0.678001 0.697783
0.673188 0.678001 0.697783
0.821817 0.678001 0.697783
0.961868 0.678001 0.697783
1.000000 0.678001 0.697783
1.000000 0.678001 0.697783
0.066285 0.828180 0.697783
0.212903 0.828180 0.697783
0.365014 0.828180 0.697783
0.519673 0.828180 0.697783
0.673188 0.828180 0.697783
0.821817 0.828180 0.697783
0.961868 0.828180 0.697783
1.000000 0.828180 0.697783
1.000000 0.828180 0.697783
0.066285 0.968692 0.697783
0.212903 0.968692 0.697783
0.365014 0.968692 0.697783
0.519673 0.968692 0.697783
0.673188 0.968692 0.697783
0.821817 0.968692 0.697783
0.961868 0.968692 0.697783
1.000000 0.968692 0.697783
1.000000 0.968692 0.697783
0.066285 1.000000 0.697783
0.212903 1.000000 0.697783
0.365014 1.000000 0.697783
0.519673 1.000000 0.697783
0.673188 1.000000 0.697783
0.821817 1.000000 0.697783
0.961868 1.000000 0.697783
1.000000 1.000000 0.697783
1.000000 1.000000 0.697783
0.066285 1.000000 0.697783
0.212903 1.000000 0.697783
0.365014 1.000000 0.697783
0.519673 1.000000 0.697783
0.673188 1.000000 0.697783
0.821817 1.000000 0.697783
0.961868 1.000000 0.697783
1.000000 1.000000 0.697783
1.000000 1.000000 0.697783
0.066285 0.048801 0.829540
0.212903 0.048801 0.829540
0.365014 0.048801 0.829540
0.519673 0.048801 0.829540
0.673188 0.048801 0.829540
0.821817 0.048801 0.829540
0.961868 0.048801 0.829540
1.000000 0.048801 0.829540
1.000000 0.048801 0.829540
0.066285 0.204638 0.829540
0.212903 0.204638 0.829540
0.365014 0.204638 0.829540
0.519673 0.204638 0.829540
0.673188 0.204638 0.829540
0.821817 0.204638 0.829540
0.961868 0.204638 0.829540
1.000000 0.204638 0.829540
1.000000 0.204638 0.829540
0.066285 0.362749 0.829540
0.212903 0.362749 0.829540
0.365014 0.362749 0.829540
0.519673 0.362749 0.829540
0.673188 0.362749 0.829540
0.821817 0.362749 0.829540
0.961868 0.362749 0.829540
1.000000 0.362749 0.829540
1.000000 0.362749 0.829540
0.066285 0.521669 0.829540
0.212903 0.521669 0.829540
0.365014 0.521669 0.829540
0.519673 0.521669 0.829540
0.673188 0.521669 0.829540
0.821817 0.521669 0.829540
0.961868 0.521669 0.829540
1.000000 0.521669 0.829540
1.000000 0.521669 0.829540
0.066285 0.678001 0.829540
0.212903 0.678001 0.829540
0.365014 0.678001 0.829540
0.519673 0.678001 0.829540
0.673188 0.678001 0.829540
0.821817 0.678001 0.829540
0.961868 0.678001 0.829540
1.000000 0.678001 0.829540
1.000000 0.678001 0.829540
0.066285 0.828180 0.829540
0.212903 0.828180 0.829540
0.365014 0.828180 0.829540
0.519673 0.828180 0.829540
0.673188 0.828180 0.829540
0.821817 0.828180 0.829540
0.961868 0.828180 0.829540
1.000000 0.828180 0.829540
1.000000 0.828180 0.829540
0.066285 0.968692 0.829540
0.212903 0.968692 0.829540
0.365014 0.968692 0.829540
0.519673 0.968692 0.829540
0.673188 0.968692 0.829540
0.821817 0.968692 0.829540
0.961868 0.968692 0.829540
1.000000 0.968692 0.829540
1.000000 0.968692 0.829540
0.066285 1.000000 0.829540
0.212903 1.000000 0.829540
0.365014 1.000000 0.829540
0.519673 1.000000 0.829540
0.673188 1.000000 0.829540
0.821817 1.000000 0.829540
0.961868 1.000000 0.829540
1.000000 1.000000 0.829540
1.000000 1.000000 0.829540
0.066285 1.000000 0.829540
0.212903 1.000000 0.829540
0.365014 1.000000 0.829540
0.519673 1.000000 0.829540
0.673188 1.000000 0.829540
0.821817 1.000000 0.829540
0.961868 1.000000 0.829540
1.000000 1.000000 0.829540
1.000000 1.000000 0.829540
0.066285 0.048801 0.956227
0.212903 0.048801 0.956227
0.365014 0.048801 0.956227
0.519673 0.048801 0.956227
0.673188 0.048801 0.956227
0.821817 0.048801 0.956227
0.961868 0.048801 0.956227
1.000000 0.048801 0.956227
1.000000 0.048801 0.956227
0.066285 0.204638 0.956227
0.212903 0.204638 0.956227
0.365014 0.204638 0.956227
0.519673 0.204638 0.956227
0.673188 0.204638 0.956227
0.821817 0.204638 0.956227
0.961868 0.204638 0.956227
1.000000 0.204638 0.956227
1.000000 0.204638 0.956227
0.066285 0.362749 0.956227
0.212903 0.362749 0.956227
0.365014 0.362749 0.956227
0.519673 0.362749 0.956227
0.673188 0.362749 0.956227
0.821817 0.362749 0.956227
0.961868 0.362749 0.956227
1.000000 0.362749 0.956227
1.000000 0.362749 0.956227
0.066285 0.521669 0.956227
0.212903 0.521669 0.956227
0.365014 0.521669 0.956227
0.519673 0.521669 0.956227
0.673188 0.521669 0.956227
0.821817 0.521669 0.956227
0.961868 0.521669 0.956227
1.000000 0.521669 0.956227
1.000000 0.521669 0.956227
0.066285 0.678001 0.956227
0.212903 0.678001 0.956227
0.365014 0.678001 0.956227
0.519673 0.678001 0.956227
0.673188 0.678001 0.956227
0.821817 0.678001 0.956227
0.961868 0.678001 0.956227
1.000000 0.678001 0.956227
1.000000 0.678001 0.956227
0.066285 0.828180 0.956227
0.212903 0.828180 0.956227
0.365014 0.828180 0.956227
0.519673 0.828180 0.956227
0.673188 0.828180 0.956227
0.821817 0.828180 0.956227
0.961868 0.828180 0.956227
1.000000 0.828180 0.956227
1.000000 0.828180 0.956227
0.066285 0.968692 0.956227
0.212903 0.968692 0.956227
0.365014 0.968692 0.956227
0.519673 0.968692 0.956227
0.673188 0.968692 0.956227
0.821817 0.968692 0.956227
0.961868 0.968692 0.956227
1.000000 0.968692 0.956227
1.000000 0.968692 0.956227
0.066285 1.000000 0.956227
0.212903 1.000000 0.956227
0.365014 1.000000 0.956227
0.519673 1.000000 0.956227
0.673188 1.000000 0.956227
0.821817 1.000000 0.956227
0.961868 1.000000 0.956227
1.000000 1.000000 0.956227
1.000000 1.000000 0.956227
0.066285 1.000000 0.956227
0.212903 1.000000 0.956227
0.365014 1.000000 0.956227
0.519673 1.000000 0.956227
0.673188 1.000000 0.956227
0.821817 1.000000 0.956227
0.961868 1.000000 0.956227
1.000000 1.000000 0.956227
1.000000 1.000000 0.956227
