cinelut/luts/o-farol.cube
# CineLUT — O Farol (2019)
# Gerado por generate_luts.py
LUT_3D_SIZE 9
0.000414 0.000414 0.000414
0.004263 0.004263 0.004263
0.013057 0.013057 0.013057
0.025372 0.025372 0.025372
0.041248 0.041248 0.041248
0.060677 0.060677 0.060677
0.083596 0.083596 0.083596
0.109893 0.109893 0.109893
0.137291 0.137291 0.137291
0.020503 0.020503 0.020503
0.027428 0.027428 0.027428
0.041453 0.041453 0.041453
0.059141 0.059141 0.059141
0.080304 0.080304 0.080304
0.104820 0.104820 0.104820
0.132550 0.132550 0.132550
0.163325 0.163325 0.163325
0.194555 0.194555 0.194555
0.072769 0.072769 0.072769
0.083655 0.083655 0.083655
0.104363 0.104363 0.104363
0.128837 0.128837 0.128837
0.156587 0.156587 0.156587
0.187333 0.187333 0.187333
0.220829 0.220829 0.220829
0.256830 0.256830 0.256830
0.292384 0.292384 0.292384
0.153848 0.153848 0.153848
0.168076 0.168076 0.168076
0.194345 0.194345 0.194345
0.224340 0.224340 0.224340
0.257298 0.257298 0.257298
0.292790 0.292790 0.292790
0.330472 0.330472 0.330472
0.370023 0.370023 0.370023
0.408258 0.408258 0.408258
0.259592 0.259592 0.259592
0.276273 0.276273 0.276273
0.306504 0.306504 0.306504
0.340250 0.340250 0.340250
0.376521 0.376521 0.376521
0.414760 0.414760 0.414760
0.454533 0.454533 0.454533
0.495448 0.495448 0.495448
0.534253 0.534253 0.534253
0.383595 0.383595 0.383595
0.401671 0.401671 0.401671
0.433974 0.433974 0.433974
0.469390 0.469390 0.469390
0.506758 0.506758 0.506758
0.545418 0.545418 0.545418
0.584859 0.584859 0.584859
0.624630 0.624630 0.624630
0.661593 0.661593 0.661593
0.517761 0.517761 0.517761
0.536052 0.536052 0.536052
0.568321 0.568321 0.568321
0.603096 0.603096 0.603096
0.639109 0.639109 0.639109
0.675621 0.675621 0.675621
0.712065 0.712065 0.712065
0.747937 0.747937 0.747937
0.780419 0.780419 0.780419
0.652625 0.652625 0.652625
0.669853 0.669853 0.669853
0.699813 0.699813 0.699813
0.731453 0.731453 0.731453
0.763466 0.763466 0.763466
0.795069 0.795069 0.795069
0.825651 0.825651 0.825651
0.854671 0.854671 0.854671
0.879849 0.879849 0.879849
0.756250 0.756250 0.756250
0.771598 0.771598 0.771598
0.797866 0.797866 0.797866
0.824969 0.824969 0.824969
0.851619 0.851619 0.851619
0.877024 0.877024 0.877024
0.900551 0.900551 0.900551
0.921636 0.921636 0.921636
0.938612 0.938612 0.938612
0.002714 0.002714 0.002714
0.007067 0.007067 0.007067
0.016718 0.016718 0.016718
0.029918 0.029918 0.029918
0.046666 0.046666 0.046666
0.066939 0.066939 0.066939
0.090661 0.090661 0.090661
0.117710 0.117710 0.117710
0.145755 0.145755 0.145755
0.024729 0.024729 0.024729
0.032100 0.032100 0.032100
0.046882 0.046882 0.046882
0.065343 0.065343 0.065343
0.087264 0.087264 0.087264
0.112503 0.112503 0.112503
0.140911 0.140911 0.140911
0.172311 0.172311 0.172311
0.204068 0.204068 0.204068
0.079476 0.079476 0.079476
0.090722 0.090722 0.090722
0.112034 0.112034 0.112034
0.137114 0.137114 0.137114
0.165445 0.165445 0.165445
0.196732 0.196732 0.196732
0.230718 0.230718 0.230718
0.267150 0.267150 0.267150
0.303050 0.303050 0.303050
0.162653 0.162653 0.162653
0.177148 0.177148 0.177148
0.203855 0.203855 0.203855
0.234275 0.234275 0.234275
0.267623 0.267623 0.267623
0.303459 0.303459 0.303459
0.341428 0.341428 0.341428
0.381201 0.381201 0.381201
0.419582 0.419582 0.419582
0.269942 0.269942 0.269942
0.286792 0.286792 0.286792
0.317286 0.317286 0.317286
0.351268 0.351268 0.351268
0.387729 0.387729 0.387729
0.426103 0.426103 0.426103
0.465948 0.465948 0.465948
0.506867 0.506867 0.506867
0.545610 0.545610 0.545610
0.394833 0.394833 0.394833
0.412975 0.412975 0.412975
0.445360 0.445360 0.445360
0.480815 0.480815 0.480815
0.518166 0.518166 0.518166
0.556745 0.556745 0.556745
0.596037 0.596037 0.596037
0.635584 0.635584 0.635584
0.672269 0.672269 0.672269
0.529152 0.529152 0.529152
0.547404 0.547404 0.547404
0.579570 0.579570 0.579570
0.614181 0.614181 0.614181
0.649963 0.649963 0.649963
0.686173 0.686173 0.686173
0.722238 0.722238 0.722238
0.757653 0.757653 0.757653
0.789635 0.789635 0.789635
0.663375 0.663375 0.663375
0.680458 0.680458 0.680458
0.710123 0.710123 0.710123
0.741391 0.741391 0.741391
0.772954 0.772954 0.772954
0.804028 0.804028 0.804028
0.833998 0.833998 0.833998
0.862322 0.862322 0.862322
0.886771 0.886771 0.886771
0.765847 0.765847 0.765847
0.780958 0.780958 0.780958
0.806774 0.806774 0.806774
0.833331 0.833331 0.833331
0.859349 0.859349 0.859349
0.884035 0.884035 0.884035
0.906755 0.906755 0.906755
0.926943 0.926943 0.926943
0.943001 0.943001 0.943001
0.005564 0.005564 0.005564
0.010452 0.010452 0.010452
0.021016 0.021016 0.021016
0.035154 0.035154 0.035154
0.052829 0.052829 0.052829
0.073996 0.073996 0.073996
0.098565 0.098565 0.098565
0.126407 0.126407 0.126407
0.155134 0.155134 0.155134
0.029625 0.029625 0.029625
0.037471 0.037471 0.037471
0.053055 0.053055 0.053055
0.072336 0.072336 0.072336
0.095057 0.095057 0.095057
0.121059 0.121059 0.121059
0.150181 0.150181 0.150181
0.182235 0.182235 0.182235
0.214542 0.214542 0.214542
0.087002 0.087002 0.087002
0.098628 0.098628 0.098628
0.120577 0.120577 0.120577
0.146295 0.146295 0.146295
0.175236 0.175236 0.175236
0.207088 0.207088 0.207088
0.241584 0.241584 0.241584
0.278462 0.278462 0.278462
0.314713 0.314713 0.314713
0.172388 0.172388 0.172388
0.187162 0.187162 0.187162
0.214326 0.214326 0.214326
0.245188 0.245188 0.245188
0.278940 0.278940 0.278940
0.315126 0.315126 0.315126
0.353383 0.353383 0.353383
0.393376 0.393376 0.393376
0.431895 0.431895 0.431895
0.281284 0.281284 0.281284
0.298306 0.298306 0.298306
0.329067 0.329067 0.329067
0.363285 0.363285 0.363285
0.399932 0.399932 0.399932
0.438431 0.438431 0.438431
0.478333 0.478333 0.478333
0.519234 0.519234 0.519234
0.557889 0.557889 0.557889
0.407065 0.407065 0.407065
0.425269 0.425269 0.425269
0.457726 0.457726 0.457726
0.493203 0.493203 0.493203
0.530515 0.530515 0.530515
0.568985 0.568985 0.568985
0.608093 0.608093 0.608093
0.647376 0.647376 0.647376
0.683738 0.683738 0.683738
0.541477 0.541477 0.541477
0.559677 0.559677 0.559677
0.591712 0.591712 0.591712
0.626126 0.626126 0.626126
0.661637 0.661637 0.661637
0.697498 0.697498 0.697498
0.733132 0.733132 0.733132
0.768029 0.768029 0.768029
0.799447 0.799447 0.799447
0.674929 0.674929 0.674929
0.691843 0.691843 0.691843
0.721171 0.721171 0.721171
0.752017 0.752017 0.752017
0.783072 0.783072 0.783072
0.813551 0.813551 0.813551
0.842836 0.842836 0.842836
0.870381 0.870381 0.870381
0.894021 0.894021 0.894021
0.776087 0.776087 0.776087
0.790933 0.790933 0.790933
0.816239 0.816239 0.816239
0.842185 0.842185 0.842185
0.867498 0.867498 0.867498
0.891383 0.891383 0.891383
0.913206 0.913206 0.913206
0.932400 0.932400 0.932400
0.947441 0.947441 0.947441
0.008916 0.008916 0.008916
0.014351 0.014351 0.014351
0.025846 0.025846 0.025846
0.040940 0.040940 0.040940
0.059557 0.059557 0.059557
0.081630 0.081630 0.081630
0.107058 0.107058 0.107058
0.135700 0.135700 0.135700
0.165113 0.165113 0.165113
0.035065 0.035065 0.035065
0.043393 0.043393 0.043393
0.059794 0.059794 0.059794
0.079905 0.079905 0.079905
0.103437 0.103437 0.103437
0.130210 0.130210 0.130210
0.160050 0.160050 0.160050
0.192761 0.192761 0.192761
0.225618 0.225618 0.225618
0.095112 0.095112 0.095112
0.107123 0.107123 0.107123
0.129715 0.129715 0.129715
0.156076 0.156076 0.156076
0.185629 0.185629 0.185629
0.218045 0.218045 0.218045
0.253047 0.253047 0.253047
0.290365 0.290365 0.290365
0.326959 0.326959 0.326959
0.182726 0.182726 0.182726
0.197779 0.197779 0.197779
0.225398 0.225398 0.225398
0.256699 0.256699 0.256699
0.290848 0.290848 0.290848
0.327375 0.327375 0.327375
0.365909 0.365909 0.365909
0.406106 0.406106 0.406106
0.444744 0.444744 0.444744
0.293217 0.293217 0.293217
0.310407 0.310407 0.310407
0.341427 0.341427 0.341427
0.375869 0.375869 0.375869
0.412688 0.412688 0.412688
0.451293 0.451293 0.451293
0.491230 0.491230 0.491230
0.532088 0.532088 0.532088
0.570626 0.570626 0.570626
0.419846 0.419846 0.419846
0.438103 0.438103 0.438103
0.470614 0.470614 0.470614
0.506093 0.506093 0.506093
0.543342 0.543342 0.543342
0.581676 0.581676 0.581676
0.620568 0.620568 0.620568
0.659550 0.659550 0.659550
0.695553 0.695553 0.695553
0.554272 0.554272 0.554272
0.572407 0.572407 0.572407
0.604287 0.604287 0.604287
0.638474 0.638474 0.638474
0.673680 0.673680 0.673680
0.709155 0.709155 0.709155
0.744315 0.744315 0.744315
0.778647 0.778647 0.778647
0.809455 0.809455 0.809455
0.686839 0.686839 0.686839
0.703567 0.703567 0.703567
0.732524 0.732524 0.732524
0.762908 0.762908 0.762908
0.793412 0.793412 0.793412
0.823248 0.823248 0.823248
0.851795 0.851795 0.851795
0.878506 0.878506 0.878506
0.901278 0.901278 0.901278
0.786559 0.786559 0.786559
0.801118 0.801118 0.801118
0.825873 0.825873 0.825873
0.851162 0.851162 0.851162
0.875717 0.875717 0.875717
0.898746 0.898746 0.898746
0.919611 0.919611 0.919611
0.937745 0.937745 0.937745
0.951704 0.951704 0.951704
0.012763 0.012763 0.012763
0.018749 0.018749 0.018749
0.031178 0.031178 0.031178
0.047232 0.047232 0.047232
0.066793 0.066793 0.066793
0.089773 0.089773 0.089773
0.116058 0.116058 0.116058
0.145495 0.145495 0.145495
0.175589 0.175589 0.175589
0.041010 0.041010 0.041010
0.049822 0.049822 0.049822
0.067040 0.067040 0.067040
0.087984 0.087984 0.087984
0.112324 0.112324 0.112324
0.139865 0.139865 0.139865
0.170417 0.170417 0.170417
0.203776 0.203776 0.203776
0.237173 0.237173 0.237173
0.103730 0.103730 0.103730
0.116124 0.116124 0.116124
0.139356 0.139356 0.139356
0.166356 0.166356 0.166356
0.196514 0.196514 0.196514
0.229485 0.229485 0.229485
0.264982 0.264982 0.264982
0.302724 0.302724 0.302724
0.339646 0.339646 0.339646
0.193555 0.193555 0.193555
0.208884 0.208884 0.208884
0.236950 0.236950 0.236950
0.268680 0.268680 0.268680
0.303212 0.303212 0.303212
0.340066 0.340066 0.340066
0.378858 0.378858 0.378858
0.419238 0.419238 0.419238
0.457973 0.457973 0.457973
0.305605 0.305605 0.305605
0.322956 0.322956 0.322956
0.354222 0.354222 0.354222
0.388871 0.388871 0.388871
0.425841 0.425841 0.425841
0.464532 0.464532 0.464532
0.504479 0.504479 0.504479
0.545265 0.545265 0.545265
0.583660 0.583660 0.583660
0.433021 0.433021 0.433021
0.451321 0.451321 0.451321
0.483867 0.483867 0.483867
0.519326 0.519326 0.519326
0.556485 0.556485 0.556485
0.594654 0.594654 0.594654
0.633298 0.633298 0.633298
0.671946 0.671946 0.671946
0.707554 0.707554 0.707554
0.567376 0.567376 0.567376
0.585433 0.585433 0.585433
0.617131 0.617131 0.617131
0.651062 0.651062 0.651062
0.685931 0.685931 0.685931
0.720984 0.720984 0.720984
0.755632 0.755632 0.755632
0.789358 0.789358 0.789358
0.819513 0.819513 0.819513
0.698944 0.698944 0.698944
0.715468 0.715468 0.715468
0.744024 0.744024 0.744024
0.773911 0.773911 0.773911
0.803824 0.803824 0.803824
0.832974 0.832974 0.832974
0.860738 0.860738 0.860738
0.886564 0.886564 0.886564
0.908420 0.908420 0.908420
0.797113 0.797113 0.797113
0.811364 0.811364 0.811364
0.835533 0.835533 0.835533
0.860124 0.860124 0.860124
0.883876 0.883876 0.883876
0.905999 0.905999 0.905999
0.925855 0.925855 0.925855
0.942872 0.942872 0.942872
0.955695 0.955695 0.955695
0.017103 0.017103 0.017103
0.023637 0.023637 0.023637
0.037000 0.037000 0.037000
0.054009 0.054009 0.054009
0.074508 0.074508 0.074508
0.098389 0.098389 0.098389
0.125521 0.125521 0.125521
0.155744 0.155744 0.155744
0.186506 0.186506 0.186506
0.047442 0.047442 0.047442
0.056735 0.056735 0.056735
0.074767 0.074767 0.074767
0.096535 0.096535 0.096535
0.121677 0.121677 0.121677
0.149974 0.149974 0.149974
0.181227 0.181227 0.181227
0.215221 0.215221 0.215221
0.249143 0.249143 0.249143
0.112816 0.112816 0.112816
0.125590 0.125590 0.125590
0.149453 0.149453 0.149453
0.177080 0.177080 0.177080
0.207831 0.207831 0.207831
0.241343 0.241343 0.241343
0.277317 0.277317 0.277317
0.315466 0.315466 0.315466
0.352697 0.352697 0.352697
0.204818 0.204818 0.204818
0.220415 0.220415 0.220415
0.248917 0.248917 0.248917
0.281060 0.281060 0.281060
0.315959 0.315959 0.315959
0.353119 0.353119 0.353119
0.392148 0.392148 0.392148
0.432687 0.432687 0.432687
0.471497 0.471497 0.471497
0.318374 0.318374 0.318374
0.335877 0.335877 0.335877
0.367371 0.367371 0.367371
0.402209 0.402209 0.402209
0.439309 0.439309 0.439309
0.478060 0.478060 0.478060
0.517990 0.517990 0.517990
0.558677 0.558677 0.558677
0.596898 0.596898 0.596898
0.446506 0.446506 0.446506
0.464837 0.464837 0.464837
0.497398 0.497398 0.497398
0.532810 0.532810 0.532810
0.569854 0.569854 0.569854
0.607828 0.607828 0.607828
0.646193 0.646193 0.646193
0.684471 0.684471 0.684471
0.719651 0.719651 0.719651
0.580698 0.580698 0.580698
0.598661 0.598661 0.598661
0.630153 0.630153 0.630153
0.663799 0.663799 0.663799
0.698299 0.698299 0.698299
0.732894 0.732894 0.732894
0.766992 0.766992 0.766992
0.800071 0.800071 0.800071
0.829535 0.829535 0.829535
0.711152 0.711152 0.711152
0.727456 0.727456 0.727456
0.755580 0.755580 0.755580
0.784935 0.784935 0.784935
0.814220 0.814220 0.814220
0.842644 0.842644 0.842644
0.869581 0.869581 0.869581
0.894478 0.894478 0.894478
0.915372 0.915372 0.915372
0.807660 0.807660 0.807660
0.821584 0.821584 0.821584
0.845133 0.845133 0.845133
0.868987 0.868987 0.868987
0.891896 0.891896 0.891896
0.913068 0.913068 0.913068
0.931865 0.931865 0.931865
0.947715 0.947715 0.947715
0.959351 0.959351 0.959351
0.021932 0.021932 0.021932
0.029012 0.029012 0.029012
0.043300 0.043300 0.043300
0.061257 0.061257 0.061257
0.082684 0.082684 0.082684
0.107453 0.107453 0.107453
0.135419 0.135419 0.135419
0.166412 0.166412 0.166412
0.197826 0.197826 0.197826
0.054347 0.054347 0.054347
0.064118 0.064118 0.064118
0.082953 0.082953 0.082953
0.105537 0.105537 0.105537
0.131466 0.131466 0.131466
0.160507 0.160507 0.160507
0.192444 0.192444 0.192444
0.227055 0.227055 0.227055
0.261483 0.261483 0.261483
0.122343 0.122343 0.122343
0.135490 0.135490 0.135490
0.159973 0.159973 0.159973
0.188213 0.188213 0.188213
0.219540 0.219540 0.219540
0.253575 0.253575 0.253575
0.290008 0.290008 0.290008
0.328542 0.328542 0.328542
0.366059 0.366059 0.366059
0.216476 0.216476 0.216476
0.232333 0.232333 0.232333
0.261254 0.261254 0.261254
0.293792 0.293792 0.293792
0.329039 0.329039 0.329039
0.366484 0.366484 0.366484
0.405726 0.405726 0.405726
0.446399 0.446399 0.446399
0.485256 0.485256 0.485256
0.331475 0.331475 0.331475
0.349120 0.349120 0.349120
0.380824 0.380824 0.380824
0.415828 0.415828 0.415828
0.453034 0.453034 0.453034
0.491820 0.491820 0.491820
0.531705 0.531705 0.531705
0.572261 0.572261 0.572261
0.610279 0.610279 0.610279
0.460243 0.460243 0.460243
0.478594 0.478594 0.478594
0.511146 0.511146 0.511146
0.546488 0.546488 0.546488
0.583387 0.583387 0.583387
0.621136 0.621136 0.621136
0.659189 0.659189 0.659189
0.697063 0.697063 0.697063
0.731779 0.731779 0.731779
0.594175 0.594175 0.594175
0.612031 0.612031 0.612031
0.643291 0.643291 0.643291
0.676621 0.676621 0.676621
0.710720 0.710720 0.710720
0.744823 0.744823 0.744823
0.778334 0.778334 0.778334
0.810727 0.810727 0.810727
0.839460 0.839460 0.839460
0.723402 0.723402 0.723402
0.739469 0.739469 0.739469
0.767131 0.767131 0.767131
0.795921 0.795921 0.795921
0.824541 0.824541 0.824541
0.852199 0.852199 0.852199
0.878268 0.878268 0.878268
0.902190 0.902190 0.902190
0.922079 0.922079 0.922079
0.818139 0.818139 0.818139
0.831719 0.831719 0.831719
0.854615 0.854615 0.854615
0.877695 0.877695 0.877695
0.899719 0.899719 0.899719
0.919897 0.919897 0.919897
0.937590 0.937590 0.937590
0.952225 0.952225 0.952225
0.962628 0.962628 0.962628
0.027248 0.027248 0.027248
0.034869 0.034869 0.034869
0.050073 0.050073 0.050073
0.068965 0.068965 0.068965
0.091306 0.091306 0.091306
0.116948 0.116948 0.116948
0.145731 0.145731 0.145731
0.177476 0.177476 0.177476
0.209524 0.209524 0.209524
0.061717 0.061717 0.061717
0.071959 0.071959 0.071959
0.091586 0.091586 0.091586
0.114969 0.114969 0.114969
0.141672 0.141672 0.141672
0.171438 0.171438 0.171438
0.204041 0.204041 0.204041
0.239247 0.239247 0.239247
0.274162 0.274162 0.274162
0.132292 0.132292 0.132292
0.145804 0.145804 0.145804
0.170891 0.170891 0.170891
0.199728 0.199728 0.199728
0.231613 0.231613 0.231613
0.266151 0.266151 0.266151
0.303020 0.303020 0.303020
0.341914 0.341914 0.341914
0.379694 0.379694 0.379694
0.228499 0.228499 0.228499
0.244607 0.244607 0.244607
0.273930 0.273930 0.273930
0.306844 0.306844 0.306844
0.342416 0.342416 0.342416
0.380121 0.380121 0.380121
0.419551 0.419551 0.419551
0.460330 0.460330 0.460330
0.499207 0.499207 0.499207
0.344871 0.344871 0.344871
0.362647 0.362647 0.362647
0.394540 0.394540 0.394540
0.429688 0.429688 0.429688
0.466974 0.466974 0.466974
0.505767 0.505767 0.505767
0.545578 0.545578 0.545578
0.585972 0.585972 0.585972
0.623757 0.623757 0.623757
0.474190 0.474190 0.474190
0.492547 0.492547 0.492547
0.525067 0.525067 0.525067
0.560312 0.560312 0.560312
0.597039 0.597039 0.597039
0.634532 0.634532 0.634532
0.672240 0.672240 0.672240
0.709675 0.709675 0.709675
0.743893 0.743893 0.743893
0.607761 0.607761 0.607761
0.625496 0.625496 0.625496
0.656497 0.656497 0.656497
0.689482 0.689482 0.689482
0.723147 0.723147 0.723147
0.756723 0.756723 0.756723
0.789610 0.789610 0.789610
0.821278 0.821278 0.821278
0.849242 0.849242 0.849242
0.735644 0.735644 0.735644
0.751459 0.751459 0.751459
0.778628 0.778628 0.778628
0.806820 0.806820 0.806820
0.834739 0.834739 0.834739
0.861593 0.861593 0.861593
0.886752 0.886752 0.886752
0.909657 0.909657 0.909657
0.928499 0.928499 0.928499
0.828505 0.828505 0.828505
0.841722 0.841722 0.841722
0.863931 0.863931 0.863931
0.886201 0.886201 0.886201
0.907301 0.907301 0.907301
0.926443 0.926443 0.926443
0.942989 0.942989 0.942989
0.956363 0.956363 0.956363
0.965486 0.965486 0.965486
0.028219 0.028219 0.028219
0.035933 0.035933 0.035933
0.051294 0.051294 0.051294
0.070347 0.070347 0.070347
0.092845 0.092845 0.092845
0.118636 0.118636 0.118636
0.147560 0.147560 0.147560
0.179432 0.179432 0.179432
0.211588 0.211588 0.211588
0.063041 0.063041 0.063041
0.073364 0.073364 0.073364
0.093126 0.093126 0.093126
0.116647 0.116647 0.116647
0.143482 0.143482 0.143482
0.173371 0.173371 0.173371
0.206088 0.206088 0.206088
0.241395 0.241395 0.241395
0.276392 0.276392 0.276392
0.134058 0.134058 0.134058
0.147632 0.147632 0.147632
0.172823 0.172823 0.172823
0.201761 0.201761 0.201761
0.233741 0.233741 0.233741
0.268364 0.268364 0.268364
0.305306 0.305306 0.305306
0.344260 0.344260 0.344260
0.382083 0.382083 0.382083
0.230618 0.230618 0.230618
0.246769 0.246769 0.246769
0.276159 0.276159 0.276159
0.309136 0.309136 0.309136
0.344762 0.344762 0.344762
0.382511 0.382511 0.382511
0.421970 0.421970 0.421970
0.462764 0.462764 0.462764
0.501643 0.501643 0.501643
0.347221 0.347221 0.347221
0.365018 0.365018 0.365018
0.396942 0.396942 0.396942
0.432112 0.432112 0.432112
0.469410 0.469410 0.469410
0.508201 0.508201 0.508201
0.547996 0.547996 0.547996
0.588359 0.588359 0.588359
0.626100 0.626100 0.626100
0.476627 0.476627 0.476627
0.494983 0.494983 0.494983
0.527495 0.527495 0.527495
0.562721 0.562721 0.562721
0.599414 0.599414 0.599414
0.636860 0.636860 0.636860
0.674504 0.674504 0.674504
0.711859 0.711859 0.711859
0.745988 0.745988 0.745988
0.610125 0.610125 0.610125
0.627836 0.627836 0.627836
0.658790 0.658790 0.658790
0.691712 0.691712 0.691712
0.725299 0.725299 0.725299
0.758780 0.758780 0.758780
0.791555 0.791555 0.791555
0.823094 0.823094 0.823094
0.850920 0.850920 0.850920
0.737763 0.737763 0.737763
0.753531 0.753531 0.753531
0.780613 0.780613 0.780613
0.808698 0.808698 0.808698
0.836492 0.836492 0.836492
0.863202 0.863202 0.863202
0.888199 0.888199 0.888199
0.910923 0.910923 0.910923
0.929580 0.929580 0.929580
0.830287 0.830287 0.830287
0.843440 0.843440 0.843440
0.865526 0.865526 0.865526
0.887652 0.887652 0.887652
0.908588 0.908588 0.908588
0.927547 0.927547 0.927547
0.943889 0.943889 0.943889
0.957039 0.957039 0.957039
0.965936 0.965936 0.965936
