cinelut/luts/o-farol.cube
# CineLUT — O Farol (2019)
# Gerado por generate_luts.py
LUT_3D_SIZE 5
0.000414 0.000414 0.000414
0.013057 0.013057 0.013057
0.041248 0.041248 0.041248
0.083596 0.083596 0.083596
0.137291 0.137291 0.137291
0.072769 0.072769 0.072769
0.104363 0.104363 0.104363
0.156587 0.156587 0.156587
0.220829 0.220829 0.220829
0.292384 0.292384 0.292384
0.259592 0.259592 0.259592
0.306504 0.306504 0.306504
0.376521 0.376521 0.376521
0.454533 0.454533 0.454533
0.534253 0.534253 0.534253
0.517761 0.517761 0.517761
0.568321 0.568321 0.568321
0.639109 0.639109 0.639109
0.712065 0.712065 0.712065
0.780419 0.780419 0.780419
0.756250 0.756250 0.756250
0.797866 0.797866 0.797866
0.851619 0.851619 0.851619
0.900551 0.900551 0.900551
0.938612 0.938612 0.938612
0.005564 0.005564 0.005564
0.021016 0.021016 0.021016
0.052829 0.052829 0.052829
0.098565 0.098565 0.098565
0.155134 0.155134 0.155134
0.087002 0.087002 0.087002
0.120577 0.120577 0.120577
0.175236 0.175236 0.175236
0.241584 0.241584 0.241584
0.314713 0.314713 0.314713
0.281284 0.281284 0.281284
0.329067 0.329067 0.329067
0.399932 0.399932 0.399932
0.478333 0.478333 0.478333
0.557889 0.557889 0.557889
0.541477 0.541477 0.541477
0.591712 0.591712 0.591712
0.661637 0.661637 0.661637
0.733132 0.733132 0.733132
0.799447 0.799447 0.799447
0.776087 0.776087 0.776087
0.816239 0.816239 0.816239
0.867498 0.867498 0.867498
0.913206 0.913206 0.913206
0.947441 0.947441 0.947441
0.012763 0.012763 0.012763
0.031178 0.031178 0.031178
0.066793 0.066793 0.066793
0.116058 0.116058 0.116058
0.175589 0.175589 0.175589
0.103730 0.103730 0.103730
0.139356 0.139356 0.139356
0.196514 0.196514 0.196514
0.264982 0.264982 0.264982
0.339646 0.339646 0.339646
0.305605 0.305605 0.305605
0.354222 0.354222 0.354222
0.425841 0.425841 0.425841
0.504479 0.504479 0.504479
0.583660 0.583660 0.583660
0.567376 0.567376 0.567376
0.617131 0.617131 0.617131
0.685931 0.685931 0.685931
0.755632 0.755632 0.755632
0.819513 0.819513 0.819513
0.797113 0.797113 0.797113
0.835533 0.835533 0.835533
0.883876 0.883876 0.883876
0.925855 0.925855 0.925855
0.955695 0.955695 0.955695
0.021932 0.021932 0.021932
0.043300 0.043300 0.043300
0.082684 0.082684 0.082684
0.135419 0.135419 0.135419
0.197826 0.197826 0.197826
0.122343 0.122343 0.122343
0.159973 0.159973 0.159973
0.219540 0.219540 0.219540
0.290008 0.290008 0.290008
0.366059 0.366059 0.366059
0.331475 0.331475 0.331475
0.380824 0.380824 0.380824
0.453034 0.453034 0.453034
0.531705 0.531705 0.531705
0.610279 0.610279 0.610279
0.594175 0.594175 0.594175
0.643291 0.643291 0.643291
0.710720 0.710720 0.710720
0.778334 0.778334 0.778334
0.839460 0.839460 0.839460
0.818139 0.818139 0.818139
0.854615 0.854615 0.854615
0.899719 0.899719 0.899719
0.937590 0.937590 0.937590
0.962628 0.962628 0.962628
0.028219 0.028219 0.028219
0.051294 0.051294 0.051294
0.092845 0.092845 0.092845
0.147560 0.147560 0.147560
0.211588 0.211588 0.211588
0.134058 0.134058 0.134058
0.172823 0.172823 0.172823
0.233741 0.233741 0.233741
0.305306 0.305306 0.305306
0.382083 0.382083 0.382083
0.347221 0.347221 0.347221
0.396942 0.396942 0.396942
0.469410 0.469410 0.469410
0.547996 0.547996 0.547996
0.626100 0.626100 0.626100
0.610125 0.610125 0.610125
0.658790 0.658790 0.658790
0.725299 0.725299 0.725299
0.791555 0.791555 0.791555
0.850920 0.850920 0.850920
0.830287 0.830287 0.830287
0.865526 0.865526 0.865526
0.908588 0.908588 0.908588
0.943889 0.943889 0.943889
0.965936 0.965936 0.965936
