cinelut/luts/o-farol.cube
# CineLUT — O Farol (2019)
# Gerado por generate_luts.py
LUT_3D_SIZE 33
0.000414 0.000414 0.000414
0.000414 0.000414 0.000414
0.001222 0.001222 0.001222
0.002619 0.002619 0.002619
0.004263 0.004263 0.004263
0.006133 0.006133 0.006133
0.008222 0.008222 0.008222
0.010530 0.010530 0.010530
0.013057 0.013057 0.013057
0.015804 0.015804 0.015804
0.018771 0.018771 0.018771
0.021960 0.021960 0.021960
0.025372 0.025372 0.025372
0.029006 0.029006 0.029006
0.032864 0.032864 0.032864
0.036944 0.036944 0.036944
0.041248 0.041248 0.041248
0.045773 0.045773 0.045773
0.050521 0.050521 0.050521
0.055489 0.055489 0.055489
0.060677 0.060677 0.060677
0.066083 0.066083 0.066083
0.071706 0.071706 0.071706
0.077544 0.077544 0.077544
0.083596 0.083596 0.083596
0.089859 0.089859 0.089859
0.096331 0.096331 0.096331
0.103010 0.103010 0.103010
0.109893 0.109893 0.109893
0.116978 0.116978 0.116978
0.124262 0.124262 0.124262
0.131741 0.131741 0.131741
0.137291 0.137291 0.137291
0.001009 0.001009 0.001009
0.001009 0.001009 0.001009
0.001849 0.001849 0.001849
0.003298 0.003298 0.003298
0.004997 0.004997 0.004997
0.006923 0.006923 0.006923
0.009071 0.009071 0.009071
0.011438 0.011438 0.011438
0.014025 0.014025 0.014025
0.016833 0.016833 0.016833
0.019861 0.019861 0.019861
0.023111 0.023111 0.023111
0.026583 0.026583 0.026583
0.030278 0.030278 0.030278
0.034196 0.034196 0.034196
0.038336 0.038336 0.038336
0.042699 0.042699 0.042699
0.047283 0.047283 0.047283
0.052089 0.052089 0.052089
0.057115 0.057115 0.057115
0.062360 0.062360 0.062360
0.067822 0.067822 0.067822
0.073501 0.073501 0.073501
0.079394 0.079394 0.079394
0.085499 0.085499 0.085499
0.091815 0.091815 0.091815
0.098340 0.098340 0.098340
0.105070 0.105070 0.105070
0.112003 0.112003 0.112003
0.119138 0.119138 0.119138
0.126470 0.126470 0.126470
0.133997 0.133997 0.133997
0.139579 0.139579 0.139579
0.005616 0.005616 0.005616
0.005616 0.005616 0.005616
0.006666 0.006666 0.006666
0.008452 0.008452 0.008452
0.010513 0.010513 0.010513
0.012817 0.012817 0.012817
0.015350 0.015350 0.015350
0.018110 0.018110 0.018110
0.021093 0.021093 0.021093
0.024299 0.024299 0.024299
0.027726 0.027726 0.027726
0.031376 0.031376 0.031376
0.035247 0.035247 0.035247
0.039339 0.039339 0.039339
0.043652 0.043652 0.043652
0.048185 0.048185 0.048185
0.052938 0.052938 0.052938
0.057909 0.057909 0.057909
0.063097 0.063097 0.063097
0.068501 0.068501 0.068501
0.074120 0.074120 0.074120
0.079951 0.079951 0.079951
0.085993 0.085993 0.085993
0.092245 0.092245 0.092245
0.098703 0.098703 0.098703
0.105366 0.105366 0.105366
0.112232 0.112232 0.112232
0.119296 0.119296 0.119296
0.126558 0.126558 0.126558
0.134014 0.134014 0.134014
0.141661 0.141661 0.141661
0.149495 0.149495 0.149495
0.155297 0.155297 0.155297
0.012130 0.012130 0.012130
0.012130 0.012130 0.012130
0.013412 0.013412 0.013412
0.015570 0.015570 0.015570
0.018030 0.018030 0.018030
0.020747 0.020747 0.020747
0.023705 0.023705 0.023705
0.026896 0.026896 0.026896
0.030313 0.030313 0.030313
0.033956 0.033956 0.033956
0.037822 0.037822 0.037822
0.041909 0.041909 0.041909
0.046217 0.046217 0.046217
0.050745 0.050745 0.050745
0.055490 0.055490 0.055490
0.060453 0.060453 0.060453
0.065631 0.065631 0.065631
0.071023 0.071023 0.071023
0.076629 0.076629 0.076629
0.082445 0.082445 0.082445
0.088470 0.088470 0.088470
0.094703 0.094703 0.094703
0.101140 0.101140 0.101140
0.107781 0.107781 0.107781
0.114622 0.114622 0.114622
0.121660 0.121660 0.121660
0.128894 0.128894 0.128894
0.136320 0.136320 0.136320
0.143936 0.143936 0.143936
0.151738 0.151738 0.151738
0.159723 0.159723 0.159723
0.167887 0.167887 0.167887
0.173924 0.173924 0.173924
0.020503 0.020503 0.020503
0.020503 0.020503 0.020503
0.022022 0.022022 0.022022
0.024560 0.024560 0.024560
0.027428 0.027428 0.027428
0.030570 0.030570 0.030570
0.033961 0.033961 0.033961
0.037591 0.037591 0.037591
0.041453 0.041453 0.041453
0.045542 0.045542 0.045542
0.049854 0.049854 0.049854
0.054388 0.054388 0.054388
0.059141 0.059141 0.059141
0.064110 0.064110 0.064110
0.069295 0.069295 0.069295
0.074694 0.074694 0.074694
0.080304 0.080304 0.080304
0.086124 0.086124 0.086124
0.092151 0.092151 0.092151
0.098384 0.098384 0.098384
0.104820 0.104820 0.104820
0.111458 0.111458 0.111458
0.118294 0.118294 0.118294
0.125325 0.125325 0.125325
0.132550 0.132550 0.132550
0.139966 0.139966 0.139966
0.147569 0.147569 0.147569
0.155357 0.155357 0.155357
0.163325 0.163325 0.163325
0.171472 0.171472 0.171472
0.179794 0.179794 0.179794
0.188286 0.188286 0.188286
0.194555 0.194555 0.194555
0.030753 0.030753 0.030753
0.030753 0.030753 0.030753
0.032509 0.032509 0.032509
0.035427 0.035427 0.035427
0.038702 0.038702 0.038702
0.042266 0.042266 0.042266
0.046090 0.046090 0.046090
0.050158 0.050158 0.050158
0.054462 0.054462 0.054462
0.058994 0.058994 0.058994
0.063750 0.063750 0.063750
0.068727 0.068727 0.068727
0.073921 0.073921 0.073921
0.079329 0.079329 0.079329
0.084949 0.084949 0.084949
0.090779 0.090779 0.090779
0.096816 0.096816 0.096816
0.103057 0.103057 0.103057
0.109501 0.109501 0.109501
0.116144 0.116144 0.116144
0.122984 0.122984 0.122984
0.130019 0.130019 0.130019
0.137245 0.137245 0.137245
0.144660 0.144660 0.144660
0.152261 0.152261 0.152261
0.160044 0.160044 0.160044
0.168006 0.168006 0.168006
0.176145 0.176145 0.176145
0.184456 0.184456 0.184456
0.192937 0.192937 0.192937
0.201583 0.201583 0.201583
0.210391 0.210391 0.210391
0.216883 0.216883 0.216883
0.042889 0.042889 0.042889
0.042889 0.042889 0.042889
0.044878 0.044878 0.044878
0.048169 0.048169 0.048169
0.051845 0.051845 0.051845
0.055825 0.055825 0.055825
0.060073 0.060073 0.060073
0.064571 0.064571 0.064571
0.069308 0.069308 0.069308
0.074275 0.074275 0.074275
0.079466 0.079466 0.079466
0.084875 0.084875 0.084875
0.090500 0.090500 0.090500
0.096336 0.096336 0.096336
0.102381 0.102381 0.102381
0.108630 0.108630 0.108630
0.115082 0.115082 0.115082
0.121733 0.121733 0.121733
0.128580 0.128580 0.128580
0.135620 0.135620 0.135620
0.142851 0.142851 0.142851
0.150269 0.150269 0.150269
0.157871 0.157871 0.157871
0.165654 0.165654 0.165654
0.173615 0.173615 0.173615
0.181750 0.181750 0.181750
0.190056 0.190056 0.190056
0.198529 0.198529 0.198529
0.207166 0.207166 0.207166
0.215963 0.215963 0.215963
0.224916 0.224916 0.224916
0.234021 0.234021 0.234021
0.240722 0.240722 0.240722
0.056902 0.056902 0.056902
0.056902 0.056902 0.056902
0.059118 0.059118 0.059118
0.062774 0.062774 0.062774
0.066840 0.066840 0.066840
0.071223 0.071223 0.071223
0.075884 0.075884 0.075884
0.080800 0.080800 0.080800
0.085957 0.085957 0.085957
0.091344 0.091344 0.091344
0.096955 0.096955 0.096955
0.102784 0.102784 0.102784
0.108825 0.108825 0.108825
0.115074 0.115074 0.115074
0.121526 0.121526 0.121526
0.128180 0.128180 0.128180
0.135030 0.135030 0.135030
0.142073 0.142073 0.142073
0.149306 0.149306 0.149306
0.156726 0.156726 0.156726
0.164329 0.164329 0.164329
0.172112 0.172112 0.172112
0.180071 0.180071 0.180071
0.188203 0.188203 0.188203
0.196504 0.196504 0.196504
0.204971 0.204971 0.204971
0.213600 0.213600 0.213600
0.222387 0.222387 0.222387
0.231328 0.231328 0.231328
0.240419 0.240419 0.240419
0.249657 0.249657 0.249657
0.259037 0.259037 0.259037
0.265931 0.265931 0.265931
0.072769 0.072769 0.072769
0.072769 0.072769 0.072769
0.075206 0.075206 0.075206
0.079213 0.079213 0.079213
0.083655 0.083655 0.083655
0.088427 0.088427 0.088427
0.093485 0.093485 0.093485
0.098803 0.098803 0.098803
0.104363 0.104363 0.104363
0.110155 0.110155 0.110155
0.116169 0.116169 0.116169
0.122398 0.122398 0.122398
0.128837 0.128837 0.128837
0.135479 0.135479 0.135479
0.142322 0.142322 0.142322
0.149359 0.149359 0.149359
0.156587 0.156587 0.156587
0.164002 0.164002 0.164002
0.171601 0.171601 0.171601
0.179379 0.179379 0.179379
0.187333 0.187333 0.187333
0.195458 0.195458 0.195458
0.203752 0.203752 0.203752
0.212210 0.212210 0.212210
0.220829 0.220829 0.220829
0.229604 0.229604 0.229604
0.238532 0.238532 0.238532
0.247609 0.247609 0.247609
0.256830 0.256830 0.256830
0.266191 0.266191 0.266191
0.275688 0.275688 0.275688
0.285317 0.285317 0.285317
0.292384 0.292384 0.292384
0.090453 0.090453 0.090453
0.090453 0.090453 0.090453
0.093100 0.093100 0.093100
0.097444 0.097444 0.097444
0.102246 0.102246 0.102246
0.107391 0.107391 0.107391
0.112828 0.112828 0.112828
0.118529 0.118529 0.118529
0.124474 0.124474 0.124474
0.130650 0.130650 0.130650
0.137046 0.137046 0.137046
0.143656 0.143656 0.143656
0.150471 0.150471 0.150471
0.157486 0.157486 0.157486
0.164695 0.164695 0.164695
0.172094 0.172094 0.172094
0.179678 0.179678 0.179678
0.187442 0.187442 0.187442
0.195383 0.195383 0.195383
0.203495 0.203495 0.203495
0.211775 0.211775 0.211775
0.220219 0.220219 0.220219
0.228822 0.228822 0.228822
0.237581 0.237581 0.237581
0.246491 0.246491 0.246491
0.255549 0.255549 0.255549
0.264749 0.264749 0.264749
0.274088 0.274088 0.274088
0.283561 0.283561 0.283561
0.293164 0.293164 0.293164
0.302893 0.302893 0.302893
0.312742 0.312742 0.312742
0.319963 0.319963 0.319963
0.109904 0.109904 0.109904
0.109904 0.109904 0.109904
0.112751 0.112751 0.112751
0.117415 0.117415 0.117415
0.122559 0.122559 0.122559
0.128057 0.128057 0.128057
0.133853 0.133853 0.133853
0.139916 0.139916 0.139916
0.146224 0.146224 0.146224
0.152763 0.152763 0.152763
0.159520 0.159520 0.159520
0.166486 0.166486 0.166486
0.173655 0.173655 0.173655
0.181018 0.181018 0.181018
0.188571 0.188571 0.188571
0.196306 0.196306 0.196306
0.204220 0.204220 0.204220
0.212308 0.212308 0.212308
0.220564 0.220564 0.220564
0.228984 0.228984 0.228984
0.237564 0.237564 0.237564
0.246299 0.246299 0.246299
0.255185 0.255185 0.255185
0.264216 0.264216 0.264216
0.273390 0.273390 0.273390
0.282701 0.282701 0.282701
0.292145 0.292145 0.292145
0.301717 0.301717 0.301717
0.311413 0.311413 0.311413
0.321228 0.321228 0.321228
0.331158 0.331158 0.331158
0.341197 0.341197 0.341197
0.348549 0.348549 0.348549
0.131059 0.131059 0.131059
0.131059 0.131059 0.131059
0.134096 0.134096 0.134096
0.139062 0.139062 0.139062
0.144527 0.144527 0.144527
0.150357 0.150357 0.150357
0.156491 0.156491 0.156491
0.162894 0.162894 0.162894
0.169542 0.169542 0.169542
0.176419 0.176419 0.176419
0.183512 0.183512 0.183512
0.190811 0.190811 0.190811
0.198307 0.198307 0.198307
0.205993 0.205993 0.205993
0.213862 0.213862 0.213862
0.221908 0.221908 0.221908
0.230125 0.230125 0.230125
0.238509 0.238509 0.238509
0.247053 0.247053 0.247053
0.255752 0.255752 0.255752
0.264603 0.264603 0.264603
0.273600 0.273600 0.273600
0.282738 0.282738 0.282738
0.292013 0.292013 0.292013
0.301420 0.301420 0.301420
0.310954 0.310954 0.310954
0.320611 0.320611 0.320611
0.330385 0.330385 0.330385
0.340272 0.340272 0.340272
0.350268 0.350268 0.350268
0.360366 0.360366 0.360366
0.370563 0.370563 0.370563
0.378021 0.378021 0.378021
0.153848 0.153848 0.153848
0.153848 0.153848 0.153848
0.157061 0.157061 0.157061
0.162310 0.162310 0.162310
0.168076 0.168076 0.168076
0.174216 0.174216 0.174216
0.180664 0.180664 0.180664
0.187382 0.187382 0.187382
0.194345 0.194345 0.194345
0.201535 0.201535 0.201535
0.208938 0.208938 0.208938
0.216543 0.216543 0.216543
0.224340 0.224340 0.224340
0.232321 0.232321 0.232321
0.240478 0.240478 0.240478
0.248806 0.248806 0.248806
0.257298 0.257298 0.257298
0.265947 0.265947 0.265947
0.274749 0.274749 0.274749
0.283699 0.283699 0.283699
0.292790 0.292790 0.292790
0.302018 0.302018 0.302018
0.311378 0.311378 0.311378
0.320864 0.320864 0.320864
0.330472 0.330472 0.330472
0.340197 0.340197 0.340197
0.350034 0.350034 0.350034
0.359977 0.359977 0.359977
0.370023 0.370023 0.370023
0.380164 0.380164 0.380164
0.390398 0.390398 0.390398
0.400717 0.400717 0.400717
0.408258 0.408258 0.408258
0.178189 0.178189 0.178189
0.178189 0.178189 0.178189
0.181567 0.181567 0.181567
0.187077 0.187077 0.187077
0.193121 0.193121 0.193121
0.199547 0.199547 0.199547
0.206284 0.206284 0.206284
0.213292 0.213292 0.213292
0.220544 0.220544 0.220544
0.228020 0.228020 0.228020
0.235705 0.235705 0.235705
0.243588 0.243588 0.243588
0.251656 0.251656 0.251656
0.259903 0.259903 0.259903
0.268320 0.268320 0.268320
0.276899 0.276899 0.276899
0.285635 0.285635 0.285635
0.294520 0.294520 0.294520
0.303549 0.303549 0.303549
0.312716 0.312716 0.312716
0.322016 0.322016 0.322016
0.331443 0.331443 0.331443
0.340991 0.340991 0.340991
0.350656 0.350656 0.350656
0.360432 0.360432 0.360432
0.370314 0.370314 0.370314
0.380297 0.380297 0.380297
0.390375 0.390375 0.390375
0.400543 0.400543 0.400543
0.410796 0.410796 0.410796
0.421129 0.421129 0.421129
0.431536 0.431536 0.431536
0.439132 0.439132 0.439132
0.203993 0.203993 0.203993
0.203993 0.203993 0.203993
0.207521 0.207521 0.207521
0.213271 0.213271 0.213271
0.219570 0.219570 0.219570
0.226257 0.226257 0.226257
0.233257 0.233257 0.233257
0.240528 0.240528 0.240528
0.248041 0.248041 0.248041
0.255775 0.255775 0.255775
0.263713 0.263713 0.263713
0.271844 0.271844 0.271844
0.280155 0.280155 0.280155
0.288637 0.288637 0.288637
0.297281 0.297281 0.297281
0.306081 0.306081 0.306081
0.315028 0.315028 0.315028
0.324117 0.324117 0.324117
0.333340 0.333340 0.333340
0.342692 0.342692 0.342692
0.352167 0.352167 0.352167
0.361759 0.361759 0.361759
0.371462 0.371462 0.371462
0.381270 0.381270 0.381270
0.391179 0.391179 0.391179
0.401183 0.401183 0.401183
0.411276 0.411276 0.411276
0.421453 0.421453 0.421453
0.431708 0.431708 0.431708
0.442036 0.442036 0.442036
0.452431 0.452431 0.452431
0.462889 0.462889 0.462889
0.470513 0.470513 0.470513
0.231162 0.231162 0.231162
0.231162 0.231162 0.231162
0.234828 0.234828 0.234828
0.240795 0.240795 0.240795
0.247323 0.247323 0.247323
0.254245 0.254245 0.254245
0.261481 0.261481 0.261481
0.268987 0.268987 0.268987
0.276732 0.276732 0.276732
0.284693 0.284693 0.284693
0.292855 0.292855 0.292855
0.301203 0.301203 0.301203
0.309724 0.309724 0.309724
0.318410 0.318410 0.318410
0.327250 0.327250 0.327250
0.336238 0.336238 0.336238
0.345364 0.345364 0.345364
0.354622 0.354622 0.354622
0.364006 0.364006 0.364006
0.373508 0.373508 0.373508
0.383123 0.383123 0.383123
0.392845 0.392845 0.392845
0.402667 0.402667 0.402667
0.412584 0.412584 0.412584
0.422590 0.422590 0.422590
0.432679 0.432679 0.432679
0.442845 0.442845 0.442845
0.453084 0.453084 0.453084
0.463388 0.463388 0.463388
0.473753 0.473753 0.473753
0.484173 0.484173 0.484173
0.494642 0.494642 0.494642
0.502266 0.502266 0.502266
0.259592 0.259592 0.259592
0.259592 0.259592 0.259592
0.263380 0.263380 0.263380
0.269541 0.269541 0.269541
0.276273 0.276273 0.276273
0.283402 0.283402 0.283402
0.290846 0.290846 0.290846
0.298557 0.298557 0.298557
0.306504 0.306504 0.306504
0.314664 0.314664 0.314664
0.323017 0.323017 0.323017
0.331550 0.331550 0.331550
0.340250 0.340250 0.340250
0.349106 0.349106 0.349106
0.358109 0.358109 0.358109
0.367250 0.367250 0.367250
0.376521 0.376521 0.376521
0.385914 0.385914 0.385914
0.395423 0.395423 0.395423
0.405040 0.405040 0.405040
0.414760 0.414760 0.414760
0.424575 0.424575 0.424575
0.434479 0.434479 0.434479
0.444467 0.444467 0.444467
0.454533 0.454533 0.454533
0.464669 0.464669 0.464669
0.474871 0.474871 0.474871
0.485133 0.485133 0.485133
0.495448 0.495448 0.495448
0.505811 0.505811 0.505811
0.516216 0.516216 0.516216
0.526657 0.526657 0.526657
0.534253 0.534253 0.534253
0.289172 0.289172 0.289172
0.289172 0.289172 0.289172
0.293067 0.293067 0.293067
0.299396 0.299396 0.299396
0.306306 0.306306 0.306306
0.313614 0.313614 0.313614
0.321236 0.321236 0.321236
0.329123 0.329123 0.329123
0.337241 0.337241 0.337241
0.345567 0.345567 0.345567
0.354080 0.354080 0.354080
0.362765 0.362765 0.362765
0.371610 0.371610 0.371610
0.380603 0.380603 0.380603
0.389734 0.389734 0.389734
0.398993 0.398993 0.398993
0.408373 0.408373 0.408373
0.417866 0.417866 0.417866
0.427463 0.427463 0.427463
0.437159 0.437159 0.437159
0.446946 0.446946 0.446946
0.456817 0.456817 0.456817
0.466766 0.466766 0.466766
0.476787 0.476787 0.476787
0.486873 0.486873 0.486873
0.497018 0.497018 0.497018
0.507217 0.507217 0.507217
0.517462 0.517462 0.517462
0.527748 0.527748 0.527748
0.538069 0.538069 0.538069
0.548419 0.548419 0.548419
0.558791 0.558791 0.558791
0.566329 0.566329 0.566329
0.319782 0.319782 0.319782
0.319782 0.319782 0.319782
0.323769 0.323769 0.323769
0.330242 0.330242 0.330242
0.337302 0.337302 0.337302
0.344760 0.344760 0.344760
0.352530 0.352530 0.352530
0.360562 0.360562 0.360562
0.368819 0.368819 0.368819
0.377278 0.377278 0.377278
0.385917 0.385917 0.385917
0.394721 0.394721 0.394721
0.403676 0.403676 0.403676
0.412771 0.412771 0.412771
0.421994 0.421994 0.421994
0.431336 0.431336 0.431336
0.440789 0.440789 0.440789
0.450344 0.450344 0.450344
0.459993 0.459993 0.459993
0.469729 0.469729 0.469729
0.479545 0.479545 0.479545
0.489434 0.489434 0.489434
0.499389 0.499389 0.499389
0.509404 0.509404 0.509404
0.519472 0.519472 0.519472
0.529586 0.529586 0.529586
0.539740 0.539740 0.539740
0.549929 0.549929 0.549929
0.560145 0.560145 0.560145
0.570383 0.570383 0.570383
0.580635 0.580635 0.580635
0.590897 0.590897 0.590897
0.598346 0.598346 0.598346
0.351300 0.351300 0.351300
0.351300 0.351300 0.351300
0.355363 0.355363 0.355363
0.361953 0.361953 0.361953
0.369134 0.369134 0.369134
0.376713 0.376713 0.376713
0.384600 0.384600 0.384600
0.392744 0.392744 0.392744
0.401108 0.401108 0.401108
0.409667 0.409667 0.409667
0.418398 0.418398 0.418398
0.427286 0.427286 0.427286
0.436316 0.436316 0.436316
0.445476 0.445476 0.445476
0.454755 0.454755 0.454755
0.464143 0.464143 0.464143
0.473631 0.473631 0.473631
0.483211 0.483211 0.483211
0.492873 0.492873 0.492873
0.502611 0.502611 0.502611
0.512418 0.512418 0.512418
0.522285 0.522285 0.522285
0.532206 0.532206 0.532206
0.542175 0.542175 0.542175
0.552183 0.552183 0.552183
0.562226 0.562226 0.562226
0.572295 0.572295 0.572295
0.582386 0.582386 0.582386
0.592490 0.592490 0.592490
0.602602 0.602602 0.602602
0.612716 0.612716 0.612716
0.622824 0.622824 0.622824
0.630153 0.630153 0.630153
0.383595 0.383595 0.383595
0.383595 0.383595 0.383595
0.387717 0.387717 0.387717
0.394398 0.394398 0.394398
0.401671 0.401671 0.401671
0.409340 0.409340 0.409340
0.417313 0.417313 0.417313
0.425537 0.425537 0.425537
0.433974 0.433974 0.433974
0.442597 0.442597 0.442597
0.451386 0.451386 0.451386
0.460321 0.460321 0.460321
0.469390 0.469390 0.469390
0.478579 0.478579 0.478579
0.487877 0.487877 0.487877
0.497273 0.497273 0.497273
0.506758 0.506758 0.506758
0.516324 0.516324 0.516324
0.525960 0.525960 0.525960
0.535661 0.535661 0.535661
0.545418 0.545418 0.545418
0.555223 0.555223 0.555223
0.565070 0.565070 0.565070
0.574951 0.574951 0.574951
0.584859 0.584859 0.584859
0.594788 0.594788 0.594788
0.604730 0.604730 0.604730
0.614680 0.614680 0.614680
0.624630 0.624630 0.624630
0.634574 0.634574 0.634574
0.644505 0.644505 0.644505
0.654416 0.654416 0.654416
0.661593 0.661593 0.661593
0.416532 0.416532 0.416532
0.416532 0.416532 0.416532
0.420696 0.420696 0.420696
0.427441 0.427441 0.427441
0.434777 0.434777 0.434777
0.442504 0.442504 0.442504
0.450530 0.450530 0.450530
0.458800 0.458800 0.458800
0.467276 0.467276 0.467276
0.475929 0.475929 0.475929
0.484738 0.484738 0.484738
0.493686 0.493686 0.493686
0.502756 0.502756 0.502756
0.511936 0.511936 0.511936
0.521215 0.521215 0.521215
0.530580 0.530580 0.530580
0.540023 0.540023 0.540023
0.549535 0.549535 0.549535
0.559106 0.559106 0.559106
0.568729 0.568729 0.568729
0.578395 0.578395 0.578395
0.588097 0.588097 0.588097
0.597828 0.597828 0.597828
0.607579 0.607579 0.607579
0.617345 0.617345 0.617345
0.627118 0.627118 0.627118
0.636890 0.636890 0.636890
0.646656 0.646656 0.646656
0.656408 0.656408 0.656408
0.666139 0.666139 0.666139
0.675844 0.675844 0.675844
0.685514 0.685514 0.685514
0.692506 0.692506 0.692506
0.449970 0.449970 0.449970
0.449970 0.449970 0.449970
0.454158 0.454158 0.454158
0.460940 0.460940 0.460940
0.468307 0.468307 0.468307
0.476061 0.476061 0.476061
0.484107 0.484107 0.484107
0.492389 0.492389 0.492389
0.500868 0.500868 0.500868
0.509515 0.509515 0.509515
0.518309 0.518309 0.518309
0.527231 0.527231 0.527231
0.536265 0.536265 0.536265
0.545398 0.545398 0.545398
0.554618 0.554618 0.554618
0.563914 0.563914 0.563914
0.573275 0.573275 0.573275
0.582692 0.582692 0.582692
0.592157 0.592157 0.592157
0.601661 0.601661 0.601661
0.611195 0.611195 0.611195
0.620752 0.620752 0.620752
0.630324 0.630324 0.630324
0.639904 0.639904 0.639904
0.649484 0.649484 0.649484
0.659057 0.659057 0.659057
0.668615 0.668615 0.668615
0.678153 0.678153 0.678153
0.687663 0.687663 0.687663
0.697137 0.697137 0.697137
0.706569 0.706569 0.706569
0.715953 0.715953 0.715953
0.722728 0.722728 0.722728
0.483763 0.483763 0.483763
0.483763 0.483763 0.483763
0.487959 0.487959 0.487959
0.494747 0.494747 0.494747
0.502116 0.502116 0.502116
0.509864 0.509864 0.509864
0.517896 0.517896 0.517896
0.526155 0.526155 0.526155
0.534601 0.534601 0.534601
0.543206 0.543206 0.543206
0.551947 0.551947 0.551947
0.560805 0.560805 0.560805
0.569764 0.569764 0.569764
0.578811 0.578811 0.578811
0.587933 0.587933 0.587933
0.597118 0.597118 0.597118
0.606357 0.606357 0.606357
0.615639 0.615639 0.615639
0.624956 0.624956 0.624956
0.634298 0.634298 0.634298
0.643658 0.643658 0.643658
0.653027 0.653027 0.653027
0.662398 0.662398 0.662398
0.671762 0.671762 0.671762
0.681112 0.681112 0.681112
0.690441 0.690441 0.690441
0.699742 0.699742 0.699742
0.709007 0.709007 0.709007
0.718229 0.718229 0.718229
0.727401 0.727401 0.727401
0.736515 0.736515 0.736515
0.745566 0.745566 0.745566
0.752089 0.752089 0.752089
0.517761 0.517761 0.517761
0.517761 0.517761 0.517761
0.521946 0.521946 0.521946
0.528712 0.528712 0.528712
0.536052 0.536052 0.536052
0.543760 0.543760 0.543760
0.551743 0.551743 0.551743
0.559943 0.559943 0.559943
0.568321 0.568321 0.568321
0.576846 0.576846 0.576846
0.585496 0.585496 0.585496
0.594251 0.594251 0.594251
0.603096 0.603096 0.603096
0.612017 0.612017 0.612017
0.621000 0.621000 0.621000
0.630034 0.630034 0.630034
0.639109 0.639109 0.639109
0.648214 0.648214 0.648214
0.657340 0.657340 0.657340
0.666479 0.666479 0.666479
0.675621 0.675621 0.675621
0.684759 0.684759 0.684759
0.693884 0.693884 0.693884
0.702989 0.702989 0.702989
0.712065 0.712065 0.712065
0.721105 0.721105 0.721105
0.730102 0.730102 0.730102
0.739049 0.739049 0.739049
0.747937 0.747937 0.747937
0.756760 0.756760 0.756760
0.765510 0.765510 0.765510
0.774181 0.774181 0.774181
0.780419 0.780419 0.780419
0.551807 0.551807 0.551807
0.551807 0.551807 0.551807
0.555964 0.555964 0.555964
0.562679 0.562679 0.562679
0.569956 0.569956 0.569956
0.577592 0.577592 0.577592
0.585491 0.585491 0.585491
0.593596 0.593596 0.593596
0.601867 0.601867 0.601867
0.610274 0.610274 0.610274
0.618795 0.618795 0.618795
0.627409 0.627409 0.627409
0.636099 0.636099 0.636099
0.644853 0.644853 0.644853
0.653656 0.653656 0.653656
0.662498 0.662498 0.662498
0.671366 0.671366 0.671366
0.680252 0.680252 0.680252
0.689145 0.689145 0.689145
0.698036 0.698036 0.698036
0.706917 0.706917 0.706917
0.715780 0.715780 0.715780
0.724615 0.724615 0.724615
0.733414 0.733414 0.733414
0.742171 0.742171 0.742171
0.750877 0.750877 0.750877
0.759524 0.759524 0.759524
0.768106 0.768106 0.768106
0.776614 0.776614 0.776614
0.785041 0.785041 0.785041
0.793380 0.793380 0.793380
0.801623 0.801623 0.801623
0.807542 0.807542 0.807542
0.585744 0.585744 0.585744
0.585744 0.585744 0.585744
0.589853 0.589853 0.589853
0.596487 0.596487 0.596487
0.603669 0.603669 0.603669
0.611197 0.611197 0.611197
0.618977 0.618977 0.618977
0.626950 0.626950 0.626950
0.635077 0.635077 0.635077
0.643328 0.643328 0.643328
0.651679 0.651679 0.651679
0.660111 0.660111 0.660111
0.668607 0.668607 0.668607
0.677153 0.677153 0.677153
0.685735 0.685735 0.685735
0.694341 0.694341 0.694341
0.702961 0.702961 0.702961
0.711583 0.711583 0.711583
0.720200 0.720200 0.720200
0.728800 0.728800 0.728800
0.737375 0.737375 0.737375
0.745916 0.745916 0.745916
0.754416 0.754416 0.754416
0.762865 0.762865 0.762865
0.771257 0.771257 0.771257
0.779582 0.779582 0.779582
0.787833 0.787833 0.787833
0.796003 0.796003 0.796003
